; generated by Slic3r 1.2.9 on 2016-03-30 at 17:43:38

; external perimeters extrusion width = 0.40mm
; perimeters extrusion width = 0.30mm
; infill extrusion width = 0.65mm
; solid infill extrusion width = 0.40mm
; top infill extrusion width = 0.40mm

M107
M104 S225 ; set temperature
; -- START GCODE --
M800        ; Custom GCODE to fire start print procedure
; -- end of START GCODE --
M109 S225 ; wait for temperature to be reached
G21 ; set units to millimeters
G90 ; use absolute coordinates
M82 ; use absolute distances for extrusion
G92 E0
; LAYER 0, HEIGHT 0.3
G1 Z0.300 F12000.000
G1 E-2.00000 F12000.00000
G92 E0
G1 X63.149 Y114.753 F12000.000
G1 E2.00000 F12000.00000
M204 S1000
G1 F1920
G1 X64.040 Y114.287 E2.05458
G1 X65.201 Y113.761 E2.12385
G1 X66.250 Y113.358 E2.18493
G1 X67.467 Y112.972 E2.25429
G1 X68.703 Y112.663 E2.32351
G1 X69.958 Y112.433 E2.39282
G1 X70.954 Y112.307 E2.44739
G1 X72.227 Y112.218 E2.51673
G1 X73.000 Y112.203 E2.55872
G1 X137.078 Y112.204 E6.04024
G1 X137.928 Y112.225 E6.08645
G1 X138.622 Y112.268 E6.12424
G1 X140.042 Y112.433 E6.20193
G1 X140.880 Y112.578 E6.24811
G1 X141.563 Y112.723 E6.28604
G1 X142.944 Y113.093 E6.36375
G1 X143.750 Y113.358 E6.40982
G1 X144.405 Y113.602 E6.44780
G1 X145.715 Y114.169 E6.52538
G1 X146.474 Y114.549 E6.57151
G1 X147.088 Y114.886 E6.60955
G1 X148.302 Y115.639 E6.68718
G1 X149.339 Y116.382 E6.75646
G1 X150.211 Y117.088 E6.81745
G1 X151.153 Y117.948 E6.88674
G1 X151.855 Y118.665 E6.94126
G1 X152.597 Y119.507 E7.00225
G1 X153.221 Y120.294 E7.05683
G1 X153.956 Y121.336 E7.12609
G1 X154.548 Y122.291 E7.18710
G1 X155.030 Y123.168 E7.24150
G1 X155.520 Y124.182 E7.30269
G1 X156.006 Y125.359 E7.37190
G1 X156.336 Y126.306 E7.42635
G1 X156.649 Y127.385 E7.48743
G1 X156.879 Y128.363 E7.54201
G1 X157.100 Y129.618 E7.61123
G1 X157.229 Y130.735 E7.67234
G1 X157.285 Y131.582 E7.71844
G1 X157.307 Y132.510 E7.76889
G1 X157.307 Y164.500 E9.50699
G1 X157.292 Y165.272 E9.54897
G1 X157.242 Y166.122 E9.59520
G1 X157.100 Y167.392 E9.66465
G1 X156.879 Y168.647 E9.73386
G1 X156.538 Y170.033 E9.81143
G1 X156.152 Y171.250 E9.88078
G1 X155.690 Y172.439 E9.95009
G1 X155.154 Y173.599 E10.01956
G1 X154.548 Y174.720 E10.08876
G1 X153.871 Y175.802 E10.15814
G1 X153.128 Y176.839 E10.22741
G1 X152.422 Y177.711 E10.28841
G1 X151.562 Y178.653 E10.35769
G1 X150.845 Y179.355 E10.41221
G1 X150.003 Y180.097 E10.47320
G1 X149.216 Y180.721 E10.52777
G1 X148.174 Y181.456 E10.59703
G1 X147.220 Y182.048 E10.65805
G1 X146.342 Y182.530 E10.71246
G1 X145.328 Y183.020 E10.77363
G1 X144.151 Y183.506 E10.84285
G1 X143.204 Y183.835 E10.89729
G1 X142.125 Y184.149 E10.95837
G1 X141.147 Y184.379 E11.01296
G1 X139.892 Y184.600 E11.08218
G1 X138.775 Y184.729 E11.14329
G1 X137.500 Y184.797 E11.21265
G1 X104.500 Y184.797 E13.00564
G1 X103.378 Y184.742 E13.06667
G1 X102.108 Y184.600 E13.13611
G1 X100.853 Y184.379 E13.20533
G1 X99.467 Y184.038 E13.28289
G1 X98.250 Y183.652 E13.35225
G1 X97.061 Y183.191 E13.42154
G1 X95.901 Y182.654 E13.49102
G1 X94.781 Y182.048 E13.56022
G1 X93.698 Y181.371 E13.62960
G1 X92.784 Y180.721 E13.69049
G1 X92.116 Y180.196 E13.73669
G1 X91.469 Y179.642 E13.78296
G1 X90.738 Y178.956 E13.83742
G1 X58.438 Y146.663 E16.31903
G1 X57.858 Y146.041 E16.36523
G1 X57.304 Y145.394 E16.41150
G1 X56.779 Y144.726 E16.45770
G1 X56.282 Y144.037 E16.50380
G1 X55.813 Y143.325 E16.55018
G1 X55.376 Y142.598 E16.59624
G1 X54.970 Y141.852 E16.64239
G1 X54.593 Y141.086 E16.68878
G1 X54.148 Y140.057 E16.74969
G1 X53.848 Y139.260 E16.79598
G1 X53.538 Y138.305 E16.85054
G1 X53.312 Y137.485 E16.89674
G1 X53.068 Y136.390 E16.95770
G1 X52.923 Y135.552 E17.00389
G1 X52.813 Y134.709 E17.05011
G1 X52.729 Y133.710 E17.10455
G1 X52.694 Y132.588 E17.16556
G1 X52.708 Y131.737 E17.21178
G1 X52.758 Y130.888 E17.25799
G1 X52.844 Y130.041 E17.30427
G1 X52.991 Y129.049 E17.35876
G1 X53.153 Y128.213 E17.40501
G1 X53.351 Y127.385 E17.45126
G1 X53.664 Y126.306 E17.51234
G1 X53.994 Y125.359 E17.56678
G1 X54.310 Y124.571 E17.61291
G1 X54.659 Y123.795 E17.65916
G1 X55.168 Y122.796 E17.72009
G1 X55.669 Y121.927 E17.77460
G1 X56.129 Y121.208 E17.82097
G1 X56.779 Y120.294 E17.88186
G1 X57.304 Y119.626 E17.92807
G1 X57.858 Y118.979 E17.97434
G1 X58.545 Y118.248 E18.02885
G1 X59.155 Y117.655 E18.07506
G1 X59.997 Y116.913 E18.13604
G1 X60.661 Y116.382 E18.18224
G1 X61.473 Y115.793 E18.23673
G1 X62.185 Y115.323 E18.28310
G1 X63.097 Y114.782 E18.34070
G1 X63.363 Y115.132 F12000.000
G1 F1920
G1 X64.229 Y114.679 E18.39379
G1 X65.365 Y114.164 E18.46157
G1 X66.398 Y113.768 E18.52166
G1 X67.588 Y113.390 E18.58952
G1 X68.798 Y113.088 E18.65726
G1 X70.026 Y112.863 E18.72508
G1 X70.995 Y112.740 E18.77817
G1 X72.241 Y112.654 E18.84602
G1 X73.000 Y112.639 E18.88727
G1 X137.073 Y112.639 E22.36854
G1 X137.905 Y112.660 E22.41376
G1 X138.590 Y112.703 E22.45106
G1 X139.974 Y112.863 E22.52676
G1 X140.794 Y113.005 E22.57195
G1 X141.468 Y113.148 E22.60939
G1 X142.814 Y113.509 E22.68511
G1 X143.602 Y113.768 E22.73020
G1 X144.249 Y114.008 E22.76768
G1 X145.526 Y114.561 E22.84327
G1 X146.269 Y114.933 E22.88842
G1 X146.874 Y115.266 E22.92596
G1 X148.057 Y116.000 E23.00160
G1 X149.072 Y116.726 E23.06939
G1 X149.930 Y117.421 E23.12940
G1 X150.852 Y118.262 E23.19720
G1 X151.534 Y118.960 E23.25023
G1 X152.265 Y119.788 E23.31023
G1 X152.872 Y120.554 E23.36332
G1 X153.591 Y121.573 E23.43110
G1 X154.173 Y122.512 E23.49112
G1 X154.642 Y123.366 E23.54404
G1 X155.124 Y124.363 E23.60422
G1 X155.599 Y125.515 E23.67196
G1 X155.920 Y126.436 E23.72493
G1 X156.229 Y127.498 E23.78501
G1 X156.452 Y128.449 E23.83810
G1 X156.668 Y129.677 E23.90583
G1 X156.795 Y130.776 E23.96594
G1 X156.850 Y131.605 E24.01106
G1 X156.871 Y132.510 E24.06026
G1 X156.871 Y164.500 E25.79837
G1 X156.856 Y165.259 E25.83961
G1 X156.807 Y166.090 E25.88485
G1 X156.668 Y167.333 E25.95280
G1 X156.452 Y168.561 E26.02054
G1 X156.120 Y169.912 E26.09612
G1 X155.742 Y171.102 E26.16399
G1 X155.291 Y172.266 E26.23181
G1 X154.766 Y173.402 E26.29978
G1 X154.173 Y174.498 E26.36750
G1 X153.510 Y175.557 E26.43539
G1 X152.784 Y176.572 E26.50318
G1 X152.089 Y177.430 E26.56318
G1 X151.248 Y178.352 E26.63098
G1 X150.550 Y179.034 E26.68401
G1 X149.722 Y179.765 E26.74401
G1 X148.956 Y180.372 E26.79709
G1 X147.937 Y181.090 E26.86487
G1 X146.998 Y181.673 E26.92490
G1 X146.144 Y182.142 E26.97782
G1 X145.147 Y182.624 E27.03800
G1 X143.995 Y183.099 E27.10574
G1 X143.074 Y183.420 E27.15869
G1 X142.012 Y183.729 E27.21878
G1 X141.061 Y183.952 E27.27188
G1 X139.833 Y184.168 E27.33962
G1 X138.734 Y184.295 E27.39972
G1 X137.500 Y184.361 E27.46686
G1 X104.500 Y184.361 E29.25984
G1 X103.410 Y184.307 E29.31914
G1 X102.167 Y184.168 E29.38709
G1 X100.939 Y183.952 E29.45483
G1 X99.588 Y183.620 E29.53041
G1 X98.398 Y183.242 E29.59828
G1 X97.234 Y182.791 E29.66609
G1 X96.099 Y182.266 E29.73407
G1 X95.002 Y181.673 E29.80179
G1 X93.943 Y181.010 E29.86968
G1 X93.044 Y180.372 E29.92959
G1 X92.390 Y179.857 E29.97480
G1 X91.757 Y179.315 E30.02007
G1 X91.046 Y178.648 E30.07304
G1 X58.752 Y146.362 E32.55415
G1 X58.185 Y145.753 E32.59937
G1 X57.643 Y145.120 E32.64464
G1 X57.128 Y144.466 E32.68985
G1 X56.643 Y143.793 E32.73497
G1 X56.183 Y143.095 E32.78034
G1 X55.756 Y142.384 E32.82542
G1 X55.358 Y141.654 E32.87058
G1 X54.989 Y140.905 E32.91597
G1 X54.551 Y139.892 E32.97589
G1 X54.258 Y139.112 E33.02119
G1 X53.956 Y138.183 E33.07426
G1 X53.735 Y137.381 E33.11947
G1 X53.548 Y136.571 E33.16465
G1 X53.353 Y135.484 E33.22464
G1 X53.245 Y134.659 E33.26987
G1 X53.164 Y133.687 E33.32283
G1 X53.129 Y132.583 E33.38285
G1 X53.144 Y131.751 E33.42807
G1 X53.193 Y130.920 E33.47330
G1 X53.277 Y130.091 E33.51858
G1 X53.419 Y129.126 E33.57159
G1 X53.578 Y128.308 E33.61684
G1 X53.771 Y127.498 E33.66209
G1 X54.080 Y126.436 E33.72218
G1 X54.401 Y125.515 E33.77513
G1 X54.709 Y124.744 E33.82028
G1 X55.051 Y123.984 E33.86554
G1 X55.552 Y123.001 E33.92548
G1 X56.040 Y122.156 E33.97850
G1 X56.490 Y121.453 E34.02388
G1 X57.128 Y120.554 E34.08378
G1 X57.643 Y119.900 E34.12899
G1 X58.185 Y119.267 E34.17427
G1 X58.853 Y118.556 E34.22730
G1 X59.450 Y117.976 E34.27251
G1 X60.278 Y117.245 E34.33251
G1 X60.928 Y116.726 E34.37772
G1 X61.717 Y116.153 E34.43072
G1 X62.415 Y115.693 E34.47609
G1 X63.311 Y115.162 E34.53270
G1 X63.577 Y115.512 F12000.000
G1 F1920
G1 X64.419 Y115.072 E34.58431
G1 X65.530 Y114.568 E34.65061
G1 X66.545 Y114.178 E34.70969
G1 X67.710 Y113.808 E34.77607
G1 X68.893 Y113.514 E34.84233
G1 X70.094 Y113.293 E34.90866
G1 X71.036 Y113.174 E34.96025
G1 X72.254 Y113.089 E35.02662
G1 X73.000 Y113.074 E35.06713
G1 X137.068 Y113.075 E38.54815
G1 X137.882 Y113.095 E38.59238
G1 X138.558 Y113.137 E38.62919
G1 X139.906 Y113.293 E38.70290
G1 X140.708 Y113.432 E38.74711
G1 X141.373 Y113.573 E38.78404
G1 X142.683 Y113.924 E38.85777
G1 X143.455 Y114.178 E38.90188
G1 X144.093 Y114.415 E38.93886
G1 X145.336 Y114.953 E39.01248
G1 X146.063 Y115.317 E39.05664
G1 X146.660 Y115.645 E39.09367
G1 X147.812 Y116.360 E39.16733
G1 X148.805 Y117.070 E39.23364
G1 X149.649 Y117.754 E39.29265
G1 X150.550 Y118.577 E39.35897
G1 X151.214 Y119.255 E39.41052
G1 X151.932 Y120.069 E39.46952
G1 X152.522 Y120.814 E39.52113
G1 X153.225 Y121.811 E39.58742
G1 X153.798 Y122.734 E39.64645
G1 X154.254 Y123.564 E39.69789
G1 X154.728 Y124.544 E39.75707
G1 X155.193 Y125.672 E39.82332
G1 X155.504 Y126.567 E39.87481
G1 X155.808 Y127.611 E39.93389
G1 X156.025 Y128.535 E39.98549
G1 X156.236 Y129.736 E40.05175
G1 X156.362 Y130.817 E40.11086
G1 X156.415 Y131.628 E40.15500
G1 X156.436 Y132.510 E40.20295
G1 X156.436 Y164.500 E41.94106
G1 X156.393 Y165.787 E42.01101
G1 X156.273 Y167.004 E42.07746
G1 X156.078 Y168.208 E42.14372
G1 X155.808 Y169.399 E42.21011
G1 X155.626 Y170.052 E42.24692
G1 X155.377 Y170.827 E42.29117
G1 X154.943 Y171.970 E42.35758
G1 X154.438 Y173.081 E42.42389
G1 X153.865 Y174.160 E42.49028
G1 X153.150 Y175.312 E42.56395
G1 X152.440 Y176.305 E42.63025
G1 X151.756 Y177.149 E42.68927
G1 X150.933 Y178.050 E42.75558
G1 X150.255 Y178.714 E42.80712
G1 X149.441 Y179.432 E42.86613
G1 X148.696 Y180.022 E42.91772
G1 X147.700 Y180.725 E42.98401
G1 X146.776 Y181.298 E43.04305
G1 X145.946 Y181.754 E43.09450
G1 X144.966 Y182.228 E43.15367
G1 X143.838 Y182.693 E43.21993
G1 X142.944 Y183.004 E43.27140
G1 X141.899 Y183.308 E43.33049
G1 X140.975 Y183.525 E43.38210
G1 X139.774 Y183.736 E43.44836
G1 X138.693 Y183.861 E43.50747
G1 X137.500 Y183.926 E43.57238
G1 X104.500 Y183.926 E45.36536
G1 X103.713 Y183.893 E45.40814
G1 X102.496 Y183.773 E45.47457
G1 X101.259 Y183.572 E45.54268
G1 X100.497 Y183.407 E45.58504
G1 X99.838 Y183.237 E45.62205
G1 X98.673 Y182.877 E45.68829
G1 X97.530 Y182.443 E45.75471
G1 X96.419 Y181.938 E45.82102
G1 X95.340 Y181.365 E45.88741
G1 X94.188 Y180.650 E45.96108
G1 X93.304 Y180.022 E46.02000
G1 X92.664 Y179.519 E46.06422
G1 X92.045 Y178.988 E46.10850
G1 X91.354 Y178.340 E46.15999
G1 X59.067 Y146.060 E48.64060
G1 X58.512 Y145.465 E48.68482
G1 X57.981 Y144.846 E48.72910
G1 X57.478 Y144.206 E48.77332
G1 X57.003 Y143.548 E48.81745
G1 X56.553 Y142.866 E48.86183
G1 X56.135 Y142.170 E48.90592
G1 X55.807 Y141.573 E48.94296
G1 X55.443 Y140.846 E48.98712
G1 X55.057 Y139.980 E49.03863
G1 X54.760 Y139.221 E49.08292
G1 X54.414 Y138.193 E49.14182
G1 X54.192 Y137.409 E49.18610
G1 X53.975 Y136.485 E49.23771
G1 X53.826 Y135.685 E49.28191
G1 X53.682 Y134.643 E49.33908
G1 X53.607 Y133.797 E49.38522
G1 X53.570 Y132.983 E49.42947
G1 X53.570 Y132.037 E49.48088
G1 X53.627 Y130.952 E49.53992
G1 X53.710 Y130.141 E49.58420
G1 X53.848 Y129.203 E49.63573
G1 X54.004 Y128.403 E49.67999
G1 X54.192 Y127.611 E49.72425
G1 X54.496 Y126.566 E49.78334
G1 X54.807 Y125.672 E49.83481
G1 X55.109 Y124.917 E49.87897
G1 X55.443 Y124.174 E49.92323
G1 X55.936 Y123.207 E49.98219
G1 X56.410 Y122.386 E50.03372
G1 X56.850 Y121.698 E50.07810
G1 X57.478 Y120.814 E50.13702
G1 X57.981 Y120.174 E50.18124
G1 X58.512 Y119.555 E50.22552
G1 X59.161 Y118.864 E50.27706
G1 X59.745 Y118.296 E50.32129
G1 X60.559 Y117.578 E50.38029
G1 X61.195 Y117.070 E50.42451
G1 X61.962 Y116.513 E50.47602
G1 X62.644 Y116.063 E50.52040
G1 X63.525 Y115.541 E50.57603
G1 E48.57603 F12000.00000
G92 E0
G1 X107.057 Y143.763 F12000.000
G1 E2.00000 F12000.00000
G1 F960
G1 X107.057 Y138.736 E2.27313
G1 X107.668 Y138.502 E2.30869
G1 X108.279 Y138.190 E2.34599
G1 X108.855 Y137.816 E2.38329
G1 X109.389 Y137.384 E2.42059
G1 X109.874 Y136.899 E2.45789
G1 X110.306 Y136.365 E2.49520
G1 X110.680 Y135.790 E2.53250
G1 X110.992 Y135.178 E2.56980
G1 X111.241 Y134.529 E2.60754
G1 X111.441 Y133.749 E2.65132
G1 X111.536 Y133.059 E2.68916
G1 X111.558 Y132.373 E2.72647
G1 X111.507 Y131.688 E2.76377
G1 X111.384 Y131.004 E2.80151
G1 X111.149 Y130.223 E2.84583
G1 X110.813 Y129.471 E2.89059
G1 X110.395 Y128.780 E2.93445
G1 X110.059 Y128.338 E2.96465
G1 X109.764 Y128.003 E2.98889
G1 X109.181 Y127.455 E3.03233
G1 X108.528 Y126.981 E3.07620
G1 X108.045 Y126.702 E3.10649
G1 X107.645 Y126.509 E3.13065
G1 X106.896 Y126.230 E3.17407
G1 X106.094 Y126.042 E3.21884
G1 X105.289 Y125.957 E3.26280
G1 X104.733 Y125.958 E3.29299
G1 X104.290 Y125.990 E3.31715
G1 X103.502 Y126.123 E3.36057
G1 X102.713 Y126.362 E3.40534
G1 X101.974 Y126.691 E3.44930
G1 X101.493 Y126.969 E3.47950
G1 X101.125 Y127.219 E3.50365
G1 X100.509 Y127.728 E3.54707
G1 X99.952 Y128.321 E3.59129
G1 X99.532 Y128.887 E3.62957
G1 X99.124 Y129.593 E3.67389
G1 X98.805 Y130.353 E3.71865
G1 X98.583 Y131.146 E3.76341
G1 X98.463 Y131.961 E3.80817
G1 X98.446 Y132.785 E3.85293
G1 X98.530 Y133.588 E3.89680
G1 X98.648 Y134.141 E3.92753
G1 X98.804 Y134.657 E3.95684
G1 X98.958 Y135.059 E3.98019
G1 X99.188 Y135.548 E4.00960
G1 X99.463 Y136.024 E4.03945
G1 X99.776 Y136.475 E4.06929
G1 X100.126 Y136.898 E4.09913
G1 X100.511 Y137.291 E4.12897
G1 X100.926 Y137.650 E4.15882
G1 X101.371 Y137.972 E4.18866
G1 X101.841 Y138.257 E4.21850
G1 X102.333 Y138.501 E4.24835
G1 X102.943 Y138.734 E4.28384
G1 X102.943 Y143.763 E4.55713
G1 X102.395 Y143.652 E4.58753
G1 X101.685 Y143.462 E4.62746
G1 X101.252 Y143.321 E4.65217
G1 X100.331 Y142.957 E4.70602
G1 X99.920 Y142.763 E4.73072
G1 X99.272 Y142.415 E4.77067
G1 X98.876 Y142.176 E4.79582
G1 X98.281 Y141.772 E4.83488
G1 X97.511 Y141.161 E4.88827
G1 X97.173 Y140.857 E4.91298
G1 X96.659 Y140.343 E4.95249
G1 X96.178 Y139.798 E4.99198
G1 X95.896 Y139.441 E5.01669
G1 X95.335 Y138.634 E5.07009
G1 X94.969 Y138.015 E5.10915
G1 X94.751 Y137.598 E5.13474
G1 X94.550 Y137.172 E5.16034
G1 X94.275 Y136.498 E5.19984
G1 X94.043 Y135.810 E5.23934
G1 X93.921 Y135.372 E5.26405
G1 X93.719 Y134.418 E5.31700
G1 X93.596 Y133.451 E5.36996
G1 X93.568 Y132.997 E5.39466
G1 X93.560 Y132.279 E5.43372
G1 X93.622 Y131.298 E5.48712
G1 X93.679 Y130.847 E5.51183
G1 X93.809 Y130.123 E5.55178
G1 X93.915 Y129.672 E5.57693
G1 X94.120 Y128.966 E5.61687
G1 X94.272 Y128.529 E5.64203
G1 X94.544 Y127.864 E5.68108
G1 X94.977 Y126.991 E5.73403
G1 X95.343 Y126.372 E5.77308
G1 X95.595 Y125.993 E5.79780
G1 X96.189 Y125.210 E5.85123
G1 X96.643 Y124.695 E5.88852
G1 X96.989 Y124.339 E5.91548
G1 X97.529 Y123.843 E5.95535
G1 X97.892 Y123.542 E5.98094
G1 X98.268 Y123.258 E6.00654
G1 X98.869 Y122.849 E6.04604
G1 X99.495 Y122.479 E6.08554
G1 X99.898 Y122.268 E6.11025
G1 X100.788 Y121.872 E6.16320
G1 X101.708 Y121.551 E6.21616
G1 X102.146 Y121.429 E6.24086
G1 X102.856 Y121.270 E6.28036
G1 X103.574 Y121.157 E6.31987
G1 X104.025 Y121.109 E6.34451
G1 X105.040 Y121.068 E6.39971
G1 X105.726 Y121.090 E6.43699
G1 X106.196 Y121.130 E6.46262
G1 X106.663 Y121.189 E6.48822
G1 X107.371 Y121.316 E6.52728
G1 X108.315 Y121.559 E6.58023
G1 X108.996 Y121.788 E6.61928
G1 X109.434 Y121.961 E6.64488
G1 X109.865 Y122.153 E6.67048
G1 X110.505 Y122.479 E6.70953
G1 X111.339 Y122.984 E6.76249
G1 X111.925 Y123.401 E6.80154
G1 X112.293 Y123.692 E6.82706
G1 X112.674 Y124.023 E6.85447
G1 X113.175 Y124.504 E6.89220
G1 X113.667 Y125.039 E6.93174
G1 X113.968 Y125.402 E6.95733
G1 X114.252 Y125.778 E6.98293
G1 X114.661 Y126.379 E7.02243
G1 X115.031 Y127.005 E7.06193
G1 X115.242 Y127.408 E7.08664
G1 X115.638 Y128.298 E7.13959
G1 X115.959 Y129.218 E7.19255
G1 X116.081 Y129.656 E7.21725
G1 X116.240 Y130.366 E7.25676
