; generated by Slic3r 1.2.9 on 2016-03-08 at 19:35:59

; external perimeters extrusion width = 0.40mm
; perimeters extrusion width = 0.67mm
; infill extrusion width = 0.67mm
; solid infill extrusion width = 0.67mm
; top infill extrusion width = 0.67mm

; external perimeters extrusion width = 0.40mm
; perimeters extrusion width = 0.67mm
; infill extrusion width = 0.67mm
; solid infill extrusion width = 0.67mm
; top infill extrusion width = 0.67mm

M107
M190 S55 ; set bed temperature
M104 S210 ; set temperature
G28 ; home all axes
G1 Z5 F5000 ; lift nozzle

M109 S210 ; wait for temperature to be reached
G21 ; set units to millimeters
G90 ; use absolute coordinates
M82 ; use absolute distances for extrusion
G92 E0
G1 Z0.300 F4800.000
G1 E-3.00000 F2400.00000
G92 E0
G1 X96.995 Y157.792 F4800.000
G1 E3.00000 F2400.00000
G1 F1800
G1 X145.501 Y127.976 E6.42333
G1 X147.699 Y127.091 E6.56583
G1 X149.204 Y126.929 E6.65681
G1 X192.404 Y126.929 E9.25422
G1 X194.741 Y127.326 E9.39672
G1 F1800
G1 X196.815 Y128.473 E9.53922
G1 X198.393 Y130.241 E9.68171
G1 X199.299 Y132.431 E9.82421
G1 X199.476 Y134.000 E9.91916
G1 X199.476 Y254.000 E17.13414
G1 X199.078 Y256.337 E17.27664
G1 X197.931 Y258.411 E17.41914
G1 X196.164 Y259.989 E17.56163
G1 X193.974 Y260.895 E17.70413
G1 X192.404 Y261.071 E17.79908
G1 X149.204 Y261.071 E20.39649
G1 X146.867 Y260.674 E20.53899
G1 X145.501 Y260.024 E20.62997
G1 X47.893 Y200.024 E27.51876
G1 X46.110 Y198.462 E27.66126
G1 X44.944 Y196.399 E27.80376
G1 X44.525 Y194.066 E27.94625
G1 X44.900 Y191.726 E28.08875
G1 X46.027 Y189.642 E28.23125
G1 X47.893 Y187.976 E28.38160
G1 X96.944 Y157.824 E31.84346
G1 X97.276 Y158.249 F4800.000
G1 F1800
G1 X145.781 Y128.432 E35.26679
G1 X147.900 Y127.596 E35.40374
G1 X149.204 Y127.464 E35.48253
G1 X192.404 Y127.464 E38.07994
G1 X194.647 Y127.861 E38.21690
G1 F1800
G1 X196.618 Y129.004 E38.35385
G1 X198.076 Y130.753 E38.49081
G1 X198.940 Y134.000 E38.69279
G1 X198.940 Y254.000 E45.90778
G1 X198.543 Y256.243 E46.04473
G1 X197.400 Y258.214 E46.18169
G1 X195.651 Y259.672 E46.31864
G1 X192.404 Y260.536 E46.52063
G1 X149.204 Y260.536 E49.11804
G1 X146.961 Y260.139 E49.25499
G1 X145.781 Y259.568 E49.33378
G1 X48.173 Y199.568 E56.22258
G1 X46.470 Y198.055 E56.35953
G1 X45.390 Y196.050 E56.49648
G1 X45.063 Y193.795 E56.63344
G1 X45.530 Y191.566 E56.77039
G1 X46.734 Y189.632 E56.90735
G1 X48.173 Y188.432 E57.02001
G1 X97.225 Y158.280 E60.48187
G1 E57.48187 F2400.00000
G92 E0
G1 X175.852 Y209.528 F4800.000
G1 E3.00000 F2400.00000
G1 F1800
G1 X175.383 Y209.334 E3.03052
G1 X174.961 Y209.052 E3.06105
G1 X174.602 Y208.693 E3.09157
G1 X174.320 Y208.271 E3.12210
G1 X174.126 Y207.802 E3.15262
G1 X174.027 Y207.304 E3.18315
G1 X174.027 Y206.796 E3.21366
G1 X174.126 Y206.298 E3.24419
G1 X174.320 Y205.829 E3.27471
G1 X174.602 Y205.407 E3.30523
G1 X174.961 Y205.048 E3.33576
G1 X175.383 Y204.766 E3.36628
G1 X175.852 Y204.572 E3.39680
G1 X176.350 Y204.473 E3.42732
G1 F1800
G1 X176.858 Y204.473 E3.45785
G1 X177.356 Y204.572 E3.48838
G1 X177.825 Y204.766 E3.51889
G1 X178.247 Y205.048 E3.54942
G1 X178.606 Y205.407 E3.57995
G1 X178.888 Y205.829 E3.61047
G1 X179.082 Y206.298 E3.64099
G1 X179.181 Y206.796 E3.67151
G1 X179.181 Y207.304 E3.70203
G1 X179.082 Y207.802 E3.73255
G1 X178.888 Y208.271 E3.76308
G1 X178.606 Y208.693 E3.79359
G1 X178.247 Y209.052 E3.82412
G1 X177.825 Y209.334 E3.85465
G1 X177.356 Y209.528 E3.88517
G1 X176.858 Y209.627 E3.91569
G1 X176.350 Y209.627 E3.94622
G1 X175.911 Y209.540 E3.97313
G1 X176.009 Y209.013 F4800.000
G1 F1800
G1 X175.637 Y208.859 E3.99731
G1 X175.303 Y208.636 E4.02149
G1 X175.018 Y208.351 E4.04567
G1 X174.795 Y208.017 E4.06985
G1 X174.641 Y207.646 E4.09403
G1 X174.562 Y207.251 E4.11821
G1 X174.562 Y206.849 E4.14238
G1 X174.641 Y206.454 E4.16657
G1 X174.795 Y206.083 E4.19074
G1 X175.018 Y205.749 E4.21492
G1 X175.303 Y205.464 E4.23911
G1 X175.637 Y205.241 E4.26329
G1 X176.008 Y205.087 E4.28746
G1 X176.403 Y205.008 E4.31164
G1 F1800
G1 X176.805 Y205.008 E4.33582
G1 X177.200 Y205.087 E4.36000
G1 X177.571 Y205.241 E4.38418
G1 X177.905 Y205.464 E4.40836
G1 X178.190 Y205.749 E4.43254
G1 X178.413 Y206.083 E4.45672
G1 X178.567 Y206.455 E4.48090
G1 X178.645 Y206.849 E4.50508
G1 X178.645 Y207.251 E4.52925
G1 X178.567 Y207.646 E4.55344
G1 X178.413 Y208.017 E4.57761
G1 X178.190 Y208.351 E4.60179
G1 X177.905 Y208.636 E4.62597
G1 X177.571 Y208.859 E4.65016
G1 X177.199 Y209.013 E4.67433
G1 X176.805 Y209.092 E4.69851
G1 X176.403 Y209.092 E4.72269
G1 X176.067 Y209.025 E4.74326
G1 X176.009 Y209.013 F4800.000
G1 E1.74326 F2400.00000
G92 E0
G1 X170.804 Y222.716 F4800.000
G1 E3.00000 F2400.00000
G1 F1800
G1 X187.579 Y251.771 E5.01720
G1 X154.029 Y251.771 E7.03442
G1 X170.774 Y222.768 E9.04800
G1 X170.804 Y223.787 F4800.000
G1 F1800
G1 X186.652 Y251.236 E10.95364
G1 X154.957 Y251.236 E12.85930
G1 X170.774 Y223.839 E14.76132
G1 X170.804 Y224.859 F4800.000
G1 F1800
G1 X185.724 Y250.700 E16.55541
G1 X155.884 Y250.700 E18.34950
G1 X170.774 Y224.910 E20.13997
G1 X171.110 Y224.601 F4800.000
G1 X170.804 Y200.673 F4800.000
G1 F1800
G1 X170.150 Y200.641 E20.17935
G1 X169.502 Y200.545 E20.21872
G1 X168.867 Y200.386 E20.25809
G1 X168.250 Y200.165 E20.29747
G1 X167.658 Y199.885 E20.33683
G1 X167.097 Y199.548 E20.37621
G1 X166.571 Y199.158 E20.41558
G1 X166.086 Y198.718 E20.45495
G1 X165.646 Y198.233 E20.49433
G1 X165.256 Y197.707 E20.53370
G1 X164.919 Y197.146 E20.57307
G1 X164.639 Y196.554 E20.61245
G1 X164.418 Y195.937 E20.65182
G1 X164.259 Y195.302 E20.69119
G1 X164.163 Y194.654 E20.73057
G1 X164.131 Y194.000 E20.76993
G1 X164.163 Y193.346 E20.80930
G1 X164.259 Y192.698 E20.84868
G1 X164.418 Y192.063 E20.88805
G1 X164.639 Y191.446 E20.92742
G1 X164.919 Y190.854 E20.96680
G1 X165.256 Y190.293 E21.00617
G1 X165.646 Y189.767 E21.04554
G1 X166.086 Y189.282 E21.08492
G1 X166.571 Y188.842 E21.12429
G1 X167.097 Y188.452 E21.16366
G1 X167.658 Y188.115 E21.20303
G1 X168.250 Y187.835 E21.24240
G1 X168.867 Y187.614 E21.28178
G1 X169.502 Y187.455 E21.32115
G1 X170.150 Y187.359 E21.36052
G1 F1800
G1 X170.834 Y187.326 E21.40170
G1 X171.462 Y187.360 E21.43950
G1 X172.106 Y187.455 E21.47864
G1 X172.741 Y187.614 E21.51802
G1 X173.358 Y187.835 E21.55739
G1 X173.950 Y188.115 E21.59677
G1 X174.511 Y188.452 E21.63614
G1 X175.037 Y188.842 E21.67551
G1 X175.522 Y189.282 E21.71489
G1 X175.962 Y189.767 E21.75425
G1 X176.352 Y190.293 E21.79362
G1 X176.689 Y190.854 E21.83301
G1 X176.969 Y191.447 E21.87238
G1 X177.189 Y192.063 E21.91175
G1 X177.349 Y192.698 E21.95112
G1 X177.445 Y193.346 E21.99048
G1 X177.477 Y194.000 E22.02986
G1 X177.445 Y194.654 E22.06924
G1 X177.349 Y195.302 E22.10861
G1 X177.189 Y195.937 E22.14798
G1 X176.969 Y196.553 E22.18735
G1 X176.689 Y197.146 E22.22672
G1 X176.352 Y197.707 E22.26610
G1 X175.962 Y198.233 E22.30547
G1 X175.522 Y198.718 E22.34484
G1 X175.037 Y199.158 E22.38421
G1 X174.511 Y199.548 E22.42359
G1 X173.950 Y199.885 E22.46296
G1 X173.358 Y200.165 E22.50233
G1 X172.741 Y200.386 E22.54170
G1 X172.106 Y200.545 E22.58108
G1 X171.458 Y200.641 E22.62045
G1 X170.864 Y200.670 E22.65621
G1 X161.640 Y197.064 F4800.000
G1 F1800
G1 X161.640 Y209.228 E23.38752
G1 X161.697 Y209.605 E23.41046
G1 X161.849 Y209.912 E23.43109
G1 X162.082 Y210.162 E23.45163
G1 X162.360 Y210.322 E23.47090
G1 X162.578 Y210.388 E23.48457
G1 X162.845 Y210.414 E23.50073
G1 X167.740 Y210.414 E23.79502
G1 X167.740 Y219.967 E24.36934
G1 X153.404 Y244.797 E26.09325
G1 X84.136 Y204.806 E30.90226
G1 X84.136 Y197.064 E31.36769
G1 X161.580 Y197.064 E36.02400
G1 X161.104 Y197.600 F4800.000
G1 F1800
G1 X161.104 Y209.242 E36.72397
G1 X161.113 Y209.418 E36.73457
G1 X161.180 Y209.750 E36.75490
G1 X161.235 Y209.902 E36.76462
G1 X161.395 Y210.200 E36.78498
G1 X161.486 Y210.322 E36.79414
G1 X161.732 Y210.568 E36.81505
G1 X161.854 Y210.659 E36.82419
G1 X162.154 Y210.819 E36.84466
G1 X162.473 Y210.916 E36.86467
G1 X162.819 Y210.950 E36.88559
G1 X167.204 Y210.950 E37.14925
G1 X167.204 Y219.823 E37.68274
G1 X153.208 Y244.066 E39.36582
G1 X84.671 Y204.496 E44.12402
G1 X84.671 Y197.600 E44.53866
G1 X161.044 Y197.600 E49.13056
G1 X161.504 Y197.588 F4800.000
G1 X98.283 Y194.000 F4800.000
G1 F1800
G1 X98.229 Y194.507 E49.16123
G1 X98.072 Y194.993 E49.19190
G1 X97.816 Y195.434 E49.22258
G1 X97.475 Y195.813 E49.25325
G1 X97.062 Y196.113 E49.28392
G1 X96.596 Y196.321 E49.31460
G1 X96.097 Y196.427 E49.34527
G1 X95.587 Y196.427 E49.37593
G1 X95.088 Y196.321 E49.40661
G1 X94.622 Y196.113 E49.43728
G1 X94.209 Y195.813 E49.46795
G1 X93.868 Y195.434 E49.49863
G1 X93.613 Y194.993 E49.52930
G1 X93.455 Y194.507 E49.55997
G1 X93.402 Y194.000 E49.59064
G1 X93.455 Y193.493 E49.62132
G1 X93.614 Y193.004 E49.65219
G1 X93.879 Y192.554 E49.68362
G1 X94.209 Y192.187 E49.71332
G1 X94.622 Y191.887 E49.74399
G1 X95.088 Y191.679 E49.77466
G1 X95.587 Y191.573 E49.80534
G1 F1800
G1 X96.097 Y191.573 E49.83600
G1 X96.596 Y191.679 E49.86667
G1 X97.062 Y191.887 E49.89735
G1 X97.475 Y192.187 E49.92802
G1 X97.816 Y192.566 E49.95869
G1 X98.072 Y193.007 E49.98937
G1 X98.229 Y193.493 E50.02004
G1 X98.276 Y193.940 E50.04710
G1 X149.139 Y194.000 F4800.000
G1 F1800
G1 X149.180 Y193.605 E50.07100
G1 X149.303 Y193.227 E50.09491
G1 X149.502 Y192.882 E50.11881
G1 X149.768 Y192.587 E50.14271
G1 X150.089 Y192.353 E50.16662
G1 X150.453 Y192.191 E50.19052
G1 X150.842 Y192.109 E50.21442
G1 F1800
G1 X151.239 Y192.109 E50.23832
G1 X151.628 Y192.191 E50.26222
G1 X151.991 Y192.353 E50.28613
G1 X152.313 Y192.587 E50.31003
G1 X152.579 Y192.882 E50.33393
G1 X152.778 Y193.227 E50.35784
G1 X152.900 Y193.605 E50.38174
G1 X152.942 Y194.000 E50.40564
G1 X152.900 Y194.395 E50.42954
G1 X152.778 Y194.773 E50.45345
G1 X152.579 Y195.118 E50.47735
G1 X152.313 Y195.413 E50.50125
G1 X151.991 Y195.647 E50.52516
G1 X151.628 Y195.809 E50.54906
G1 X151.239 Y195.891 E50.57296
G1 X150.842 Y195.891 E50.59686
G1 X150.453 Y195.809 E50.62076
G1 X150.089 Y195.647 E50.64467
G1 X149.768 Y195.413 E50.66857
G1 X149.502 Y195.118 E50.69247
G1 X149.303 Y194.773 E50.71638
G1 X149.180 Y194.395 E50.74028
G1 X149.145 Y194.060 E50.76057
G1 X149.139 Y194.000 F4800.000
G1 X148.606 Y194.056 F4800.000
G1 F1800
G1 X148.653 Y193.493 E50.79457
G1 X148.811 Y193.007 E50.82524
G1 X149.066 Y192.566 E50.85592
G1 X149.407 Y192.187 E50.88658
G1 X149.820 Y191.887 E50.91726
G1 X150.286 Y191.679 E50.94793
G1 X150.785 Y191.573 E50.97860
G1 F1800
G1 X151.295 Y191.573 E51.00927
G1 X151.794 Y191.679 E51.03994
G1 X152.260 Y191.887 E51.07062
G1 X152.673 Y192.187 E51.10129
G1 X153.014 Y192.566 E51.13196
G1 X153.270 Y193.007 E51.16264
G1 X153.427 Y193.493 E51.19331
G1 X153.481 Y194.000 E51.22398
G1 X153.427 Y194.507 E51.25465
G1 X153.270 Y194.993 E51.28532
G1 X153.014 Y195.434 E51.31600
G1 X152.673 Y195.813 E51.34667
G1 X152.260 Y196.113 E51.37734
G1 X151.794 Y196.321 E51.40802
G1 X151.295 Y196.427 E51.43869
G1 X150.785 Y196.427 E51.46935
G1 X150.286 Y196.321 E51.50003
G1 X149.820 Y196.113 E51.53070
G1 X149.407 Y195.813 E51.56137
G1 X149.066 Y195.434 E51.59204
G1 X148.811 Y194.993 E51.62272
G1 X148.653 Y194.507 E51.65339
G1 X148.612 Y194.116 E51.67707
G1 X97.744 Y194.000 F4800.000
G1 F1800
G1 X97.702 Y194.395 E51.70097
G1 X97.580 Y194.773 E51.72487
G1 X97.381 Y195.118 E51.74878
G1 X97.115 Y195.413 E51.77268
G1 X96.793 Y195.647 E51.79658
G1 X96.430 Y195.809 E51.82048
G1 X96.041 Y195.891 E51.84439
G1 X95.644 Y195.891 E51.86828
G1 X95.255 Y195.809 E51.89219
G1 X94.891 Y195.647 E51.91609
G1 X94.570 Y195.413 E51.94000
G1 X94.304 Y195.118 E51.96390
G1 X94.105 Y194.773 E51.98780
G1 X93.982 Y194.395 E52.01170
G1 X93.941 Y194.000 E52.03561
G1 X93.982 Y193.605 E52.05951
G1 X94.105 Y193.225 E52.08348
G1 X94.313 Y192.872 E52.10815
G1 X94.570 Y192.587 E52.13120
G1 X94.891 Y192.353 E52.15510
G1 X95.255 Y192.191 E52.17901
G1 X95.644 Y192.109 E52.20291
G1 F1800
G1 X96.041 Y192.109 E52.22681
G1 X96.430 Y192.191 E52.25071
G1 X96.793 Y192.353 E52.27462
G1 X97.115 Y192.587 E52.29852
G1 X97.381 Y192.882 E52.32242
G1 X97.580 Y193.227 E52.34633
G1 X97.702 Y193.605 E52.37023
G1 X97.738 Y193.940 E52.39052
G1 X97.744 Y194.000 F4800.000
G1 E49.39052 F2400.00000
G92 E0
G1 X162.427 Y181.204 F4800.000
G1 E3.00000 F2400.00000
G1 F1800
G1 X162.427 Y180.696 E3.03052
G1 X162.526 Y180.198 E3.06104
G1 X162.720 Y179.729 E3.09156
G1 X163.002 Y179.307 E3.12209
G1 X163.361 Y178.948 E3.15261
G1 X163.783 Y178.666 E3.18314
G1 X164.252 Y178.472 E3.21366
G1 X164.750 Y178.373 E3.24417
G1 F1800
G1 X165.258 Y178.373 E3.27471
G1 X165.756 Y178.472 E3.30523
G1 X166.225 Y178.666 E3.33574
G1 X166.647 Y178.948 E3.36628
G1 X167.006 Y179.307 E3.39680
G1 X167.288 Y179.729 E3.42732
G1 X167.482 Y180.198 E3.45784
G1 X167.581 Y180.696 E3.48837
G1 X167.581 Y181.204 E3.51888
G1 X167.482 Y181.702 E3.54941
G1 X167.288 Y182.171 E3.57993
G1 X167.006 Y182.593 E3.61045
G1 X166.647 Y182.952 E3.64097
G1 X166.225 Y183.234 E3.67151
G1 X165.756 Y183.428 E3.70202
G1 X165.258 Y183.527 E3.73254
G1 X164.750 Y183.527 E3.76308
G1 X164.252 Y183.428 E3.79359
G1 X163.783 Y183.234 E3.82411
G1 X163.361 Y182.952 E3.85464
G1 X163.002 Y182.593 E3.88516
G1 X162.720 Y182.171 E3.91569
G1 X162.526 Y181.702 E3.94621
G1 X162.438 Y181.263 E3.97313
G1 E0.97313 F2400.00000
G92 E0
G1 X167.204 Y177.050 F4800.000
G1 E3.00000 F2400.00000
G1 F1800
G1 X162.819 Y177.050 E3.26366
G1 X162.473 Y177.084 E3.28458
G1 X162.154 Y177.181 E3.30459
G1 X161.854 Y177.341 E3.32506
G1 X161.732 Y177.432 E3.33420
G1 X161.486 Y177.678 E3.35511
G1 X161.395 Y177.800 E3.36425
G1 X161.231 Y178.106 E3.38516
G1 X161.180 Y178.250 E3.39430
G1 X161.112 Y178.591 E3.41522
G1 X161.104 Y178.757 E3.42524
G1 X161.104 Y190.400 E4.12526
G1 X84.671 Y190.400 E8.72076
G1 X84.671 Y183.504 E9.13540
G1 X153.208 Y143.934 E13.89361
G1 X167.204 Y168.177 E15.57668
G1 X167.204 Y176.990 E16.10657
G1 X167.257 Y177.446 F4800.000
G1 X167.740 Y177.586 F4800.000
G1 F1800
G1 X162.845 Y177.586 E16.40085
G1 X162.578 Y177.612 E16.41701
G1 X162.360 Y177.678 E16.43068
G1 X162.082 Y177.838 E16.44996
G1 X161.892 Y178.028 E16.46612
G1 X161.722 Y178.324 E16.48663
G1 X161.645 Y178.656 E16.50714
G1 X161.640 Y178.770 E16.51400
G1 X161.640 Y190.936 E17.24543
G1 X84.136 Y190.936 E21.90534
G1 X84.136 Y183.194 E22.37078
G1 X153.404 Y143.203 E27.17979
G1 X167.740 Y168.033 E28.90369
G1 X167.740 Y177.526 E29.47441
G1 X166.305 Y179.364 F4800.000
G1 F1800
G1 X166.590 Y179.649 E29.49859
G1 X166.813 Y179.983 E29.52277
G1 X166.967 Y180.354 E29.54694
G1 X167.045 Y180.749 E29.57113
G1 X167.045 Y181.151 E29.59530
G1 X166.967 Y181.546 E29.61948
G1 X166.813 Y181.917 E29.64366
G1 X166.590 Y182.251 E29.66784
G1 X166.305 Y182.536 E29.69202
G1 X165.971 Y182.759 E29.71620
G1 X165.600 Y182.913 E29.74038
G1 X165.205 Y182.992 E29.76456
G1 X164.803 Y182.992 E29.78874
G1 X164.408 Y182.913 E29.81292
G1 X164.037 Y182.759 E29.83709
G1 X163.703 Y182.536 E29.86127
G1 X163.418 Y182.251 E29.88546
G1 X163.195 Y181.917 E29.90964
G1 X163.041 Y181.546 E29.93381
G1 X162.962 Y181.151 E29.95800
G1 X162.962 Y180.749 E29.98217
G1 X163.041 Y180.354 E30.00635
G1 X163.195 Y179.983 E30.03053
G1 X163.418 Y179.649 E30.05471
G1 X163.703 Y179.364 E30.07889
G1 X164.037 Y179.141 E30.10307
G1 X164.408 Y178.987 E30.12725
G1 X164.803 Y178.908 E30.15142
G1 F1800
G1 X165.205 Y178.908 E30.17561
G1 X165.600 Y178.987 E30.19979
G1 X165.971 Y179.141 E30.22396
G1 X166.256 Y179.331 E30.24454
G1 X166.305 Y179.364 F4800.000
G1 X170.804 Y165.284 F4800.000
G1 F1800
G1 X154.029 Y136.229 E32.26173
G1 X187.579 Y136.229 E34.27895
G1 X170.834 Y165.232 E36.29254
G1 X170.833 Y187.862 F4800.000
G1 F1800
G1 X171.408 Y187.893 E36.32717
G1 X172.001 Y187.981 E36.36324
G1 X172.585 Y188.128 E36.39945
G1 X173.152 Y188.331 E36.43566
G1 X173.697 Y188.588 E36.47187
G1 X174.213 Y188.898 E36.50808
G1 X174.697 Y189.256 E36.54429
G1 X175.143 Y189.661 E36.58049
G1 X175.548 Y190.107 E36.61670
G1 X175.906 Y190.591 E36.65291
G1 X176.216 Y191.107 E36.68912
G1 X176.473 Y191.652 E36.72533
G1 X176.676 Y192.219 E36.76154
G1 X176.823 Y192.803 E36.79774
G1 X176.911 Y193.398 E36.83395
G1 X176.941 Y194.000 E36.87016
G1 X176.911 Y194.602 E36.90637
G1 X176.823 Y195.197 E36.94258
G1 X176.676 Y195.781 E36.97879
