; generated by Slic3r 1.2.9 on 2016-03-21 at 14:59:37

; external perimeters extrusion width = 0.40mm
; perimeters extrusion width = 0.40mm
; infill extrusion width = 0.65mm
; solid infill extrusion width = 0.40mm
; top infill extrusion width = 0.40mm

M104 S205 ; set temperature
; -- START GCODE --
M800        ; Custom GCODE to fire start print procedure
; -- end of START GCODE --
M109 S205 ; wait for temperature to be reached
G21 ; set units to millimeters
G90 ; use absolute coordinates
M82 ; use absolute distances for extrusion
G92 E0
M106 S255
; LAYER 0, HEIGHT 0.1
G1 Z0.100 F12000.000
G1 E-2.00000 F12000.00000
G92 E0
G1 X83.429 Y117.808 F12000.000
G1 E2.00000 F12000.00000
M204 S1000
G1 F4320
G1 X84.624 Y117.002 E2.02268
G1 X86.300 Y115.979 E2.05359
G1 X88.028 Y115.045 E2.08450
G1 X89.803 Y114.202 E2.11542
G1 X91.617 Y113.455 E2.14630
G1 X93.346 Y112.842 E2.17517
G1 X94.723 Y112.421 E2.19783
G1 X96.625 Y111.933 E2.22874
G1 X98.421 Y111.567 E2.25759
G1 X100.362 Y111.274 E2.28848
G1 X102.317 Y111.082 E2.31940
G1 X103.801 Y111.006 E2.34277
G1 X105.720 Y110.993 E2.37298
G1 X107.683 Y111.082 E2.40390
G1 X109.507 Y111.258 E2.43274
G1 X111.449 Y111.545 E2.46364
G1 X113.375 Y111.933 E2.49455
G1 X114.772 Y112.281 E2.51722
G1 X116.654 Y112.842 E2.54813
G1 X118.383 Y113.455 E2.57699
G1 X120.197 Y114.202 E2.60787
G1 X121.972 Y115.045 E2.63879
G1 X123.700 Y115.979 E2.66970
G1 X124.935 Y116.721 E2.69237
G1 X126.571 Y117.808 E2.72329
G1 X128.045 Y118.899 E2.75216
G1 X129.561 Y120.144 E2.78303
G1 X131.011 Y121.468 E2.81394
G1 X132.032 Y122.489 E2.83664
G1 X133.356 Y123.939 E2.86755
G1 X134.601 Y125.455 E2.89842
G1 X135.692 Y126.929 E2.92728
G1 X136.498 Y128.124 E2.94997
G1 X137.521 Y129.800 E2.98087
G1 X138.395 Y131.410 E3.00970
G1 X139.243 Y133.181 E3.04060
G1 X139.807 Y134.508 E3.06330
G1 X140.492 Y136.349 E3.09421
G1 X141.079 Y138.223 E3.12512
G1 X141.567 Y140.125 E3.15603
G1 X141.933 Y141.921 E3.18487
G1 X142.226 Y143.863 E3.21577
G1 X142.418 Y145.817 E3.24668
G1 X142.493 Y147.256 E3.26936
G1 X142.509 Y149.090 E3.29821
G1 X142.427 Y151.052 E3.32912
G1 X142.242 Y153.007 E3.36003
G1 X141.955 Y154.950 E3.39093
G1 X141.567 Y156.875 E3.42184
G1 X141.219 Y158.272 E3.44451
G1 X140.658 Y160.154 E3.47541
G1 X140.045 Y161.883 E3.50428
G1 X139.298 Y163.697 E3.53515
G1 X138.455 Y165.472 E3.56608
G1 X137.521 Y167.200 E3.59699
G1 X136.779 Y168.435 E3.61966
G1 X135.692 Y170.071 E3.65058
G1 X134.601 Y171.545 E3.67944
G1 X133.356 Y173.061 E3.71031
G1 X132.032 Y174.511 E3.74122
G1 X131.011 Y175.532 E3.76393
G1 X129.561 Y176.856 E3.79483
G1 X128.045 Y178.101 E3.82570
G1 X126.571 Y179.192 E3.85457
G1 X125.377 Y179.997 E3.87724
G1 X123.700 Y181.021 E3.90816
G1 X121.972 Y181.955 E3.93907
G1 X120.319 Y182.743 E3.96789
G1 X118.992 Y183.307 E3.99058
G1 X117.151 Y183.992 E4.02150
G1 X115.277 Y184.579 E4.05240
G1 X113.375 Y185.067 E4.08331
G1 X111.579 Y185.433 E4.11216
G1 X109.638 Y185.726 E4.14305
G1 X107.683 Y185.918 E4.17397
G1 X106.244 Y185.993 E4.19664
G1 X104.410 Y186.009 E4.22549
G1 X102.448 Y185.927 E4.25640
G1 X100.493 Y185.742 E4.28731
G1 X98.551 Y185.455 E4.31821
G1 X96.625 Y185.067 E4.34912
G1 X95.228 Y184.719 E4.37179
G1 X93.346 Y184.158 E4.40269
G1 X91.617 Y183.545 E4.43156
G1 X89.803 Y182.798 E4.46244
G1 X88.028 Y181.955 E4.49336
G1 X86.300 Y181.021 E4.52427
G1 X85.065 Y180.279 E4.54694
G1 X83.429 Y179.192 E4.57786
G1 X81.955 Y178.101 E4.60673
G1 X80.439 Y176.856 E4.63760
G1 X78.989 Y175.532 E4.66850
G1 X77.968 Y174.511 E4.69121
G1 X76.644 Y173.061 E4.72212
G1 X75.399 Y171.545 E4.75299
G1 X74.308 Y170.071 E4.78186
G1 X73.502 Y168.876 E4.80453
G1 X72.479 Y167.200 E4.83544
G1 X71.605 Y165.590 E4.86428
G1 X70.757 Y163.819 E4.89517
G1 X70.193 Y162.492 E4.91787
G1 X69.508 Y160.651 E4.94878
G1 X68.921 Y158.777 E4.97969
G1 X68.433 Y156.875 E5.01060
G1 X68.067 Y155.079 E5.03944
G1 X67.774 Y153.138 E5.07033
G1 X67.582 Y151.183 E5.10125
G1 X67.507 Y149.744 E5.12393
G1 X67.491 Y147.910 E5.15278
G1 X67.573 Y145.948 E5.18369
G1 X67.758 Y143.993 E5.21460
G1 X68.045 Y142.050 E5.24550
G1 X68.433 Y140.125 E5.27640
G1 X68.781 Y138.728 E5.29907
G1 X69.342 Y136.846 E5.32998
G1 X69.955 Y135.117 E5.35884
G1 X70.702 Y133.303 E5.38973
G1 X71.545 Y131.528 E5.42065
G1 X72.479 Y129.800 E5.45156
G1 X73.221 Y128.565 E5.47423
G1 X74.308 Y126.929 E5.50515
G1 X75.399 Y125.455 E5.53401
G1 X76.644 Y123.939 E5.56488
G1 X77.608 Y122.869 E5.58755
G1 X78.893 Y121.561 E5.61640
G1 X80.338 Y120.232 E5.64731
G1 X81.853 Y118.979 E5.67825
G1 X83.380 Y117.843 E5.70819
G1 X83.649 Y118.116 F12000.000
G1 F4320
G1 X84.827 Y117.322 E5.73056
G1 X86.486 Y116.309 E5.76116
G1 X88.197 Y115.384 E5.79176
G1 X89.954 Y114.549 E5.82237
G1 X91.750 Y113.809 E5.85294
G1 X93.466 Y113.201 E5.88159
G1 X94.824 Y112.786 E5.90395
G1 X96.707 Y112.302 E5.93455
G1 X98.490 Y111.940 E5.96318
G1 X100.412 Y111.649 E5.99376
G1 X102.347 Y111.459 E6.02437
G1 X103.811 Y111.384 E6.04743
G1 X105.710 Y111.371 E6.07732
G1 X107.653 Y111.459 E6.10793
G1 X109.464 Y111.634 E6.13657
G1 X111.387 Y111.918 E6.16716
G1 X113.293 Y112.302 E6.19775
G1 X114.671 Y112.646 E6.22011
G1 X116.534 Y113.201 E6.25071
G1 X118.251 Y113.809 E6.27936
G1 X120.046 Y114.549 E6.30993
G1 X121.803 Y115.384 E6.34054
G1 X123.514 Y116.309 E6.37114
G1 X124.731 Y117.040 E6.39350
G1 X126.351 Y118.116 E6.42410
G1 X127.815 Y119.199 E6.45276
G1 X129.315 Y120.432 E6.48332
G1 X130.751 Y121.743 E6.51392
G1 X131.757 Y122.749 E6.53631
G1 X133.068 Y124.185 E6.56691
G1 X134.301 Y125.685 E6.59747
G1 X135.384 Y127.149 E6.62612
G1 X136.178 Y128.327 E6.64849
G1 X137.191 Y129.986 E6.67909
G1 X138.059 Y131.585 E6.70771
G1 X138.899 Y133.338 E6.73830
G1 X139.455 Y134.647 E6.76068
G1 X140.133 Y136.469 E6.79128
G1 X140.714 Y138.324 E6.82188
G1 X141.198 Y140.207 E6.85247
G1 X141.560 Y141.990 E6.88111
G1 X141.851 Y143.912 E6.91170
G1 X142.041 Y145.847 E6.94230
G1 X142.115 Y147.266 E6.96466
G1 X142.131 Y149.086 E6.99330
G1 X142.049 Y151.029 E7.02390
G1 X141.866 Y152.964 E7.05450
G1 X141.582 Y154.887 E7.08509
G1 X141.198 Y156.793 E7.11568
G1 X140.854 Y158.171 E7.13804
G1 X140.299 Y160.034 E7.16864
G1 X139.691 Y161.751 E7.19729
G1 X138.951 Y163.546 E7.22786
G1 X138.116 Y165.303 E7.25847
G1 X137.191 Y167.014 E7.28907
G1 X136.460 Y168.231 E7.31143
G1 X135.384 Y169.851 E7.34203
G1 X134.300 Y171.315 E7.37069
G1 X133.068 Y172.815 E7.40125
G1 X131.757 Y174.251 E7.43185
G1 X130.751 Y175.257 E7.45424
G1 X129.315 Y176.568 E7.48483
G1 X127.815 Y177.800 E7.51539
G1 X126.351 Y178.884 E7.54405
G1 X125.173 Y179.678 E7.56641
G1 X123.514 Y180.691 E7.59701
G1 X121.803 Y181.616 E7.62761
G1 X120.046 Y182.451 E7.65822
G1 X118.251 Y183.191 E7.68879
G1 X116.534 Y183.799 E7.71745
G1 X115.176 Y184.214 E7.73980
G1 X113.293 Y184.698 E7.77040
G1 X111.510 Y185.060 E7.79904
G1 X109.588 Y185.351 E7.82962
G1 X107.653 Y185.541 E7.86022
G1 X106.234 Y185.615 E7.88259
G1 X104.414 Y185.631 E7.91123
G1 X102.471 Y185.549 E7.94183
G1 X100.536 Y185.366 E7.97243
G1 X98.613 Y185.082 E8.00301
G1 X96.707 Y184.698 E8.03361
G1 X95.329 Y184.354 E8.05597
G1 X93.466 Y183.799 E8.08656
G1 X91.749 Y183.191 E8.11522
G1 X89.954 Y182.451 E8.14579
G1 X88.197 Y181.616 E8.17640
G1 X86.486 Y180.691 E8.20700
G1 X85.269 Y179.960 E8.22935
G1 X83.649 Y178.884 E8.25996
G1 X82.185 Y177.801 E8.28862
G1 X80.685 Y176.568 E8.31918
G1 X79.249 Y175.257 E8.34977
G1 X78.243 Y174.251 E8.37217
G1 X76.932 Y172.815 E8.40276
G1 X75.699 Y171.315 E8.43332
G1 X74.616 Y169.851 E8.46198
G1 X73.822 Y168.673 E8.48435
G1 X72.809 Y167.014 E8.51494
G1 X71.941 Y165.415 E8.54357
G1 X71.101 Y163.662 E8.57416
G1 X70.545 Y162.353 E8.59653
G1 X69.867 Y160.531 E8.62714
G1 X69.286 Y158.676 E8.65773
G1 X68.802 Y156.793 E8.68833
G1 X68.440 Y155.010 E8.71697
G1 X68.149 Y153.088 E8.74755
G1 X67.959 Y151.153 E8.77815
G1 X67.885 Y149.734 E8.80052
G1 X67.869 Y147.914 E8.82916
G1 X67.951 Y145.971 E8.85976
G1 X68.134 Y144.036 E8.89036
G1 X68.418 Y142.113 E8.92094
G1 X68.802 Y140.207 E8.95154
G1 X69.146 Y138.829 E8.97390
G1 X69.701 Y136.966 E9.00449
G1 X70.309 Y135.250 E9.03315
G1 X71.049 Y133.454 E9.06372
G1 X71.884 Y131.697 E9.09433
G1 X72.809 Y129.986 E9.12492
G1 X73.540 Y128.769 E9.14728
G1 X74.616 Y127.149 E9.17789
G1 X75.700 Y125.685 E9.20655
G1 X76.932 Y124.185 E9.23710
G1 X77.883 Y123.129 E9.25946
G1 X79.158 Y121.831 E9.28811
G1 X80.589 Y120.515 E9.31870
G1 X82.089 Y119.275 E9.34932
G1 X83.600 Y118.151 E9.37896
G1 X83.869 Y118.424 F12000.000
G1 F4320
G1 X85.030 Y117.641 E9.40102
G1 X86.673 Y116.638 E9.43130
G1 X88.366 Y115.722 E9.46159
G1 X90.104 Y114.897 E9.49189
G1 X91.882 Y114.164 E9.52215
G1 X93.586 Y113.560 E9.55059
G1 X94.925 Y113.151 E9.57263
G1 X96.789 Y112.672 E9.60292
G1 X98.559 Y112.312 E9.63135
G1 X100.461 Y112.024 E9.66162
G1 X102.377 Y111.837 E9.69191
G1 X103.821 Y111.762 E9.71467
G1 X105.700 Y111.750 E9.74425
G1 X107.623 Y111.837 E9.77454
G1 X109.421 Y112.010 E9.80297
G1 X111.324 Y112.291 E9.83325
G1 X113.211 Y112.672 E9.86353
G1 X114.570 Y113.011 E9.88558
G1 X116.414 Y113.560 E9.91586
G1 X118.118 Y114.164 E9.94431
G1 X119.895 Y114.896 E9.97457
G1 X121.634 Y115.722 E10.00486
G1 X123.327 Y116.638 E10.03515
G1 X124.528 Y117.360 E10.05720
G1 X126.131 Y118.424 E10.08749
G1 X127.584 Y119.500 E10.11594
G1 X129.069 Y120.720 E10.14619
G1 X130.490 Y122.018 E10.17647
G1 X131.482 Y123.010 E10.19855
G1 X132.780 Y124.431 E10.22884
G1 X134.000 Y125.916 E10.25909
G1 X135.076 Y127.369 E10.28753
G1 X135.859 Y128.531 E10.30959
G1 X136.862 Y130.173 E10.33987
G1 X137.724 Y131.760 E10.36829
G1 X138.555 Y133.495 E10.39857
G1 X139.102 Y134.785 E10.42063
G1 X139.774 Y136.589 E10.45092
G1 X140.349 Y138.425 E10.48121
G1 X140.828 Y140.289 E10.51149
G1 X141.188 Y142.059 E10.53992
G1 X141.476 Y143.962 E10.57020
G1 X141.663 Y145.877 E10.60048
G1 X141.736 Y147.276 E10.62254
G1 X141.752 Y149.083 E10.65097
G1 X141.671 Y151.006 E10.68126
G1 X141.490 Y152.921 E10.71154
G1 X141.209 Y154.825 E10.74182
G1 X140.828 Y156.711 E10.77210
G1 X140.489 Y158.070 E10.79415
G1 X139.940 Y159.914 E10.82443
G1 X139.336 Y161.618 E10.85288
G1 X138.604 Y163.395 E10.88314
G1 X137.777 Y165.134 E10.91344
G1 X136.862 Y166.827 E10.94372
G1 X136.140 Y168.028 E10.96577
G1 X135.076 Y169.631 E10.99606
G1 X134.000 Y171.084 E11.02451
G1 X132.780 Y172.569 E11.05476
G1 X131.482 Y173.990 E11.08504
G1 X130.490 Y174.982 E11.10712
G1 X129.069 Y176.280 E11.13741
G1 X127.584 Y177.500 E11.16765
G1 X126.131 Y178.576 E11.19610
G1 X124.970 Y179.359 E11.21815
G1 X123.327 Y180.362 E11.24844
G1 X121.634 Y181.277 E11.27873
G1 X120.005 Y182.055 E11.30714
G1 X118.715 Y182.602 E11.32920
G1 X116.911 Y183.274 E11.35950
G1 X115.075 Y183.849 E11.38978
G1 X113.211 Y184.328 E11.42006
G1 X111.441 Y184.688 E11.44849
G1 X109.539 Y184.976 E11.47876
G1 X107.623 Y185.163 E11.50905
G1 X106.224 Y185.236 E11.53111
G1 X104.417 Y185.252 E11.55954
G1 X102.494 Y185.171 E11.58983
G1 X100.579 Y184.990 E11.62011
G1 X98.676 Y184.709 E11.65039
G1 X96.789 Y184.328 E11.68067
G1 X95.430 Y183.989 E11.70272
G1 X93.586 Y183.440 E11.73300
G1 X91.882 Y182.836 E11.76145
G1 X90.105 Y182.104 E11.79171
G1 X88.366 Y181.278 E11.82200
G1 X86.673 Y180.362 E11.85229
G1 X85.472 Y179.640 E11.87434
G1 X83.869 Y178.576 E11.90463
G1 X82.416 Y177.500 E11.93308
G1 X80.931 Y176.280 E11.96333
G1 X79.510 Y174.982 E11.99361
G1 X78.518 Y173.990 E12.01569
G1 X77.220 Y172.569 E12.04598
G1 X76.000 Y171.084 E12.07623
G1 X74.924 Y169.631 E12.10468
G1 X74.141 Y168.469 E12.12673
G1 X73.138 Y166.827 E12.15702
G1 X72.276 Y165.240 E12.18543
G1 X71.445 Y163.505 E12.21571
G1 X70.898 Y162.215 E12.23778
G1 X70.226 Y160.411 E12.26807
G1 X69.651 Y158.575 E12.29835
G1 X69.172 Y156.711 E12.32863
G1 X68.812 Y154.941 E12.35706
G1 X68.524 Y153.039 E12.38733
G1 X68.337 Y151.123 E12.41763
G1 X68.264 Y149.724 E12.43968
G1 X68.248 Y147.917 E12.46812
G1 X68.329 Y145.994 E12.49840
G1 X68.510 Y144.079 E12.52869
G1 X68.791 Y142.175 E12.55896
G1 X69.172 Y140.289 E12.58924
G1 X69.511 Y138.930 E12.61129
G1 X70.060 Y137.086 E12.64157
G1 X70.664 Y135.382 E12.67002
G1 X71.397 Y133.604 E12.70028
G1 X72.222 Y131.866 E12.73058
G1 X73.138 Y130.173 E12.76086
G1 X73.860 Y128.972 E12.78291
G1 X74.924 Y127.369 E12.81320
G1 X76.000 Y125.916 E12.84165
G1 X77.220 Y124.431 E12.87190
G1 X78.157 Y123.390 E12.89395
G1 X79.424 Y122.101 E12.92238
G1 X80.840 Y120.799 E12.95266
G1 X82.324 Y119.571 E12.98298
G1 X83.820 Y118.459 E13.01230
G1 X84.088 Y118.733 F12000.000
G1 F4320
G1 X85.234 Y117.960 E13.03404
G1 X86.859 Y116.967 E13.06402
G1 X88.535 Y116.061 E13.09399
G1 X90.255 Y115.244 E13.12398
G1 X92.015 Y114.518 E13.15393
G1 X93.706 Y113.919 E13.18216
G1 X95.026 Y113.515 E13.20390
G1 X96.871 Y113.041 E13.23387
G1 X98.628 Y112.684 E13.26209
G1 X100.511 Y112.400 E13.29205
G1 X102.407 Y112.214 E13.32203
G1 X103.831 Y112.141 E13.34447
G1 X105.690 Y112.128 E13.37374
G1 X107.593 Y112.214 E13.40372
G1 X109.378 Y112.386 E13.43194
G1 X111.262 Y112.665 E13.46191
G1 X113.129 Y113.041 E13.49188
G1 X114.469 Y113.376 E13.51362
G1 X116.294 Y113.919 E13.54359
G1 X117.985 Y114.518 E13.57182
G1 X119.745 Y115.244 E13.60177
G1 X121.465 Y116.061 E13.63176
G1 X123.141 Y116.967 E13.66173
G1 X124.325 Y117.679 E13.68347
G1 X125.911 Y118.733 E13.71345
G1 X127.354 Y119.800 E13.74169
G1 X128.824 Y121.008 E13.77163
G1 X130.230 Y122.292 E13.80160
G1 X131.208 Y123.270 E13.82337
G1 X132.492 Y124.676 E13.85334
G1 X133.700 Y126.146 E13.88328
G1 X134.767 Y127.589 E13.91152
G1 X135.540 Y128.734 E13.93326
G1 X136.533 Y130.359 E13.96323
G1 X137.388 Y131.935 E13.99144
G1 X138.210 Y133.652 E14.02141
G1 X138.750 Y134.924 E14.04316
G1 X139.415 Y136.709 E14.07314
G1 X139.985 Y138.527 E14.10311
G1 X140.459 Y140.371 E14.13308
G1 X140.816 Y142.128 E14.16131
G1 X141.100 Y144.011 E14.19127
G1 X141.286 Y145.907 E14.22124
G1 X141.358 Y147.286 E14.24299
G1 X141.374 Y149.080 E14.27121
G1 X141.294 Y150.983 E14.30119
G1 X141.114 Y152.879 E14.33116
G1 X140.835 Y154.762 E14.36113
G1 X140.458 Y156.629 E14.39110
G1 X140.124 Y157.969 E14.41283
G1 X139.581 Y159.794 E14.44280
G1 X138.982 Y161.486 E14.47104
G1 X138.256 Y163.244 E14.50099
G1 X137.439 Y164.966 E14.53097
G1 X136.533 Y166.641 E14.56095
G1 X135.821 Y167.824 E14.58268
G1 X134.767 Y169.412 E14.61266
G1 X133.700 Y170.854 E14.64090
G1 X132.492 Y172.324 E14.67084
G1 X131.208 Y173.730 E14.70081
G1 X130.230 Y174.708 E14.72258
G1 X128.824 Y175.992 E14.75255
G1 X127.354 Y177.200 E14.78249
G1 X125.912 Y178.267 E14.81073
G1 X124.766 Y179.040 E14.83247
G1 X123.141 Y180.033 E14.86245
G1 X121.466 Y180.939 E14.89242
G1 X119.848 Y181.710 E14.92062
G1 X118.576 Y182.250 E14.94238
G1 X116.791 Y182.915 E14.97235
G1 X114.973 Y183.485 E15.00233
G1 X113.129 Y183.958 E15.03230
G1 X111.372 Y184.316 E15.06052
G1 X109.489 Y184.600 E15.09048
G1 X107.593 Y184.786 E15.12046
G1 X106.214 Y184.858 E15.14220
G1 X104.420 Y184.874 E15.17043
G1 X102.518 Y184.794 E15.20040
G1 X100.621 Y184.614 E15.23037
G1 X98.738 Y184.335 E15.26034
G1 X96.871 Y183.959 E15.29031
G1 X95.531 Y183.624 E15.31204
G1 X93.706 Y183.081 E15.34201
G1 X92.015 Y182.482 E15.37025
G1 X90.255 Y181.756 E15.40020
G1 X88.535 Y180.939 E15.43019
G1 X86.859 Y180.033 E15.46016
G1 X85.676 Y179.321 E15.48190
G1 X84.089 Y178.267 E15.51188
G1 X82.646 Y177.200 E15.54012
G1 X81.176 Y175.992 E15.57006
G1 X79.770 Y174.708 E15.60003
G1 X78.792 Y173.730 E15.62179
G1 X77.508 Y172.324 E15.65177
G1 X76.300 Y170.854 E15.68171
G1 X75.233 Y169.411 E15.70995
G1 X74.460 Y168.266 E15.73169
G1 X73.467 Y166.641 E15.76166
G1 X72.612 Y165.065 E15.78987
G1 X71.790 Y163.348 E15.81984
G1 X71.250 Y162.076 E15.84159
G1 X70.585 Y160.291 E15.87157
G1 X70.015 Y158.473 E15.90154
G1 X69.541 Y156.629 E15.93151
G1 X69.184 Y154.872 E15.95973
G1 X68.900 Y152.989 E15.98969
G1 X68.714 Y151.093 E16.01967
G1 X68.642 Y149.714 E16.04141
G1 X68.626 Y147.920 E16.06964
G1 X68.706 Y146.017 E16.09962
G1 X68.886 Y144.121 E16.12959
G1 X69.165 Y142.238 E16.15956
G1 X69.541 Y140.371 E16.18952
G1 X69.876 Y139.031 E16.21126
G1 X70.419 Y137.206 E16.24123
G1 X71.018 Y135.515 E16.26947
G1 X71.744 Y133.755 E16.29942
G1 X72.561 Y132.035 E16.32940
G1 X73.467 Y130.359 E16.35938
G1 X74.179 Y129.175 E16.38111
G1 X75.233 Y127.588 E16.41109
