; generated by Slic3r 1.2.9 on 2016-03-16 at 21:15:42

; external perimeters extrusion width = 0.40mm
; perimeters extrusion width = 0.67mm
; infill extrusion width = 0.67mm
; solid infill extrusion width = 0.67mm
; top infill extrusion width = 0.67mm

M107
M190 S55 ; set bed temperature
M104 S210 ; set temperature
G28 ; home all axes
G1 Z5 F5000 ; lift nozzle

M109 S210 ; wait for temperature to be reached
G21 ; set units to millimeters
G90 ; use absolute coordinates
M82 ; use absolute distances for extrusion
G92 E0
G1 Z0.240 F4800.000
G1 E-3.00000 F2400.00000
G92 E0
G1 X25.183 Y25.034 F4800.000
G1 E3.00000 F2400.00000
G1 F1800
G1 X27.057 Y23.773 E3.08692
G1 X29.252 Y23.237 E3.17385
G1 X31.293 Y23.438 E3.25278
G1 F1800
G1 X44.293 Y26.867 E3.77013
G1 X140.306 Y52.593 E7.59503
G1 X143.193 Y54.263 E7.72337
G1 X174.897 Y86.044 E9.45078
G1 X176.187 Y87.899 E9.53771
G1 X176.775 Y90.584 E9.64348
G1 X176.775 Y137.308 E11.44141
G1 X176.378 Y139.532 E11.52833
G1 X174.892 Y141.854 E11.63441
G1 X141.854 Y174.892 E13.43232
G1 X140.001 Y176.184 E13.51924
G1 X137.308 Y176.775 E13.62532
G1 X90.584 Y176.775 E15.42325
G1 X88.361 Y176.378 E15.51017
G1 X86.044 Y174.897 E15.61595
G1 X54.263 Y143.193 E17.34336
G1 X52.593 Y140.306 E17.47170
G1 X26.867 Y44.293 E21.29660
G1 X23.438 Y31.293 E21.81395
G1 X23.254 Y29.042 E21.90087
G1 X23.861 Y26.866 E21.98780
G1 X25.148 Y25.083 E22.07241
G1 E19.07241 F2400.00000
G92 E0
G1 X115.639 Y124.238 F4800.000
G1 E3.00000 F2400.00000
G1 F1800
G1 X133.630 Y167.672 E4.80903
G1 X94.263 Y167.672 E6.32387
G1 X109.859 Y130.018 E7.89217
G1 X115.597 Y124.281 E8.20440
G1 X115.489 Y124.995 F4800.000
G1 F1800
G1 X132.989 Y167.244 E9.96407
G1 X94.904 Y167.244 E11.42956
G1 X110.223 Y130.261 E12.96991
G1 X115.446 Y125.037 E13.25417
G1 X115.338 Y125.751 F4800.000
G1 F1800
G1 X132.348 Y166.815 E14.96450
G1 X95.546 Y166.815 E16.38063
G1 X110.586 Y130.504 E17.89302
G1 X115.296 Y125.794 E18.14933
G1 X115.188 Y126.508 F4800.000
G1 F1800
G1 X131.706 Y166.387 E19.81030
G1 X96.187 Y166.387 E21.17708
G1 X110.949 Y130.746 E22.66151
G1 X115.145 Y126.550 E22.88986
G1 X115.509 Y126.270 F4800.000
G1 X124.238 Y115.639 F4800.000
G1 F1800
G1 X130.018 Y109.859 E23.20440
G1 X167.672 Y94.263 E24.77269
G1 X167.672 Y133.630 E26.28754
G1 X124.294 Y115.662 E28.09426
G1 X119.126 Y119.126 F4800.000
G1 F1800
G1 X165.098 Y138.168 E30.00903
G1 X138.168 Y165.098 E31.47453
G1 X119.149 Y119.181 E33.38699
G1 X119.917 Y119.917 F4800.000
G1 F1800
G1 X164.342 Y138.319 E35.23728
G1 X138.319 Y164.342 E36.65343
G1 X119.940 Y119.973 E38.50141
G1 X120.709 Y120.709 F4800.000
G1 F1800
G1 X163.585 Y138.469 E40.28721
G1 X138.469 Y163.585 E41.65400
G1 X120.732 Y120.765 E43.43750
G1 X120.761 Y120.313 F4800.000
G1 X118.471 Y118.471 F4800.000
G1 F1800
G1 X118.005 Y118.892 E43.46166
G1 X117.501 Y119.266 E43.48582
G1 X116.962 Y119.589 E43.50998
G1 X116.395 Y119.858 E43.53414
G1 X115.804 Y120.069 E43.55830
G1 X115.195 Y120.222 E43.58247
G1 X114.573 Y120.314 E43.60663
G1 X113.946 Y120.345 E43.63079
G1 X113.319 Y120.314 E43.65495
G1 X112.698 Y120.222 E43.67912
G1 X112.089 Y120.069 E43.70328
G1 X111.498 Y119.858 E43.72744
G1 X110.930 Y119.589 E43.75160
G1 X110.392 Y119.266 E43.77576
G1 X109.887 Y118.892 E43.79992
G1 X109.422 Y118.471 E43.82408
G1 X109.000 Y118.005 E43.84824
G1 X108.626 Y117.501 E43.87241
G1 X108.304 Y116.963 E43.89657
G1 X108.035 Y116.395 E43.92073
G1 X107.824 Y115.804 E43.94489
G1 X107.671 Y115.195 E43.96905
G1 X107.579 Y114.574 E43.99321
G1 X107.548 Y113.946 E44.01737
G1 X107.579 Y113.319 E44.04154
G1 X107.671 Y112.698 E44.06570
G1 X107.824 Y112.089 E44.08986
G1 X108.035 Y111.498 E44.11402
G1 X108.304 Y110.930 E44.13818
G1 X108.626 Y110.392 E44.16234
G1 X109.000 Y109.887 E44.18651
G1 X109.422 Y109.422 E44.21067
G1 X109.887 Y109.000 E44.23483
G1 X110.392 Y108.626 E44.25899
G1 X110.930 Y108.304 E44.28315
G1 X111.498 Y108.035 E44.30731
G1 X112.089 Y107.824 E44.33148
G1 X112.700 Y107.671 E44.35572
G1 X113.342 Y107.578 E44.38067
G1 F1800
G1 X113.946 Y107.548 E44.40396
G1 X114.574 Y107.579 E44.42812
G1 X115.195 Y107.671 E44.45228
G1 X115.804 Y107.824 E44.47644
G1 X116.395 Y108.035 E44.50060
G1 X116.963 Y108.304 E44.52477
G1 X117.501 Y108.626 E44.54892
G1 X118.005 Y109.000 E44.57309
G1 X118.471 Y109.422 E44.59725
G1 X118.892 Y109.887 E44.62141
G1 X119.266 Y110.392 E44.64557
G1 X119.589 Y110.930 E44.66973
G1 X119.858 Y111.498 E44.69389
G1 X120.069 Y112.089 E44.71806
G1 X120.222 Y112.698 E44.74222
G1 X120.314 Y113.319 E44.76638
G1 X120.345 Y113.946 E44.79054
G1 X120.314 Y114.573 E44.81470
G1 X120.222 Y115.195 E44.83886
G1 X120.069 Y115.804 E44.86303
G1 X119.858 Y116.395 E44.88719
G1 X119.589 Y116.962 E44.91135
G1 X119.266 Y117.501 E44.93551
G1 X118.892 Y118.005 E44.95967
G1 X118.511 Y118.426 E44.98152
G1 X118.167 Y118.167 F4800.000
G1 F1800
G1 X117.733 Y118.561 E45.00406
G1 X117.263 Y118.910 E45.02660
G1 X116.760 Y119.211 E45.04915
G1 X116.231 Y119.461 E45.07168
G1 X115.679 Y119.659 E45.09423
G1 X115.111 Y119.801 E45.11677
G1 X114.531 Y119.887 E45.13931
G1 X113.946 Y119.916 E45.16185
G1 X113.361 Y119.887 E45.18439
G1 X112.782 Y119.801 E45.20694
G1 X112.214 Y119.659 E45.22948
G1 X111.662 Y119.461 E45.25202
G1 X111.132 Y119.211 E45.27456
G1 X110.630 Y118.910 E45.29710
G1 X110.160 Y118.561 E45.31964
G1 X109.725 Y118.167 E45.34218
G1 X109.332 Y117.733 E45.36472
G1 X108.983 Y117.263 E45.38727
G1 X108.682 Y116.760 E45.40981
G1 X108.431 Y116.231 E45.43235
G1 X108.234 Y115.679 E45.45489
G1 X108.092 Y115.111 E45.47743
G1 X108.006 Y114.531 E45.49997
G1 X107.977 Y113.946 E45.52252
G1 X108.006 Y113.361 E45.54506
G1 X108.092 Y112.782 E45.56760
G1 X108.234 Y112.214 E45.59014
G1 X108.431 Y111.662 E45.61268
G1 X108.682 Y111.132 E45.63522
G1 X108.983 Y110.630 E45.65776
G1 X109.332 Y110.159 E45.68031
G1 X109.725 Y109.725 E45.70285
G1 X110.159 Y109.332 E45.72539
G1 X110.630 Y108.983 E45.74793
G1 X111.132 Y108.682 E45.77047
G1 X111.662 Y108.431 E45.79301
G1 X112.214 Y108.234 E45.81556
G1 X112.783 Y108.092 E45.83814
G1 X113.383 Y108.005 E45.86148
G1 F1800
G1 X113.946 Y107.977 E45.88318
G1 X114.531 Y108.006 E45.90572
G1 X115.111 Y108.092 E45.92826
G1 X115.679 Y108.234 E45.95080
G1 X116.231 Y108.431 E45.97334
G1 X116.760 Y108.682 E45.99588
G1 X117.263 Y108.983 E46.01842
G1 X117.733 Y109.332 E46.04097
G1 X118.167 Y109.725 E46.06351
G1 X118.561 Y110.160 E46.08605
G1 X118.910 Y110.630 E46.10859
G1 X119.211 Y111.132 E46.13113
G1 X119.461 Y111.662 E46.15367
G1 X119.659 Y112.214 E46.17621
G1 X119.801 Y112.782 E46.19875
G1 X119.887 Y113.361 E46.22130
G1 X119.916 Y113.946 E46.24384
G1 X119.887 Y114.531 E46.26638
G1 X119.801 Y115.111 E46.28892
G1 X119.659 Y115.679 E46.31146
G1 X119.461 Y116.231 E46.33401
G1 X119.211 Y116.760 E46.35654
G1 X118.910 Y117.263 E46.37909
G1 X118.561 Y117.733 E46.40163
G1 X118.208 Y118.123 E46.42186
G1 X117.864 Y117.864 F4800.000
G1 F1800
G1 X117.461 Y118.229 E46.44278
G1 X117.024 Y118.553 E46.46370
G1 X116.558 Y118.832 E46.48462
G1 X116.067 Y119.065 E46.50554
G1 X115.555 Y119.248 E46.52647
G1 X115.027 Y119.380 E46.54739
G1 X114.489 Y119.460 E46.56831
G1 X113.946 Y119.487 E46.58923
G1 X113.403 Y119.460 E46.61015
G1 X112.866 Y119.380 E46.63107
G1 X112.338 Y119.248 E46.65199
G1 X111.826 Y119.065 E46.67292
G1 X111.335 Y118.832 E46.69384
G1 X110.868 Y118.553 E46.71476
G1 X110.432 Y118.229 E46.73568
G1 X110.029 Y117.864 E46.75660
G1 X109.664 Y117.461 E46.77752
G1 X109.340 Y117.024 E46.79844
G1 X109.060 Y116.558 E46.81936
G1 X108.828 Y116.067 E46.84029
G1 X108.645 Y115.555 E46.86121
G1 X108.513 Y115.027 E46.88213
G1 X108.433 Y114.489 E46.90305
G1 X108.406 Y113.946 E46.92397
G1 X108.433 Y113.403 E46.94490
G1 X108.513 Y112.866 E46.96582
G1 X108.645 Y112.338 E46.98674
G1 X108.828 Y111.826 E47.00766
G1 X109.060 Y111.335 E47.02858
G1 X109.340 Y110.868 E47.04950
G1 X109.664 Y110.432 E47.07042
G1 X110.029 Y110.029 E47.09134
G1 X110.432 Y109.664 E47.11226
G1 X110.868 Y109.340 E47.13319
G1 X111.335 Y109.060 E47.15411
G1 X111.826 Y108.828 E47.17503
G1 X112.338 Y108.645 E47.19595
G1 X112.866 Y108.512 E47.21689
G1 X113.425 Y108.432 E47.23861
G1 F1800
G1 X113.946 Y108.406 E47.25871
G1 X114.489 Y108.433 E47.27963
G1 X115.027 Y108.513 E47.30055
G1 X115.555 Y108.645 E47.32148
G1 X116.067 Y108.828 E47.34240
G1 X116.558 Y109.060 E47.36332
G1 X117.024 Y109.340 E47.38424
G1 X117.461 Y109.664 E47.40516
G1 X117.864 Y110.029 E47.42608
G1 X118.229 Y110.432 E47.44701
G1 X118.553 Y110.868 E47.46792
G1 X118.832 Y111.335 E47.48885
G1 X119.065 Y111.826 E47.50977
G1 X119.248 Y112.338 E47.53069
G1 X119.380 Y112.866 E47.55161
G1 X119.460 Y113.403 E47.57253
G1 X119.487 Y113.946 E47.59345
G1 X119.460 Y114.489 E47.61437
G1 X119.380 Y115.027 E47.63530
G1 X119.248 Y115.555 E47.65622
G1 X119.065 Y116.067 E47.67714
G1 X118.832 Y116.558 E47.69806
G1 X118.553 Y117.024 E47.71898
G1 X118.229 Y117.461 E47.73990
G1 X117.904 Y117.820 E47.75852
G1 X117.864 Y117.864 F4800.000
G1 X138.018 Y165.855 F4800.000
G1 F1800
G1 X118.587 Y118.944 E49.71237
G1 X118.277 Y119.224 E49.72842
G1 X117.739 Y119.623 E49.75420
G1 X117.165 Y119.967 E49.77998
G1 X116.559 Y120.254 E49.80576
G1 X115.928 Y120.480 E49.83154
G1 X115.278 Y120.643 E49.85733
G1 X114.615 Y120.741 E49.88311
G1 X113.946 Y120.774 E49.90889
G1 X113.277 Y120.741 E49.93467
G1 X112.614 Y120.643 E49.96045
G1 X111.965 Y120.480 E49.98623
G1 X111.334 Y120.254 E50.01201
G1 X110.728 Y119.968 E50.03780
G1 X110.153 Y119.623 E50.06358
G1 X109.615 Y119.224 E50.08936
G1 X109.119 Y118.774 E50.11514
G1 X108.669 Y118.278 E50.14092
G1 X108.270 Y117.739 E50.16670
G1 X107.925 Y117.165 E50.19248
G1 X107.639 Y116.559 E50.21827
G1 X107.413 Y115.928 E50.24405
G1 X107.250 Y115.278 E50.26983
G1 X107.152 Y114.616 E50.29561
G1 X107.119 Y113.946 E50.32139
G1 X107.152 Y113.277 E50.34718
G1 X107.250 Y112.614 E50.37296
G1 X107.413 Y111.965 E50.39873
G1 X107.639 Y111.334 E50.42452
G1 X107.925 Y110.728 E50.45030
G1 X108.270 Y110.153 E50.47608
G1 X108.669 Y109.615 E50.50187
G1 X109.119 Y109.119 E50.52764
G1 X109.615 Y108.669 E50.55342
G1 X110.153 Y108.270 E50.57921
G1 X110.728 Y107.925 E50.60499
G1 X111.334 Y107.639 E50.63077
G1 X111.965 Y107.413 E50.65655
G1 X112.617 Y107.250 E50.68244
G1 X113.301 Y107.151 E50.70902
G1 X113.946 Y107.119 E50.73389
G1 X114.616 Y107.152 E50.75967
G1 X115.278 Y107.250 E50.78545
G1 X115.928 Y107.413 E50.81124
G1 X116.559 Y107.639 E50.83702
G1 X117.165 Y107.925 E50.86280
G1 X117.739 Y108.270 E50.88858
G1 X118.278 Y108.669 E50.91436
G1 X118.774 Y109.119 E50.94015
G1 X119.224 Y109.615 E50.96593
G1 X119.623 Y110.153 E50.99171
G1 X119.968 Y110.728 E51.01749
G1 X120.254 Y111.334 E51.04327
G1 X120.480 Y111.965 E51.06905
G1 X120.643 Y112.614 E51.09483
G1 X120.741 Y113.277 E51.12062
G1 X120.774 Y113.946 E51.14640
G1 X120.741 Y114.615 E51.17218
G1 X120.643 Y115.278 E51.19796
G1 X120.480 Y115.928 E51.22375
G1 X120.254 Y116.559 E51.24953
G1 X119.967 Y117.165 E51.27530
G1 X119.623 Y117.739 E51.30109
G1 X119.224 Y118.277 E51.32686
G1 X118.944 Y118.587 E51.34292
G1 X165.855 Y138.018 E53.29677
G1 X138.060 Y165.812 E54.80931
G1 E51.80931 F2400.00000
G92 E0
G1 X167.244 Y132.989 F4800.000
G1 E3.00000 F2400.00000
G1 F1800
G1 X124.995 Y115.489 E4.75968
G1 X130.261 Y110.223 E5.04625
G1 X167.244 Y94.904 E6.58659
G1 X167.244 Y132.929 E8.04978
G1 X166.815 Y132.348 F4800.000
G1 F1800
G1 X125.751 Y115.338 E9.76010
G1 X130.504 Y110.586 E10.01872
G1 X166.815 Y95.546 E11.53110
G1 X166.815 Y132.288 E12.94493
G1 X166.387 Y131.706 F4800.000
G1 F1800
G1 X126.508 Y115.188 E14.60590
G1 X130.746 Y110.949 E14.83656
G1 X166.387 Y96.187 E16.32099
G1 X166.387 Y131.646 E17.68547
G1 X166.289 Y132.094 F4800.000
G1 E14.68547 F2400.00000
G92 E0
G1 X109.633 Y106.275 F4800.000
G1 E3.00000 F2400.00000
G1 F1800
G1 X103.104 Y99.746 E3.35530
G1 X103.067 Y100.462 E3.38287
G1 X102.897 Y101.094 E3.40808
G1 X102.600 Y101.678 E3.43329
G1 X102.187 Y102.187 E3.45850
G1 X101.678 Y102.600 E3.48371
G1 X101.095 Y102.897 E3.50892
G1 X100.462 Y103.067 E3.53413
G1 X99.746 Y103.104 E3.56170
G1 X106.275 Y109.633 E3.91700
G1 X97.875 Y118.033 E4.37413
G1 X63.582 Y132.238 E5.80241
G1 X44.253 Y60.097 E8.67630
G1 X50.496 Y53.854 E9.01605
G1 X57.808 Y61.166 E9.41395
G1 X57.845 Y60.450 E9.44153
G1 X58.015 Y59.817 E9.46674
G1 X58.312 Y59.234 E9.49194
G1 X58.724 Y58.724 E9.51716
G1 X59.234 Y58.312 E9.54237
G1 X59.821 Y58.013 E9.56772
G1 X60.462 Y57.845 E9.59323
G1 X61.166 Y57.808 E9.62035
G1 X53.854 Y50.496 E10.01826
G1 X60.097 Y44.253 E10.35801
G1 X132.238 Y63.582 E13.23189
G1 X118.033 Y97.875 E14.66017
G1 X109.675 Y106.233 E15.11500
G1 X109.633 Y105.669 F4800.000
G1 F1800
G1 X102.529 Y98.565 E15.50159
G1 X102.354 Y98.678 E15.50960
G1 X102.582 Y99.272 E15.53406
G1 X102.671 Y99.830 E15.55580
G1 X102.641 Y100.394 E15.57754
G1 X102.495 Y100.940 E15.59929
G1 X102.238 Y101.444 E15.62104
G1 X101.883 Y101.883 E15.64278
G1 X101.444 Y102.238 E15.66452
G1 X100.940 Y102.495 E15.68627
G1 X100.394 Y102.641 E15.70801
G1 X99.830 Y102.671 E15.72976
G1 X99.272 Y102.582 E15.75150
G1 X98.678 Y102.354 E15.77596
G1 X98.565 Y102.529 E15.78397
G1 X105.669 Y109.633 E16.17056
G1 X97.632 Y117.670 E16.60793
G1 X63.870 Y131.655 E18.01413
G1 X44.730 Y60.225 E20.85969
G1 X50.496 Y54.460 E21.17343
G1 X58.383 Y62.347 E21.60263
G1 X58.557 Y62.233 E21.61064
G1 X58.330 Y61.640 E21.63510
G1 X58.241 Y61.082 E21.65684
G1 X58.271 Y60.518 E21.67859
G1 X58.417 Y59.972 E21.70033
G1 X58.674 Y59.468 E21.72208
G1 X59.029 Y59.029 E21.74382
G1 X59.468 Y58.674 E21.76557
G1 X59.974 Y58.416 E21.78741
G1 X60.528 Y58.270 E21.80946
G1 X61.082 Y58.241 E21.83079
G1 X61.640 Y58.330 E21.85254
G1 X62.233 Y58.557 E21.87700
G1 X62.347 Y58.383 E21.88501
G1 X54.460 Y50.496 E22.31421
G1 X60.225 Y44.730 E22.62795
G1 X131.655 Y63.870 E25.47351
G1 X117.670 Y97.632 E26.87971
G1 X109.675 Y105.627 E27.31477
G1 X105.063 Y109.633 F4800.000
G1 F1800
G1 X97.389 Y117.307 E27.73236
G1 X64.157 Y131.072 E29.11648
G1 X45.208 Y60.353 E31.93373
G1 X50.496 Y55.066 E32.22146
G1 X105.021 Y109.591 E35.18863
G1 X104.457 Y109.633 F4800.000
G1 F1800
G1 X97.146 Y116.944 E35.58646
G1 X64.445 Y130.489 E36.94850
G1 X45.686 Y60.481 E39.73742
G1 X50.496 Y55.672 E39.99915
G1 X104.415 Y109.591 E42.93334
G1 X104.748 Y109.908 F4800.000
G1 X109.633 Y105.063 F4800.000
G1 F1800
G1 X55.066 Y50.496 E45.90282
G1 X60.353 Y45.208 E46.19056
G1 X131.072 Y64.157 E49.00780
G1 X117.307 Y97.389 E50.39192
G1 X109.675 Y105.021 E50.80721
G1 X109.633 Y104.457 F4800.000
G1 F1800
G1 X55.672 Y50.496 E53.74371
G1 X60.481 Y45.686 E54.00544
G1 X130.489 Y64.445 E56.79436
G1 X116.944 Y97.146 E58.15640
G1 X109.675 Y104.415 E58.55192
G1 X109.380 Y104.767 F4800.000
G1 X62.547 Y62.547 F4800.000
G1 F1800
G1 X62.178 Y62.846 E58.57019
G1 X61.755 Y63.062 E58.58847
G1 X61.296 Y63.185 E58.60675
G1 X60.822 Y63.210 E58.62503
G1 X60.352 Y63.135 E58.64331
G1 X59.909 Y62.965 E58.66159
G1 X59.511 Y62.706 E58.67987
G1 X59.175 Y62.370 E58.69814
G1 X58.916 Y61.972 E58.71642
G1 X58.746 Y61.529 E58.73470
G1 X58.671 Y61.059 E58.75298
G1 X58.696 Y60.585 E58.77126
G1 X58.819 Y60.126 E58.78953
G1 X59.035 Y59.703 E58.80781
G1 X59.334 Y59.334 E58.82609
G1 X59.703 Y59.035 E58.84437
G1 X60.128 Y58.818 E58.86271
G1 X60.595 Y58.696 E58.88129
G1 F1800
G1 X61.059 Y58.671 E58.89920
G1 X61.529 Y58.746 E58.91748
G1 X61.972 Y58.916 E58.93576
G1 X62.370 Y59.175 E58.95403
G1 X62.706 Y59.511 E58.97231
G1 X62.965 Y59.909 E58.99059
G1 X63.135 Y60.352 E59.00887
G1 X63.210 Y60.822 E59.02715
G1 X63.185 Y61.296 E59.04542
G1 X63.062 Y61.755 E59.06370
G1 X62.846 Y62.178 E59.08198
G1 X62.585 Y62.501 E59.09795
G1 X98.669 Y98.669 F4800.000
G1 F1800
G1 X98.969 Y98.427 E59.11276
G1 X99.312 Y98.252 E59.12760
G1 X99.692 Y98.152 E59.14271
G1 F1800
G1 X100.068 Y98.133 E59.15719
G1 X100.448 Y98.193 E59.17201
G1 X100.807 Y98.331 E59.18682
G1 X101.130 Y98.540 E59.20163
G1 X101.402 Y98.813 E59.21644
G1 X101.612 Y99.135 E59.23125
G1 X101.750 Y99.495 E59.24607
G1 X101.810 Y99.875 E59.26088
G1 X101.790 Y100.259 E59.27569
G1 X101.690 Y100.631 E59.29050
G1 X101.516 Y100.974 E59.30532
G1 X101.273 Y101.273 E59.32013
G1 X100.974 Y101.516 E59.33494
G1 X100.631 Y101.690 E59.34975
G1 X100.259 Y101.790 E59.36457
