; generated by Slic3r 1.2.9 on 2016-03-16 at 22:16:41

; external perimeters extrusion width = 0.40mm
; perimeters extrusion width = 0.67mm
; infill extrusion width = 0.67mm
; solid infill extrusion width = 0.67mm
; top infill extrusion width = 0.67mm

M107
M190 S55 ; set bed temperature
M104 S210 ; set temperature
G28 ; home all axes
G1 Z5 F5000 ; lift nozzle

M109 S210 ; wait for temperature to be reached
G21 ; set units to millimeters
G90 ; use absolute coordinates
M82 ; use absolute distances for extrusion
G92 E0
G1 Z0.240 F4800.000
G1 E-3.00000 F2400.00000
G92 E0
G1 X29.171 Y29.171 F4800.000
G1 E3.00000 F2400.00000
G1 F1800
G1 X29.679 Y28.686 E3.02701
G1 X30.260 Y28.186 E3.05651
G1 X30.860 Y27.722 E3.08570
G1 X31.371 Y27.364 E3.10972
G1 X32.014 Y26.958 E3.13898
G1 X32.681 Y26.584 E3.16840
G1 X33.363 Y26.247 E3.19768
G1 X33.960 Y25.988 E3.22271
G1 X34.668 Y25.720 E3.25186
G1 X35.394 Y25.488 E3.28117
G1 X35.995 Y25.327 E3.30513
G1 X36.739 Y25.165 E3.33441
G1 X37.380 Y25.057 E3.35944
G1 X38.137 Y24.968 E3.38878
G1 X38.894 Y24.919 E3.41795
G1 X39.516 Y24.908 E3.44190
G1 F1800
G1 X41.225 Y24.971 E3.50771
G1 X42.610 Y25.184 E3.56163
G1 X138.623 Y50.910 E7.38653
G1 X141.511 Y52.580 E7.51487
G1 X173.215 Y84.362 E9.24228
G1 X174.504 Y86.216 E9.32921
G1 X175.092 Y88.902 E9.43499
G1 X175.092 Y135.625 E11.23291
G1 X174.695 Y137.849 E11.31984
G1 X173.209 Y140.171 E11.42591
G1 X140.171 Y173.209 E13.22382
G1 X138.318 Y174.501 E13.31074
G1 X135.625 Y175.092 E13.41682
G1 X88.902 Y175.092 E15.21475
G1 X86.678 Y174.695 E15.30167
G1 X84.362 Y173.215 E15.40745
G1 X52.580 Y141.511 E17.13486
G1 X50.910 Y138.623 E17.26320
G1 X25.184 Y42.610 E21.08810
G1 X24.971 Y41.225 E21.14202
G1 X24.911 Y39.770 E21.19807
G1 X24.919 Y38.897 E21.23165
G1 X24.982 Y37.996 E21.26643
G1 X25.096 Y37.131 E21.29998
G1 X25.268 Y36.242 E21.33482
G1 X25.488 Y35.394 E21.36855
G1 X25.768 Y34.533 E21.40337
G1 X26.088 Y33.720 E21.43699
G1 X26.469 Y32.904 E21.47165
G1 X26.886 Y32.136 E21.50528
G1 X27.364 Y31.371 E21.53999
G1 X27.872 Y30.658 E21.57370
G1 X28.442 Y29.955 E21.60850
G1 X29.128 Y29.213 E21.64740
G1 E18.64740 F2400.00000
G92 E0
G1 X113.957 Y122.556 F4800.000
G1 E3.00000 F2400.00000
G1 F1800
G1 X131.947 Y165.989 E4.80903
G1 X92.580 Y165.989 E6.32388
G1 X108.177 Y128.335 E7.89218
G1 X113.914 Y122.598 E8.20440
G1 X113.806 Y123.312 F4800.000
G1 F1800
G1 X131.306 Y165.561 E9.96408
G1 X93.222 Y165.561 E11.42957
G1 X108.540 Y128.578 E12.96992
G1 X113.764 Y123.354 E13.25418
G1 X113.656 Y124.068 F4800.000
G1 F1800
G1 X130.665 Y165.132 E14.96451
G1 X93.863 Y165.132 E16.38065
G1 X108.903 Y128.821 E17.89304
G1 X113.613 Y124.111 E18.14935
G1 X113.505 Y124.825 F4800.000
G1 F1800
G1 X130.024 Y164.704 E19.81032
G1 X94.504 Y164.704 E21.17711
G1 X109.266 Y129.064 E22.66154
G1 X113.463 Y124.867 E22.88989
G1 X113.827 Y124.587 F4800.000
G1 X136.335 Y164.172 F4800.000
G1 F1800
G1 X116.904 Y117.261 E24.84374
G1 X116.595 Y117.541 E24.85979
G1 X116.057 Y117.940 E24.88557
G1 X115.482 Y118.285 E24.91135
G1 X114.876 Y118.571 E24.93713
G1 X114.246 Y118.797 E24.96291
G1 X113.596 Y118.960 E24.98870
G1 X112.933 Y119.058 E25.01448
G1 X112.264 Y119.091 E25.04026
G1 X111.594 Y119.058 E25.06604
G1 X110.932 Y118.960 E25.09183
G1 X110.282 Y118.797 E25.11761
G1 X109.651 Y118.571 E25.14339
G1 X109.045 Y118.285 E25.16917
G1 X108.471 Y117.940 E25.19495
G1 X107.932 Y117.541 E25.22073
G1 X107.436 Y117.091 E25.24651
G1 X106.986 Y116.595 E25.27229
G1 X106.587 Y116.057 E25.29808
G1 X106.242 Y115.482 E25.32386
G1 X105.956 Y114.876 E25.34964
G1 X105.730 Y114.246 E25.37542
G1 X105.567 Y113.596 E25.40121
G1 X105.469 Y112.933 E25.42699
G1 X105.436 Y112.264 E25.45277
G1 X105.469 Y111.594 E25.47855
G1 X105.567 Y110.932 E25.50433
G1 X105.730 Y110.282 E25.53011
G1 X105.956 Y109.651 E25.55589
G1 X106.242 Y109.045 E25.58167
G1 X106.587 Y108.471 E25.60746
G1 X106.986 Y107.932 E25.63324
G1 X107.436 Y107.436 E25.65902
G1 X107.932 Y106.986 E25.68480
G1 X108.471 Y106.587 E25.71058
G1 X109.045 Y106.242 E25.73637
G1 X109.651 Y105.956 E25.76215
G1 X110.282 Y105.730 E25.78793
G1 X110.934 Y105.567 E25.81382
G1 X111.618 Y105.468 E25.84040
G1 X112.264 Y105.436 E25.86527
G1 X112.933 Y105.469 E25.89105
G1 X113.596 Y105.567 E25.91683
G1 X114.246 Y105.730 E25.94262
G1 X114.876 Y105.956 E25.96839
G1 X115.482 Y106.242 E25.99418
G1 X116.057 Y106.587 E26.01996
G1 X116.595 Y106.986 E26.04574
G1 X117.091 Y107.436 E26.07152
G1 X117.541 Y107.932 E26.09731
G1 X117.940 Y108.471 E26.12308
G1 X118.285 Y109.045 E26.14887
G1 X118.571 Y109.651 E26.17465
G1 X118.797 Y110.282 E26.20043
G1 X118.960 Y110.932 E26.22621
G1 X119.058 Y111.594 E26.25200
G1 X119.091 Y112.264 E26.27778
G1 X119.058 Y112.933 E26.30355
G1 X118.960 Y113.596 E26.32934
G1 X118.797 Y114.246 E26.35512
G1 X118.571 Y114.876 E26.38091
G1 X118.285 Y115.482 E26.40668
G1 X117.940 Y116.057 E26.43246
G1 X117.541 Y116.595 E26.45824
G1 X117.261 Y116.904 E26.47429
G1 X164.172 Y136.335 E28.42815
G1 X136.377 Y164.130 E29.94069
G1 X136.486 Y163.415 F4800.000
G1 F1800
G1 X117.443 Y117.443 E31.85546
G1 X163.415 Y136.486 E33.77024
G1 X136.528 Y163.373 E35.23343
G1 X136.636 Y162.659 F4800.000
G1 F1800
G1 X118.235 Y118.235 E37.08372
G1 X162.659 Y136.636 E38.93402
G1 X136.678 Y162.617 E40.34785
G1 X136.786 Y161.903 F4800.000
G1 F1800
G1 X119.026 Y119.026 E42.13366
G1 X161.903 Y136.786 E43.91947
G1 X136.829 Y161.860 E45.28395
G1 X136.543 Y162.220 F4800.000
G1 X115.280 Y117.906 F4800.000
G1 F1800
G1 X114.712 Y118.175 E45.30811
G1 X114.121 Y118.386 E45.33227
G1 X113.512 Y118.539 E45.35643
G1 X112.891 Y118.631 E45.38060
G1 X112.264 Y118.662 E45.40476
G1 X111.637 Y118.631 E45.42892
G1 X111.015 Y118.539 E45.45308
G1 X110.406 Y118.386 E45.47724
G1 X109.815 Y118.175 E45.50140
G1 X109.247 Y117.906 E45.52556
G1 X108.709 Y117.584 E45.54973
G1 X108.205 Y117.210 E45.57389
G1 X107.739 Y116.788 E45.59805
G1 X107.318 Y116.323 E45.62221
G1 X106.944 Y115.818 E45.64637
G1 X106.621 Y115.280 E45.67053
G1 X106.352 Y114.712 E45.69470
G1 X106.141 Y114.121 E45.71886
G1 X105.988 Y113.512 E45.74302
G1 X105.896 Y112.891 E45.76718
G1 X105.865 Y112.264 E45.79134
G1 X105.896 Y111.636 E45.81550
G1 X105.988 Y111.015 E45.83967
G1 X106.141 Y110.406 E45.86382
G1 X106.352 Y109.815 E45.88799
G1 X106.621 Y109.247 E45.91215
G1 X106.944 Y108.709 E45.93631
G1 X107.318 Y108.205 E45.96047
G1 X107.739 Y107.739 E45.98463
G1 X108.205 Y107.318 E46.00879
G1 X108.709 Y106.944 E46.03296
G1 X109.247 Y106.621 E46.05712
G1 X109.815 Y106.352 E46.08128
G1 X110.406 Y106.141 E46.10544
G1 X111.017 Y105.988 E46.12968
G1 X111.659 Y105.895 E46.15464
G1 F1800
G1 X112.264 Y105.865 E46.17792
G1 X112.891 Y105.896 E46.20208
G1 X113.512 Y105.988 E46.22624
G1 X114.121 Y106.141 E46.25041
G1 X114.712 Y106.352 E46.27457
G1 X115.280 Y106.621 E46.29873
G1 X115.818 Y106.944 E46.32289
G1 X116.323 Y107.318 E46.34705
G1 X116.788 Y107.739 E46.37122
G1 X117.210 Y108.205 E46.39538
G1 X117.584 Y108.709 E46.41954
G1 X117.906 Y109.247 E46.44370
G1 X118.175 Y109.815 E46.46786
G1 X118.386 Y110.406 E46.49202
G1 X118.539 Y111.015 E46.51618
G1 X118.631 Y111.637 E46.54035
G1 X118.662 Y112.264 E46.56451
G1 X118.631 Y112.891 E46.58867
G1 X118.539 Y113.512 E46.61283
G1 X118.386 Y114.121 E46.63700
G1 X118.175 Y114.712 E46.66116
G1 X117.906 Y115.280 E46.68532
G1 X117.584 Y115.818 E46.70948
G1 X117.210 Y116.323 E46.73364
G1 X116.788 Y116.788 E46.75780
G1 X116.323 Y117.210 E46.78196
G1 X115.818 Y117.584 E46.80612
G1 X115.331 Y117.876 E46.82798
G1 X115.077 Y117.528 F4800.000
G1 F1800
G1 X114.548 Y117.778 E46.85052
G1 X113.996 Y117.976 E46.87306
G1 X113.428 Y118.118 E46.89560
G1 X112.849 Y118.204 E46.91814
G1 X112.264 Y118.233 E46.94068
G1 X111.679 Y118.204 E46.96322
G1 X111.099 Y118.118 E46.98577
G1 X110.531 Y117.976 E47.00831
G1 X109.979 Y117.779 E47.03085
G1 X109.450 Y117.528 E47.05339
G1 X108.947 Y117.227 E47.07593
G1 X108.477 Y116.878 E47.09847
G1 X108.043 Y116.485 E47.12101
G1 X107.649 Y116.051 E47.14356
G1 X107.300 Y115.580 E47.16610
G1 X106.999 Y115.078 E47.18864
G1 X106.749 Y114.548 E47.21118
G1 X106.551 Y113.996 E47.23372
G1 X106.409 Y113.428 E47.25627
G1 X106.323 Y112.849 E47.27881
G1 X106.294 Y112.264 E47.30135
G1 X106.323 Y111.678 E47.32389
G1 X106.409 Y111.099 E47.34643
G1 X106.551 Y110.531 E47.36897
G1 X106.749 Y109.979 E47.39151
G1 X106.999 Y109.450 E47.41405
G1 X107.300 Y108.947 E47.43660
G1 X107.649 Y108.477 E47.45914
G1 X108.043 Y108.043 E47.48168
G1 X108.477 Y107.649 E47.50422
G1 X108.947 Y107.300 E47.52676
G1 X109.450 Y106.999 E47.54930
G1 X109.979 Y106.749 E47.57185
G1 X110.531 Y106.551 E47.59439
G1 X111.100 Y106.409 E47.61698
G1 X111.701 Y106.322 E47.64031
G1 F1800
G1 X112.264 Y106.294 E47.66201
G1 X112.849 Y106.323 E47.68455
G1 X113.428 Y106.409 E47.70709
G1 X113.996 Y106.551 E47.72963
G1 X114.548 Y106.749 E47.75217
G1 X115.078 Y106.999 E47.77472
G1 X115.580 Y107.300 E47.79726
G1 X116.051 Y107.649 E47.81980
G1 X116.485 Y108.043 E47.84234
G1 X116.878 Y108.477 E47.86488
G1 X117.227 Y108.947 E47.88742
G1 X117.528 Y109.450 E47.90997
G1 X117.779 Y109.979 E47.93251
G1 X117.976 Y110.531 E47.95505
G1 X118.118 Y111.099 E47.97759
G1 X118.204 Y111.679 E48.00013
G1 X118.233 Y112.264 E48.02267
G1 X118.204 Y112.849 E48.04521
G1 X118.118 Y113.428 E48.06775
G1 X117.976 Y113.996 E48.09030
G1 X117.778 Y114.548 E48.11284
G1 X117.528 Y115.077 E48.13538
G1 X117.227 Y115.580 E48.15792
G1 X116.878 Y116.050 E48.18046
G1 X116.485 Y116.485 E48.20300
G1 X116.050 Y116.878 E48.22555
G1 X115.580 Y117.227 E48.24809
G1 X115.129 Y117.497 E48.26832
G1 X114.875 Y117.150 F4800.000
G1 F1800
G1 X114.384 Y117.382 E48.28924
G1 X113.872 Y117.565 E48.31016
G1 X113.344 Y117.697 E48.33108
G1 X112.807 Y117.777 E48.35201
G1 X112.264 Y117.804 E48.37293
G1 X111.721 Y117.777 E48.39385
G1 X111.183 Y117.697 E48.41477
G1 X110.655 Y117.565 E48.43569
G1 X110.143 Y117.382 E48.45661
G1 X109.652 Y117.150 E48.47753
G1 X109.186 Y116.870 E48.49846
G1 X108.749 Y116.546 E48.51938
G1 X108.346 Y116.181 E48.54030
G1 X107.981 Y115.778 E48.56122
G1 X107.657 Y115.342 E48.58214
G1 X107.378 Y114.875 E48.60306
G1 X107.145 Y114.384 E48.62399
G1 X106.962 Y113.872 E48.64490
G1 X106.830 Y113.344 E48.66583
G1 X106.750 Y112.807 E48.68675
G1 X106.723 Y112.264 E48.70767
G1 X106.750 Y111.721 E48.72859
G1 X106.830 Y111.183 E48.74951
G1 X106.962 Y110.655 E48.77043
G1 X107.145 Y110.143 E48.79136
G1 X107.378 Y109.652 E48.81228
G1 X107.657 Y109.186 E48.83320
G1 X107.981 Y108.749 E48.85412
G1 X108.346 Y108.346 E48.87504
G1 X108.749 Y107.981 E48.89596
G1 X109.186 Y107.657 E48.91688
G1 X109.652 Y107.378 E48.93781
G1 X110.143 Y107.145 E48.95873
G1 X110.655 Y106.962 E48.97965
G1 X111.183 Y106.830 E49.00059
G1 X111.742 Y106.749 E49.02231
G1 F1800
G1 X112.264 Y106.723 E49.04241
G1 X112.807 Y106.750 E49.06333
G1 X113.344 Y106.830 E49.08425
G1 X113.872 Y106.962 E49.10518
G1 X114.384 Y107.145 E49.12609
G1 X114.875 Y107.378 E49.14702
G1 X115.342 Y107.657 E49.16794
G1 X115.778 Y107.981 E49.18886
G1 X116.181 Y108.346 E49.20978
G1 X116.546 Y108.749 E49.23070
G1 X116.870 Y109.186 E49.25162
G1 X117.150 Y109.652 E49.27255
G1 X117.382 Y110.143 E49.29347
G1 X117.565 Y110.655 E49.31439
G1 X117.697 Y111.183 E49.33531
G1 X117.777 Y111.721 E49.35623
G1 X117.804 Y112.264 E49.37715
G1 X117.777 Y112.807 E49.39807
G1 X117.697 Y113.344 E49.41900
G1 X117.565 Y113.872 E49.43992
G1 X117.382 Y114.384 E49.46084
G1 X117.150 Y114.875 E49.48176
G1 X116.870 Y115.342 E49.50268
G1 X116.546 Y115.778 E49.52360
G1 X116.181 Y116.181 E49.54452
G1 X115.778 Y116.546 E49.56545
G1 X115.342 Y116.870 E49.58637
G1 X114.927 Y117.119 E49.60498
G1 X114.875 Y117.150 F4800.000
G1 X122.556 Y113.957 F4800.000
G1 F1800
G1 X128.335 Y108.177 E49.91951
G1 X165.989 Y92.580 E51.48781
G1 X165.989 Y131.947 E53.00266
G1 X122.611 Y113.979 E54.80938
G1 X123.312 Y113.806 F4800.000
G1 F1800
G1 X128.578 Y108.540 E55.09596
G1 X165.561 Y93.222 E56.63630
G1 X165.561 Y131.306 E58.10179
G1 X123.367 Y113.829 E59.85916
G1 X124.068 Y113.656 F4800.000
G1 F1800
G1 X128.821 Y108.903 E60.11778
G1 X165.132 Y93.863 E61.63017
G1 X165.132 Y130.665 E63.04631
G1 X124.124 Y113.679 E64.75433
G1 X124.825 Y113.505 F4800.000
G1 F1800
G1 X129.064 Y109.266 E64.98499
G1 X164.704 Y94.504 E66.46942
G1 X164.704 Y130.024 E67.83620
G1 X124.880 Y113.528 E69.49487
G1 X124.453 Y113.358 F4800.000
G1 E66.49487 F2400.00000
G92 E0
G1 X107.950 Y104.592 F4800.000
G1 E3.00000 F2400.00000
G1 F1800
G1 X101.421 Y98.063 E3.35529
G1 X101.384 Y98.779 E3.38286
G1 X101.214 Y99.412 E3.40808
G1 X100.917 Y99.995 E3.43329
G1 X100.505 Y100.505 E3.45850
G1 X99.995 Y100.917 E3.48370
G1 X99.412 Y101.214 E3.50892
G1 X98.779 Y101.384 E3.53413
G1 X98.063 Y101.421 E3.56170
G1 X104.592 Y107.950 E3.91699
G1 X96.192 Y116.351 E4.37413
G1 X61.900 Y130.555 E5.80241
G1 X42.570 Y58.414 E8.67630
G1 X48.813 Y52.171 E9.01605
G1 X56.125 Y59.483 E9.41395
G1 X56.162 Y58.767 E9.44152
G1 X56.332 Y58.135 E9.46673
G1 X56.629 Y57.551 E9.49194
G1 X57.042 Y57.042 E9.51715
G1 X57.551 Y56.629 E9.54237
G1 X58.138 Y56.330 E9.56772
G1 X58.779 Y56.162 E9.59323
G1 X59.483 Y56.125 E9.62035
G1 X52.171 Y48.813 E10.01825
G1 X58.414 Y42.570 E10.35801
G1 X130.555 Y61.900 E13.23189
G1 X116.351 Y96.192 E14.66017
G1 X107.993 Y104.550 E15.11500
G1 X107.950 Y103.986 F4800.000
G1 F1800
G1 X100.846 Y96.882 E15.50159
G1 X100.672 Y96.996 E15.50960
G1 X100.900 Y97.589 E15.53405
G1 X100.988 Y98.147 E15.55580
G1 X100.958 Y98.711 E15.57754
G1 X100.812 Y99.257 E15.59929
G1 X100.555 Y99.761 E15.62103
G1 X100.200 Y100.200 E15.64278
G1 X99.761 Y100.555 E15.66452
G1 X99.257 Y100.812 E15.68626
G1 X98.711 Y100.958 E15.70801
G1 X98.147 Y100.988 E15.72975
G1 X97.589 Y100.900 E15.75150
G1 X96.996 Y100.672 E15.77595
G1 X96.882 Y100.846 E15.78396
G1 X103.986 Y107.950 E16.17055
G1 X95.949 Y115.987 E16.60792
G1 X62.187 Y129.972 E18.01412
G1 X43.048 Y58.542 E20.85968
G1 X48.813 Y52.777 E21.17343
G1 X56.700 Y60.664 E21.60262
G1 X56.875 Y60.551 E21.61063
G1 X56.647 Y59.957 E21.63509
G1 X56.558 Y59.399 E21.65683
G1 X56.588 Y58.835 E21.67858
G1 X56.734 Y58.289 E21.70032
G1 X56.991 Y57.786 E21.72207
G1 X57.346 Y57.346 E21.74381
G1 X57.786 Y56.991 E21.76556
G1 X58.291 Y56.733 E21.78740
G1 X58.846 Y56.587 E21.80945
G1 X59.399 Y56.558 E21.83078
G1 X59.957 Y56.647 E21.85253
G1 X60.551 Y56.875 E21.87698
G1 X60.664 Y56.700 E21.88499
G1 X52.777 Y48.813 E22.31419
G1 X58.542 Y43.048 E22.62793
G1 X129.972 Y62.187 E25.47350
G1 X115.987 Y95.949 E26.87970
G1 X107.993 Y103.944 E27.31476
G1 X103.380 Y107.950 F4800.000
G1 F1800
G1 X95.706 Y115.624 E27.73235
G1 X62.475 Y129.389 E29.11647
G1 X43.526 Y58.670 E31.93372
G1 X48.813 Y53.383 E32.22145
G1 X103.338 Y107.908 E35.18863
G1 X102.774 Y107.950 F4800.000
G1 F1800
G1 X95.464 Y115.261 E35.58646
G1 X62.762 Y128.806 E36.94850
G1 X44.004 Y58.799 E39.73742
G1 X48.813 Y53.989 E39.99915
G1 X102.732 Y107.908 E42.93334
G1 X103.065 Y108.225 F4800.000
G1 X107.950 Y103.380 F4800.000
G1 F1800
G1 X53.383 Y48.813 E45.90283
G1 X58.670 Y43.526 E46.19056
G1 X129.389 Y62.475 E49.00780
G1 X115.624 Y95.706 E50.39192
G1 X107.993 Y103.338 E50.80721
G1 X107.950 Y102.774 F4800.000
G1 F1800
G1 X53.989 Y48.813 E53.74372
G1 X58.799 Y44.004 E54.00545
G1 X128.806 Y62.762 E56.79437
G1 X115.261 Y95.464 E58.15641
G1 X107.993 Y102.732 E58.55193
G1 X107.698 Y103.084 F4800.000
G1 X60.864 Y60.864 F4800.000
G1 F1800
G1 X60.495 Y61.163 E58.57021
G1 X60.072 Y61.379 E58.58849
G1 X59.613 Y61.502 E58.60677
G1 X59.139 Y61.527 E58.62504
G1 X58.670 Y61.452 E58.64332
G1 X58.226 Y61.282 E58.66160
G1 X57.828 Y61.023 E58.67988
G1 X57.492 Y60.688 E58.69815
G1 X57.233 Y60.289 E58.71643
G1 X57.063 Y59.846 E58.73471
G1 X56.989 Y59.377 E58.75299
G1 X57.013 Y58.902 E58.77127
G1 X57.136 Y58.443 E58.78955
G1 X57.352 Y58.020 E58.80783
G1 X57.651 Y57.651 E58.82611
G1 X58.020 Y57.352 E58.84438
G1 X58.445 Y57.136 E58.86273
G1 X58.912 Y57.013 E58.88131
G1 F1800
G1 X59.377 Y56.989 E58.89921
G1 X59.846 Y57.063 E58.91749
G1 X60.289 Y57.233 E58.93577
G1 X60.688 Y57.492 E58.95405
G1 X61.023 Y57.828 E58.97233
G1 X61.282 Y58.226 E58.99060
G1 X61.452 Y58.670 E59.00888
G1 X61.527 Y59.139 E59.02716
G1 X61.502 Y59.613 E59.04544
G1 X61.379 Y60.072 E59.06372
