; generated by Slic3r 1.2.9 on 2016-03-15 at 19:23:16

; external perimeters extrusion width = 0.40mm
; perimeters extrusion width = 0.67mm
; infill extrusion width = 0.67mm
; solid infill extrusion width = 0.67mm
; top infill extrusion width = 0.67mm

M107
M190 S55 ; set bed temperature
M104 S210 ; set temperature
G28 ; home all axes
G1 Z5 F5000 ; lift nozzle

M109 S210 ; wait for temperature to be reached
G21 ; set units to millimeters
G90 ; use absolute coordinates
M82 ; use absolute distances for extrusion
G92 E0
G1 Z0.240 F4800.000
G1 E-3.00000 F2400.00000
G92 E0
G1 X74.435 Y82.488 F4800.000
G1 E3.00000 F2400.00000
G1 F1800
G1 X76.641 Y81.530 E3.09258
G1 X78.400 Y81.315 E3.16075
G1 X121.600 Y81.315 E4.82309
G1 X123.973 Y81.712 E4.91567
G1 F1800
G1 X126.087 Y82.860 E5.00825
G1 X127.712 Y84.635 E5.10082
G1 X128.670 Y86.841 E5.19340
G1 X128.885 Y88.600 E5.26158
G1 X128.885 Y111.400 E6.13892
G1 X128.488 Y113.773 E6.23150
G1 X127.340 Y115.887 E6.32408
G1 X125.565 Y117.512 E6.41666
G1 X123.359 Y118.470 E6.50924
G1 X121.600 Y118.685 E6.57741
G1 X78.400 Y118.685 E8.23975
G1 X76.027 Y118.288 E8.33232
G1 X73.913 Y117.140 E8.42490
G1 X72.288 Y115.365 E8.51748
G1 X71.330 Y113.159 E8.61006
G1 X71.115 Y111.400 E8.67824
G1 X71.115 Y88.600 E9.55558
G1 X71.512 Y86.227 E9.64816
G1 X72.660 Y84.113 E9.74074
G1 X74.390 Y82.529 E9.83101
G1 X74.734 Y82.833 F4800.000
G1 F1800
G1 X74.846 Y82.736 E9.83670
G1 X77.019 Y81.884 E9.92650
G1 X78.400 Y81.743 E9.97993
G1 X121.600 Y81.743 E11.64227
G1 X123.900 Y82.140 E11.73206
G1 F1800
G1 X125.933 Y83.285 E11.82186
G1 X127.464 Y85.046 E11.91165
G1 X128.316 Y87.219 E12.00145
G1 X128.457 Y88.600 E12.05488
G1 X128.457 Y111.400 E12.93222
G1 X128.060 Y113.700 E13.02202
G1 X126.915 Y115.733 E13.11182
G1 X125.154 Y117.264 E13.20161
G1 X122.981 Y118.116 E13.29141
G1 X121.600 Y118.257 E13.34484
G1 X78.400 Y118.257 E15.00717
G1 X76.100 Y117.860 E15.09697
G1 X74.067 Y116.715 E15.18676
G1 X72.536 Y114.954 E15.27656
G1 X71.684 Y112.781 E15.36636
G1 X71.543 Y111.400 E15.41979
G1 X71.543 Y88.600 E16.29713
G1 X71.940 Y86.300 E16.38693
G1 X73.085 Y84.267 E16.47672
G1 X74.689 Y82.872 E16.55851
G1 X75.023 Y83.184 F4800.000
G1 F1800
G1 X75.256 Y82.993 E16.57010
G1 X78.400 Y82.172 E16.69516
G1 X121.600 Y82.172 E18.35749
G1 X123.824 Y82.568 E18.44441
G1 F1800
G1 X125.773 Y83.710 E18.53134
G1 X127.207 Y85.456 E18.61826
G1 X128.028 Y88.600 E18.74332
G1 X128.028 Y111.400 E19.62066
G1 X127.632 Y113.624 E19.70759
G1 X126.490 Y115.573 E19.79451
G1 X124.744 Y117.007 E19.88144
G1 X121.600 Y117.828 E20.00650
G1 X78.400 Y117.828 E21.66883
G1 X76.176 Y117.432 E21.75575
G1 X74.227 Y116.290 E21.84268
G1 X72.793 Y114.544 E21.92960
G1 X71.971 Y111.400 E22.05466
G1 X71.971 Y88.600 E22.93200
G1 X72.368 Y86.376 E23.01893
G1 X73.510 Y84.427 E23.10585
G1 X74.977 Y83.222 E23.17888
G1 E20.17888 F2400.00000
G92 E0
G1 X120.075 Y109.875 F4800.000
G1 E3.00000 F2400.00000
G1 F1800
G1 X79.925 Y109.875 E4.54493
G1 X79.925 Y90.125 E5.30487
G1 X120.075 Y90.125 E6.84980
G1 X120.075 Y109.815 E7.60744
G1 X120.503 Y110.303 F4800.000
G1 F1800
G1 X79.497 Y110.303 E9.18534
G1 X79.497 Y89.697 E9.97826
G1 X120.503 Y89.697 E11.55617
G1 X120.503 Y110.243 E12.34678
G1 X120.931 Y110.732 F4800.000
G1 F1800
G1 X79.068 Y110.732 E13.95766
G1 X79.068 Y89.268 E14.78356
G1 X120.931 Y89.268 E16.39444
G1 X120.931 Y110.672 E17.21803
G1 X121.360 Y111.160 F4800.000
G1 F1800
G1 X78.640 Y111.160 E18.86189
G1 X78.640 Y88.840 E19.72076
G1 X121.360 Y88.840 E21.36463
G1 X121.360 Y111.100 E22.22119
G1 X120.965 Y111.096 F4800.000
G1 X119.839 Y90.490 F4800.000
G1 F1800
G1 X80.161 Y90.490 E23.76150
G1 X80.161 Y90.922 E23.77828
G1 X119.839 Y90.922 E25.31858
G1 X119.839 Y91.354 E25.33537
G1 X80.161 Y91.354 E26.87567
G1 X80.161 Y91.787 E26.89246
G1 X119.839 Y91.787 E28.43276
G1 X119.839 Y92.219 E28.44954
G1 X80.161 Y92.219 E29.98985
G1 X80.161 Y92.651 E30.00663
G1 X119.839 Y92.651 E31.54694
G1 X119.839 Y93.083 E31.56372
G1 X80.161 Y93.083 E33.10403
G1 X80.161 Y93.516 E33.12081
G1 X119.839 Y93.516 E34.66112
G1 X119.839 Y93.948 E34.67790
G1 X80.161 Y93.948 E36.21821
G1 X80.161 Y94.380 E36.23499
G1 X119.839 Y94.380 E37.77530
G1 X119.839 Y94.813 E37.79208
G1 X80.161 Y94.813 E39.33238
G1 X80.161 Y95.245 E39.34917
G1 X119.839 Y95.245 E40.88947
G1 X119.839 Y95.677 E40.90626
G1 X80.161 Y95.677 E42.44656
G1 X80.161 Y96.109 E42.46334
G1 X119.839 Y96.109 E44.00365
G1 X119.839 Y96.542 E44.02043
G1 X80.161 Y96.542 E45.56074
G1 X80.161 Y96.974 E45.57752
G1 X119.839 Y96.974 E47.11783
G1 X119.839 Y97.406 E47.13461
G1 X80.161 Y97.406 E48.67492
G1 X80.161 Y97.839 E48.69170
G1 X119.839 Y97.839 E50.23201
G1 X119.839 Y98.271 E50.24879
G1 X80.161 Y98.271 E51.78910
G1 X80.161 Y98.703 E51.80588
G1 X119.839 Y98.703 E53.34619
G1 X119.839 Y99.135 E53.36297
G1 X80.161 Y99.135 E54.90327
G1 X80.161 Y99.568 E54.92006
G1 X119.839 Y99.568 E56.46036
G1 X119.839 Y100.000 E56.47714
G1 X80.161 Y100.000 E58.01745
G1 X80.161 Y100.432 E58.03423
G1 X119.839 Y100.432 E59.57454
G1 X119.839 Y100.865 E59.59132
G1 X80.161 Y100.865 E61.13163
G1 X80.161 Y101.297 E61.14841
G1 X119.839 Y101.297 E62.68872
G1 X119.839 Y101.729 E62.70550
G1 X80.161 Y101.729 E64.24581
G1 X80.161 Y102.161 E64.26259
G1 X119.839 Y102.161 E65.80290
G1 X119.839 Y102.594 E65.81968
G1 X80.161 Y102.594 E67.35999
G1 X80.161 Y103.026 E67.37677
G1 X119.839 Y103.026 E68.91707
G1 X119.839 Y103.458 E68.93386
G1 X80.161 Y103.458 E70.47416
G1 X80.161 Y103.891 E70.49094
G1 X119.839 Y103.891 E72.03125
G1 X119.839 Y104.323 E72.04803
G1 X80.161 Y104.323 E73.58834
G1 X80.161 Y104.755 E73.60512
G1 X119.839 Y104.755 E75.14543
G1 X119.839 Y105.187 E75.16221
G1 X80.161 Y105.187 E76.70252
G1 X80.161 Y105.620 E76.71930
G1 X119.839 Y105.620 E78.25961
G1 X119.839 Y106.052 E78.27639
G1 X80.161 Y106.052 E79.81670
G1 X80.161 Y106.484 E79.83348
G1 X119.839 Y106.484 E81.37379
G1 X119.839 Y106.917 E81.39057
G1 X80.161 Y106.917 E82.93087
G1 X80.161 Y107.349 E82.94766
G1 X119.839 Y107.349 E84.48796
G1 X119.839 Y107.781 E84.50474
G1 X80.161 Y107.781 E86.04505
G1 X80.161 Y108.213 E86.06183
G1 X119.839 Y108.213 E87.60214
G1 X119.839 Y108.646 E87.61892
G1 X80.161 Y108.646 E89.15923
G1 X80.161 Y109.078 E89.17601
G1 X119.839 Y109.078 E90.71632
G1 X119.839 Y109.510 E90.73310
G1 X80.161 Y109.510 E92.27341
M104 S205 ; set temperature
M140 S50 ; wait for bed temperature to be reached
G1 Z0.440 F4800.000
G1 E89.27341 F2400.00000
G92 E0
G1 X119.651 Y109.451 F4800.000
G1 E3.00000 F2400.00000
G1 F1800
G1 X80.349 Y109.451 E4.84796
G1 X80.349 Y90.549 E5.73671
G1 X119.651 Y90.549 E7.58468
G1 X119.651 Y109.391 E8.47061
G1 X120.279 Y110.079 F4800.000
G1 F1800
G1 X79.721 Y110.079 E10.37766
G1 X79.721 Y89.921 E11.32549
G1 X120.279 Y89.921 E13.23255
G1 X120.279 Y110.019 E14.17756
G1 X120.907 Y110.707 F4800.000
G1 F1800
G1 X79.093 Y110.707 E16.14370
G1 X79.093 Y89.293 E17.15062
G1 X120.907 Y89.293 E19.11676
G1 X120.907 Y110.647 E20.12087
G1 X121.400 Y111.200 F4800.000
G1 F900
G1 X78.600 Y111.200 E21.26457
G1 X78.600 Y88.800 E21.86315
G1 X121.400 Y88.800 E23.00686
G1 X121.400 Y111.140 E23.60383
G1 X121.005 Y111.136 F4800.000
G1 X119.117 Y109.105 F4800.000
G1 F1200
G1 X119.117 Y90.895 E24.47222
G1 X118.479 Y90.895 E24.50260
G1 X118.479 Y109.105 E25.37099
G1 X117.842 Y109.105 E25.40137
G1 X117.842 Y90.895 E26.26976
G1 X117.205 Y90.895 E26.30015
G1 X117.205 Y109.105 E27.16853
G1 X116.568 Y109.105 E27.19892
G1 X116.568 Y90.895 E28.06730
G1 X115.931 Y90.895 E28.09769
G1 X115.931 Y109.105 E28.96607
G1 X115.293 Y109.105 E28.99646
G1 X115.293 Y90.895 E29.86484
G1 X114.656 Y90.895 E29.89523
G1 X114.656 Y109.105 E30.76361
G1 X114.019 Y109.105 E30.79400
G1 X114.019 Y90.895 E31.66238
G1 X113.382 Y90.895 E31.69277
G1 X113.382 Y109.105 E32.56116
G1 X112.744 Y109.105 E32.59154
G1 X112.744 Y90.895 E33.45993
G1 X112.107 Y90.895 E33.49031
G1 X112.107 Y109.105 E34.35870
G1 X111.470 Y109.105 E34.38908
G1 X111.470 Y90.895 E35.25747
G1 X110.833 Y90.895 E35.28786
G1 X110.833 Y109.105 E36.15624
G1 X110.196 Y109.105 E36.18663
G1 X110.196 Y90.895 E37.05501
G1 X109.558 Y90.895 E37.08540
G1 X109.558 Y109.105 E37.95378
G1 X108.921 Y109.105 E37.98417
G1 X108.921 Y90.895 E38.85255
G1 X108.284 Y90.895 E38.88294
G1 X108.284 Y109.105 E39.75132
G1 X107.647 Y109.105 E39.78171
G1 X107.647 Y90.895 E40.65009
G1 X107.009 Y90.895 E40.68048
G1 X107.009 Y109.105 E41.54887
G1 X106.372 Y109.105 E41.57925
G1 X106.372 Y90.895 E42.44764
G1 X105.735 Y90.895 E42.47802
G1 X105.735 Y109.105 E43.34641
G1 X105.098 Y109.105 E43.37679
G1 X105.098 Y90.895 E44.24518
G1 X104.461 Y90.895 E44.27557
G1 X104.461 Y109.105 E45.14395
G1 X103.823 Y109.105 E45.17434
G1 X103.823 Y90.895 E46.04272
G1 X103.186 Y90.895 E46.07311
G1 X103.186 Y109.105 E46.94149
G1 X102.549 Y109.105 E46.97188
G1 X102.549 Y90.895 E47.84026
G1 X101.912 Y90.895 E47.87065
G1 X101.912 Y109.105 E48.73903
G1 X101.274 Y109.105 E48.76942
G1 X101.274 Y90.895 E49.63780
G1 X100.637 Y90.895 E49.66819
G1 X100.637 Y109.105 E50.53658
G1 X100.000 Y109.105 E50.56696
G1 X100.000 Y90.895 E51.43535
G1 X99.363 Y90.895 E51.46573
G1 X99.363 Y109.105 E52.33412
G1 X98.726 Y109.105 E52.36450
G1 X98.726 Y90.895 E53.23289
G1 X98.088 Y90.895 E53.26328
G1 X98.088 Y109.105 E54.13166
G1 X97.451 Y109.105 E54.16205
G1 X97.451 Y90.895 E55.03043
G1 X96.814 Y90.895 E55.06082
G1 X96.814 Y109.105 E55.92920
G1 X96.177 Y109.105 E55.95959
G1 X96.177 Y90.895 E56.82797
G1 X95.539 Y90.895 E56.85836
G1 X95.539 Y109.105 E57.72674
G1 X94.902 Y109.105 E57.75713
G1 X94.902 Y90.895 E58.62552
G1 X94.265 Y90.895 E58.65590
G1 X94.265 Y109.105 E59.52429
G1 X93.628 Y109.105 E59.55467
G1 X93.628 Y90.895 E60.42306
G1 X92.991 Y90.895 E60.45344
G1 X92.991 Y109.105 E61.32183
G1 X92.353 Y109.105 E61.35221
G1 X92.353 Y90.895 E62.22060
G1 X91.716 Y90.895 E62.25099
G1 X91.716 Y109.105 E63.11937
G1 X91.079 Y109.105 E63.14976
G1 X91.079 Y90.895 E64.01814
G1 X90.442 Y90.895 E64.04853
G1 X90.442 Y109.105 E64.91691
G1 X89.804 Y109.105 E64.94730
G1 X89.804 Y90.895 E65.81568
G1 X89.167 Y90.895 E65.84607
G1 X89.167 Y109.105 E66.71445
G1 X88.530 Y109.105 E66.74484
G1 X88.530 Y90.895 E67.61323
G1 X87.893 Y90.895 E67.64361
G1 X87.893 Y109.105 E68.51200
G1 X87.256 Y109.105 E68.54238
G1 X87.256 Y90.895 E69.41077
G1 X86.618 Y90.895 E69.44115
G1 X86.618 Y109.105 E70.30954
G1 X85.981 Y109.105 E70.33993
G1 X85.981 Y90.895 E71.20831
G1 X85.344 Y90.895 E71.23870
G1 X85.344 Y109.105 E72.10708
G1 X84.707 Y109.105 E72.13747
G1 X84.707 Y90.895 E73.00585
G1 X84.069 Y90.895 E73.03624
G1 X84.069 Y109.105 E73.90462
G1 X83.432 Y109.105 E73.93501
G1 X83.432 Y90.895 E74.80339
G1 X82.795 Y90.895 E74.83378
G1 X82.795 Y109.105 E75.70216
G1 X82.158 Y109.105 E75.73255
G1 X82.158 Y90.895 E76.60094
G1 X81.521 Y90.895 E76.63132
G1 X81.521 Y109.105 E77.49971
G1 X80.883 Y109.105 E77.53009
G1 X80.883 Y90.895 E78.39848
G1 Z0.640 F4800.000
G1 E75.39848 F2400.00000
G92 E0
G1 X119.651 Y109.451 F4800.000
G1 E3.00000 F2400.00000
G1 F1800
G1 X80.349 Y109.451 E4.84796
G1 X80.349 Y90.549 E5.73671
G1 X119.651 Y90.549 E7.58468
G1 X119.651 Y109.391 E8.47061
G1 X120.279 Y110.079 F4800.000
G1 F1800
G1 X79.721 Y110.079 E10.37766
G1 X79.721 Y89.921 E11.32549
G1 X120.279 Y89.921 E13.23255
G1 X120.279 Y110.019 E14.17756
G1 X120.907 Y110.707 F4800.000
G1 F1800
G1 X79.093 Y110.707 E16.14370
G1 X79.093 Y89.293 E17.15062
G1 X120.907 Y89.293 E19.11676
G1 X120.907 Y110.647 E20.12087
G1 X121.400 Y111.200 F4800.000
G1 F900
G1 X78.600 Y111.200 E21.26457
G1 X78.600 Y88.800 E21.86315
G1 X121.400 Y88.800 E23.00686
G1 X121.400 Y111.140 E23.60383
G1 X121.005 Y111.136 F4800.000
G1 X119.305 Y91.083 F4800.000
G1 F1200
G1 X80.695 Y91.083 E25.44410
G1 X80.695 Y91.720 E25.47446
G1 X119.305 Y91.720 E27.31473
G1 X119.305 Y92.357 E27.34508
G1 X80.695 Y92.357 E29.18535
G1 X80.695 Y92.994 E29.21571
G1 X119.305 Y92.994 E31.05598
G1 X119.305 Y93.631 E31.08633
G1 X80.695 Y93.631 E32.92660
G1 X80.695 Y94.268 E32.95696
G1 X119.305 Y94.268 E34.79722
G1 X119.305 Y94.905 E34.82758
G1 X80.695 Y94.905 E36.66785
G1 X80.695 Y95.542 E36.69821
G1 X119.305 Y95.542 E38.53847
G1 X119.305 Y96.179 E38.56883
G1 X80.695 Y96.179 E40.40910
G1 X80.695 Y96.816 E40.43946
G1 X119.305 Y96.816 E42.27972
G1 X119.305 Y97.452 E42.31008
G1 X80.695 Y97.452 E44.15035
G1 X80.695 Y98.089 E44.18070
G1 X119.305 Y98.089 E46.02097
G1 X119.305 Y98.726 E46.05133
G1 X80.695 Y98.726 E47.89160
G1 X80.695 Y99.363 E47.92195
G1 X119.305 Y99.363 E49.76222
G1 X119.305 Y100.000 E49.79258
G1 X80.695 Y100.000 E51.63285
G1 X80.695 Y100.637 E51.66320
G1 X119.305 Y100.637 E53.50347
G1 X119.305 Y101.274 E53.53383
G1 X80.695 Y101.274 E55.37410
G1 X80.695 Y101.911 E55.40445
G1 X119.305 Y101.911 E57.24472
G1 X119.305 Y102.548 E57.27508
G1 X80.695 Y102.548 E59.11535
G1 X80.695 Y103.185 E59.14570
G1 X119.305 Y103.185 E60.98597
G1 X119.305 Y103.821 E61.01633
G1 X80.695 Y103.821 E62.85660
G1 X80.695 Y104.458 E62.88695
G1 X119.305 Y104.458 E64.72722
G1 X119.305 Y105.095 E64.75758
G1 X80.695 Y105.095 E66.59785
G1 X80.695 Y105.732 E66.62820
G1 X119.305 Y105.732 E68.46847
G1 X119.305 Y106.369 E68.49883
G1 X80.695 Y106.369 E70.33909
G1 X80.695 Y107.006 E70.36945
G1 X119.305 Y107.006 E72.20972
G1 X119.305 Y107.643 E72.24008
G1 X80.695 Y107.643 E74.08034
G1 X80.695 Y108.280 E74.11070
G1 X119.305 Y108.280 E75.95097
G1 X119.305 Y108.917 E75.98133
G1 X80.695 Y108.917 E77.82159
M106 S193.8
G1 Z0.840 F4800.000
G1 E74.82159 F2400.00000
G92 E0
G1 X119.651 Y109.451 F4800.000
G1 E3.00000 F2400.00000
G1 F1800
G1 X80.349 Y109.451 E4.84796
G1 X80.349 Y90.549 E5.73671
G1 X119.651 Y90.549 E7.58468
G1 X119.651 Y109.391 E8.47061
G1 X120.279 Y110.079 F4800.000
G1 F1800
G1 X79.721 Y110.079 E10.37766
G1 X79.721 Y89.921 E11.32549
G1 X120.279 Y89.921 E13.23255
G1 X120.279 Y110.019 E14.17756
G1 X120.907 Y110.707 F4800.000
G1 F1800
G1 X79.093 Y110.707 E16.14370
G1 X79.093 Y89.293 E17.15062
G1 X120.907 Y89.293 E19.11676
G1 X120.907 Y110.647 E20.12087
G1 X121.400 Y111.200 F4800.000
G1 F900
G1 X78.600 Y111.200 E21.26457
G1 X78.600 Y88.800 E21.86315
G1 X121.400 Y88.800 E23.00686
G1 X121.400 Y111.140 E23.60383
G1 X121.005 Y111.136 F4800.000
G1 X80.883 Y107.258 F4800.000
G1 F2400
G1 X81.350 Y107.258 E23.62578
G1 X81.733 Y107.641 E23.65124
G1 X84.492 Y107.641 E23.78096
G1 X84.875 Y107.258 E23.80641
G1 X87.633 Y107.258 E23.93613
G1 X88.016 Y107.641 E23.96159
G1 X90.775 Y107.641 E24.09131
G1 X91.158 Y107.258 E24.11677
G1 X93.917 Y107.258 E24.24648
G1 X94.299 Y107.641 E24.27194
G1 X97.058 Y107.641 E24.40166
G1 X97.441 Y107.258 E24.42712
G1 X100.200 Y107.258 E24.55683
G1 X100.583 Y107.641 E24.58229
G1 X103.341 Y107.641 E24.71201
G1 X103.724 Y107.258 E24.73747
G1 X106.483 Y107.258 E24.86719
G1 X106.866 Y107.641 E24.89264
G1 X109.624 Y107.641 E25.02236
G1 X110.007 Y107.258 E25.04782
G1 X112.766 Y107.258 E25.17754
G1 X113.149 Y107.641 E25.20300
G1 X115.908 Y107.641 E25.33271
G1 X116.291 Y107.258 E25.35817
G1 X119.049 Y107.258 E25.48789
G1 X119.117 Y107.325 E25.49237
G1 X119.117 Y104.432 E25.62841
G1 X119.049 Y104.499 E25.63289
G1 X116.291 Y104.499 E25.76261
G1 X115.908 Y104.117 E25.78807
G1 X113.149 Y104.117 E25.91778
G1 X112.766 Y104.499 E25.94324
G1 X110.007 Y104.499 E26.07296
G1 X109.624 Y104.117 E26.09842
G1 X106.866 Y104.117 E26.22813
G1 X106.483 Y104.499 E26.25359
G1 X103.724 Y104.499 E26.38331
G1 X103.341 Y104.117 E26.40877
G1 X100.583 Y104.117 E26.53849
G1 X100.200 Y104.499 E26.56394
G1 X97.441 Y104.499 E26.69366
G1 X97.058 Y104.117 E26.71912
G1 X94.299 Y104.117 E26.84884
G1 X93.917 Y104.499 E26.87430
G1 X91.158 Y104.499 E27.00401
G1 X90.775 Y104.117 E27.02947
G1 X88.016 Y104.117 E27.15919
G1 X87.633 Y104.499 E27.18465
G1 X84.875 Y104.499 E27.31436
G1 X84.492 Y104.117 E27.33982
G1 X81.733 Y104.117 E27.46954
G1 X81.350 Y104.499 E27.49500
G1 X80.883 Y104.499 E27.51695
G1 X80.883 Y100.975 E27.68267
G1 X81.350 Y100.975 E27.70462
G1 X81.733 Y101.358 E27.73007
G1 X84.492 Y101.358 E27.85979
G1 X84.875 Y100.975 E27.88525
G1 X87.633 Y100.975 E28.01497
G1 X88.016 Y101.358 E28.04043
G1 X90.775 Y101.358 E28.17014
G1 X91.158 Y100.975 E28.19560
G1 X93.917 Y100.975 E28.32532
G1 X94.299 Y101.358 E28.35078
G1 X97.058 Y101.358 E28.48049
