; generated by Slic3r 1.2.9 on 2016-03-15 at 19:27:06

; external perimeters extrusion width = 0.40mm
; perimeters extrusion width = 0.68mm
; infill extrusion width = 1.28mm
; solid infill extrusion width = 0.68mm
; top infill extrusion width = 0.68mm

M107
M190 S55 ; set bed temperature
M104 S210 ; set temperature
G28 ; home all axes
G1 Z5 F5000 ; lift nozzle

M109 S210 ; wait for temperature to be reached
G21 ; set units to millimeters
G90 ; use absolute coordinates
M82 ; use absolute distances for extrusion
G92 E0
G1 Z0.120 F4800.000
G1 E-3.00000 F2400.00000
G92 E0
G1 X73.484 Y73.484 F4800.000
G1 E3.00000 F2400.00000
G1 F1800
G1 X74.884 Y72.154 E3.01858
G1 X76.171 Y71.045 E3.03492
G1 X77.669 Y69.874 E3.05321
G1 X78.464 Y69.301 E3.06264
G1 X79.275 Y68.748 E3.07208
G1 X80.712 Y67.841 E3.08843
G1 X82.367 Y66.904 E3.10673
G1 X83.887 Y66.138 E3.12310
G1 X84.778 Y65.729 E3.13253
G1 X85.680 Y65.342 E3.14198
G1 X86.591 Y64.980 E3.15140
G1 X87.511 Y64.641 E3.16083
G1 X89.317 Y64.054 E3.17910
G1 X90.960 Y63.606 E3.19549
G1 X92.812 Y63.196 E3.21373
G1 X94.491 Y62.907 E3.23013
G1 X95.461 Y62.776 E3.23954
G1 X96.440 Y62.670 E3.24901
G1 X98.333 Y62.537 E3.26727
G1 X100.058 Y62.500 E3.28386
G1 F1800
G1 X101.667 Y62.537 E3.29934
G1 X103.299 Y62.646 E3.31508
G1 X104.927 Y62.825 E3.33084
G1 X106.544 Y63.076 E3.34658
G1 X108.149 Y63.396 E3.36232
G1 X109.673 Y63.769 E3.37741
G1 X111.244 Y64.226 E3.39316
G1 X112.793 Y64.750 E3.40889
G1 X114.320 Y65.342 E3.42464
G1 X115.819 Y66.000 E3.44039
G1 X117.286 Y66.722 E3.45612
G1 X118.721 Y67.508 E3.47186
G1 X120.121 Y68.356 E3.48760
G1 X121.482 Y69.263 E3.50334
G1 X122.596 Y70.073 E3.51659
G1 X123.877 Y71.085 E3.53230
G1 X125.069 Y72.112 E3.54743
G1 X126.261 Y73.231 E3.56316
G1 X127.403 Y74.401 E3.57889
G1 X128.495 Y75.622 E3.59464
G1 X129.530 Y76.887 E3.61037
G1 X130.510 Y78.197 E3.62610
G1 X131.432 Y79.549 E3.64185
G1 X132.293 Y80.937 E3.65756
G1 X133.096 Y82.367 E3.67334
G1 X133.832 Y83.825 E3.68905
G1 X134.403 Y85.079 E3.70231
G1 X135.020 Y86.591 E3.71801
G1 X135.552 Y88.071 E3.73315
G1 X136.038 Y89.631 E3.74887
G1 X136.456 Y91.215 E3.76462
G1 X136.804 Y92.812 E3.78035
G1 X137.083 Y94.423 E3.79607
G1 X137.262 Y95.787 E3.80931
G1 X137.411 Y97.418 E3.82506
G1 X137.488 Y99.051 E3.84080
G1 X137.493 Y100.687 E3.85653
G1 X137.428 Y102.321 E3.87226
G1 X137.291 Y103.952 E3.88801
G1 X137.083 Y105.577 E3.90377
G1 X136.804 Y107.188 E3.91950
G1 X136.456 Y108.785 E3.93522
G1 X136.038 Y110.369 E3.95098
G1 X135.552 Y111.929 E3.96669
G1 X134.997 Y113.470 E3.98245
G1 X134.377 Y114.982 E3.99818
G1 X133.718 Y116.411 E4.01331
G1 X132.971 Y117.864 E4.02903
G1 X132.159 Y119.288 E4.04480
G1 X131.303 Y120.647 E4.06025
G1 X130.510 Y121.803 E4.07374
G1 X129.530 Y123.113 E4.08948
G1 X128.494 Y124.378 E4.10520
G1 X127.403 Y125.599 E4.12095
G1 X126.261 Y126.769 E4.13668
G1 X125.069 Y127.888 E4.15241
G1 X123.829 Y128.955 E4.16815
G1 X122.541 Y129.969 E4.18392
G1 X121.267 Y130.886 E4.19902
G1 X119.900 Y131.784 E4.21476
G1 X118.721 Y132.492 E4.22798
G1 X117.286 Y133.278 E4.24372
G1 X115.819 Y134.000 E4.25945
G1 X114.320 Y134.658 E4.27520
G1 X112.856 Y135.227 E4.29031
G1 X111.307 Y135.754 E4.30605
G1 X109.738 Y136.213 E4.32177
G1 X108.149 Y136.604 E4.33752
G1 X106.544 Y136.924 E4.35326
G1 X105.186 Y137.139 E4.36649
G1 X103.560 Y137.330 E4.38224
G1 X101.928 Y137.450 E4.39798
G1 X100.293 Y137.499 E4.41372
G1 X98.724 Y137.478 E4.42881
G1 X97.090 Y137.387 E4.44455
G1 X95.462 Y137.224 E4.46030
G1 X93.845 Y136.991 E4.47601
G1 X92.236 Y136.687 E4.49177
G1 X90.641 Y136.313 E4.50753
G1 X89.066 Y135.870 E4.52326
G1 X87.511 Y135.359 E4.53901
G1 X85.983 Y134.782 E4.55472
G1 X84.477 Y134.136 E4.57049
G1 X83.006 Y133.428 E4.58619
G1 X81.563 Y132.654 E4.60194
G1 X80.377 Y131.956 E4.61518
G1 X79.004 Y131.071 E4.63090
G1 X77.669 Y130.126 E4.64663
G1 X76.428 Y129.164 E4.66174
G1 X75.176 Y128.107 E4.67750
G1 X73.976 Y126.999 E4.69321
G1 X72.819 Y125.835 E4.70900
G1 X71.720 Y124.627 E4.72471
G1 X70.835 Y123.572 E4.73795
G1 X69.836 Y122.280 E4.75367
G1 X68.894 Y120.943 E4.76940
G1 X68.008 Y119.564 E4.78517
G1 X67.186 Y118.151 E4.80089
G1 X66.426 Y116.703 E4.81663
G1 X65.729 Y115.222 E4.83238
G1 X65.098 Y113.714 E4.84810
G1 X64.532 Y112.176 E4.86386
G1 X64.036 Y110.620 E4.87958
G1 X63.623 Y109.105 E4.89468
G1 X63.313 Y107.764 E4.90792
G1 X63.009 Y106.155 E4.92368
G1 X62.776 Y104.538 E4.93939
G1 X62.613 Y102.910 E4.95514
G1 X62.522 Y101.276 E4.97087
G1 X62.501 Y99.707 E4.98597
G1 X62.550 Y98.072 E5.00171
G1 X62.670 Y96.440 E5.01745
G1 X62.857 Y94.840 E5.03294
G1 X63.076 Y93.456 E5.04643
G1 X63.396 Y91.851 E5.06217
G1 X63.787 Y90.262 E5.07791
G1 X64.246 Y88.693 E5.09364
G1 X64.773 Y87.144 E5.10938
G1 X65.368 Y85.618 E5.12514
G1 X66.027 Y84.124 E5.14084
G1 X66.722 Y82.714 E5.15597
G1 X67.508 Y81.279 E5.17171
G1 X68.356 Y79.879 E5.18745
G1 X69.263 Y78.518 E5.20318
G1 X70.231 Y77.196 E5.21895
G1 X71.252 Y75.921 E5.23466
G1 X72.330 Y74.690 E5.25040
G1 X73.441 Y73.526 E5.26588
G1 X73.635 Y73.635 F4800.000
G1 F1800
G1 X75.028 Y72.312 E5.28436
G1 X76.307 Y71.211 E5.30060
G1 X77.797 Y70.046 E5.31880
G1 X78.588 Y69.476 E5.32817
G1 X79.394 Y68.926 E5.33755
G1 X80.822 Y68.025 E5.35380
G1 X82.469 Y67.093 E5.37200
G1 X83.979 Y66.332 E5.38827
G1 X84.864 Y65.925 E5.39765
G1 X85.761 Y65.540 E5.40704
G1 X86.667 Y65.180 E5.41641
G1 X87.582 Y64.843 E5.42579
G1 X89.379 Y64.259 E5.44397
G1 X91.011 Y63.814 E5.46025
G1 X92.854 Y63.406 E5.47840
G1 X94.522 Y63.119 E5.49468
G1 X95.487 Y62.989 E5.50405
G1 X96.459 Y62.883 E5.51346
G1 X98.344 Y62.751 E5.53163
G1 X100.057 Y62.715 E5.54812
G1 F1800
G1 X101.656 Y62.751 E5.56351
G1 X103.280 Y62.859 E5.57916
G1 X104.898 Y63.038 E5.59482
G1 X106.506 Y63.287 E5.61048
G1 X108.102 Y63.605 E5.62613
G1 X109.682 Y63.994 E5.64178
G1 X111.242 Y64.450 E5.65742
G1 X112.721 Y64.952 E5.67244
G1 X114.238 Y65.540 E5.68810
G1 X115.729 Y66.195 E5.70376
G1 X117.188 Y66.913 E5.71941
G1 X118.615 Y67.694 E5.73505
G1 X120.007 Y68.537 E5.75071
G1 X121.360 Y69.439 E5.76635
G1 X122.466 Y70.243 E5.77951
G1 X123.740 Y71.250 E5.79513
G1 X124.927 Y72.272 E5.81019
G1 X126.112 Y73.385 E5.82583
G1 X127.247 Y74.548 E5.84147
G1 X128.332 Y75.762 E5.85713
G1 X129.362 Y77.020 E5.87277
G1 X130.336 Y78.322 E5.88842
G1 X131.253 Y79.666 E5.90407
G1 X132.109 Y81.047 E5.91970
G1 X132.907 Y82.469 E5.93538
G1 X133.639 Y83.918 E5.95100
G1 X134.206 Y85.163 E5.96417
G1 X134.820 Y86.667 E5.97978
G1 X135.349 Y88.140 E5.99485
G1 X135.832 Y89.691 E6.01048
G1 X136.248 Y91.266 E6.02614
G1 X136.594 Y92.854 E6.04178
G1 X136.871 Y94.455 E6.05741
G1 X137.049 Y95.811 E6.07056
G1 X137.197 Y97.432 E6.08622
G1 X137.273 Y99.056 E6.10187
G1 X137.279 Y100.682 E6.11751
G1 X137.214 Y102.307 E6.13315
G1 X137.078 Y103.929 E6.14881
G1 X136.871 Y105.545 E6.16448
G1 X136.594 Y107.146 E6.18012
G1 X136.248 Y108.734 E6.19575
G1 X135.832 Y110.309 E6.21142
G1 X135.349 Y111.860 E6.22705
G1 X134.797 Y113.392 E6.24271
G1 X134.181 Y114.896 E6.25835
G1 X133.525 Y116.318 E6.27341
G1 X132.783 Y117.762 E6.28904
G1 X131.975 Y119.178 E6.30472
G1 X131.124 Y120.530 E6.32009
G1 X130.336 Y121.678 E6.33348
G1 X129.361 Y122.980 E6.34913
G1 X128.332 Y124.238 E6.36476
G1 X127.247 Y125.452 E6.38042
G1 X126.112 Y126.615 E6.39606
G1 X124.927 Y127.728 E6.41170
G1 X123.694 Y128.789 E6.42735
G1 X122.413 Y129.797 E6.44303
G1 X121.145 Y130.710 E6.45806
G1 X119.785 Y131.603 E6.47370
G1 X118.615 Y132.306 E6.48684
G1 X117.188 Y133.087 E6.50249
G1 X115.729 Y133.805 E6.51813
G1 X114.239 Y134.459 E6.53379
G1 X112.782 Y135.026 E6.54883
G1 X111.242 Y135.550 E6.56448
G1 X109.682 Y136.006 E6.58011
G1 X108.102 Y136.395 E6.59576
G1 X106.506 Y136.713 E6.61142
G1 X105.158 Y136.927 E6.62455
G1 X103.540 Y137.117 E6.64022
G1 X101.918 Y137.236 E6.65587
G1 X100.292 Y137.284 E6.67151
G1 X98.730 Y137.264 E6.68654
G1 X97.106 Y137.173 E6.70219
G1 X95.487 Y137.011 E6.71785
G1 X93.880 Y136.780 E6.73347
G1 X92.279 Y136.477 E6.74913
G1 X90.694 Y136.105 E6.76480
G1 X89.128 Y135.665 E6.78045
G1 X87.582 Y135.157 E6.79611
G1 X86.063 Y134.583 E6.81173
G1 X84.565 Y133.941 E6.82740
G1 X83.102 Y133.236 E6.84302
G1 X81.668 Y132.467 E6.85868
G1 X80.490 Y131.774 E6.87182
G1 X79.125 Y130.894 E6.88745
G1 X77.797 Y129.954 E6.90310
G1 X76.562 Y128.997 E6.91813
G1 X75.318 Y127.946 E6.93380
G1 X74.124 Y126.845 E6.94943
G1 X72.974 Y125.687 E6.96512
G1 X71.881 Y124.486 E6.98074
G1 X71.003 Y123.438 E6.99390
G1 X70.009 Y122.153 E7.00952
G1 X69.072 Y120.824 E7.02517
G1 X68.192 Y119.453 E7.04084
G1 X67.374 Y118.048 E7.05648
G1 X66.618 Y116.608 E7.07212
G1 X65.925 Y115.136 E7.08778
G1 X65.298 Y113.636 E7.10342
G1 X64.735 Y112.108 E7.11909
G1 X64.241 Y110.560 E7.13471
G1 X63.830 Y109.053 E7.14974
G1 X63.523 Y107.721 E7.16290
G1 X63.220 Y106.120 E7.17856
G1 X62.989 Y104.513 E7.19418
G1 X62.827 Y102.894 E7.20984
G1 X62.738 Y101.333 E7.22487
G1 X62.716 Y99.708 E7.24052
G1 X62.764 Y98.082 E7.25616
G1 X62.883 Y96.459 E7.27181
G1 X63.069 Y94.869 E7.28722
G1 X63.287 Y93.494 E7.30061
G1 X63.605 Y91.898 E7.31626
G1 X63.994 Y90.318 E7.33191
G1 X64.450 Y88.758 E7.34755
G1 X64.974 Y87.218 E7.36320
G1 X65.566 Y85.700 E7.37887
G1 X66.221 Y84.216 E7.39448
G1 X66.913 Y82.812 E7.40954
G1 X67.694 Y81.385 E7.42519
G1 X68.537 Y79.993 E7.44084
G1 X69.439 Y78.640 E7.45648
G1 X70.402 Y77.325 E7.47216
G1 X71.417 Y76.058 E7.48778
G1 X72.488 Y74.834 E7.50343
G1 X73.593 Y73.678 E7.51881
G1 X73.787 Y73.787 F4800.000
G1 F1800
G1 X75.172 Y72.471 E7.53719
G1 X76.442 Y71.377 E7.55332
G1 X77.926 Y70.218 E7.57143
G1 X78.712 Y69.651 E7.58075
G1 X79.513 Y69.104 E7.59008
G1 X80.931 Y68.209 E7.60622
G1 X82.570 Y67.282 E7.62433
G1 X84.070 Y66.526 E7.64049
G1 X84.950 Y66.121 E7.64981
G1 X85.843 Y65.739 E7.65915
G1 X86.742 Y65.381 E7.66847
G1 X87.652 Y65.046 E7.67780
G1 X89.440 Y64.465 E7.69588
G1 X91.062 Y64.022 E7.71205
G1 X92.896 Y63.616 E7.73012
G1 X94.553 Y63.331 E7.74629
G1 X95.512 Y63.201 E7.75561
G1 X96.479 Y63.096 E7.76496
G1 X98.354 Y62.965 E7.78304
G1 X100.056 Y62.929 E7.79942
G1 F1800
G1 X101.646 Y62.965 E7.81472
G1 X103.260 Y63.072 E7.83028
G1 X104.869 Y63.250 E7.84586
G1 X106.468 Y63.497 E7.86142
G1 X108.054 Y63.814 E7.87698
G1 X109.564 Y64.184 E7.89193
G1 X111.117 Y64.635 E7.90749
G1 X112.648 Y65.153 E7.92305
G1 X114.157 Y65.739 E7.93862
G1 X115.639 Y66.389 E7.95419
G1 X117.090 Y67.103 E7.96974
G1 X118.509 Y67.880 E7.98530
G1 X119.892 Y68.718 E8.00086
G1 X121.238 Y69.615 E8.01642
G1 X122.336 Y70.414 E8.02948
G1 X123.604 Y71.414 E8.04501
G1 X124.784 Y72.431 E8.06000
G1 X125.962 Y73.538 E8.07555
G1 X127.091 Y74.695 E8.09110
G1 X128.170 Y75.902 E8.10668
G1 X129.193 Y77.152 E8.12222
G1 X130.162 Y78.447 E8.13778
G1 X131.074 Y79.784 E8.15334
G1 X131.925 Y81.156 E8.16888
G1 X132.718 Y82.570 E8.18447
G1 X133.446 Y84.011 E8.20001
G1 X134.010 Y85.248 E8.21308
G1 X134.619 Y86.742 E8.22861
G1 X135.146 Y88.209 E8.24360
G1 X135.626 Y89.751 E8.25914
G1 X136.040 Y91.317 E8.27471
G1 X136.384 Y92.895 E8.29026
G1 X136.659 Y94.488 E8.30581
G1 X136.865 Y96.094 E8.32138
G1 X136.983 Y97.445 E8.33443
G1 X137.059 Y99.061 E8.34999
G1 X137.065 Y100.678 E8.36554
G1 X137.000 Y102.293 E8.38110
G1 X136.865 Y103.906 E8.39666
G1 X136.659 Y105.512 E8.41224
G1 X136.384 Y107.104 E8.42779
G1 X136.040 Y108.683 E8.44333
G1 X135.626 Y110.249 E8.45891
G1 X135.146 Y111.791 E8.47445
G1 X134.598 Y113.314 E8.49002
G1 X133.984 Y114.810 E8.50557
G1 X133.332 Y116.225 E8.52056
G1 X132.594 Y117.661 E8.53610
G1 X131.791 Y119.069 E8.55169
G1 X130.945 Y120.413 E8.56696
G1 X130.162 Y121.553 E8.58027
G1 X129.193 Y122.848 E8.59583
G1 X128.170 Y124.098 E8.61137
G1 X127.091 Y125.305 E8.62694
G1 X125.962 Y126.462 E8.64249
G1 X124.784 Y127.569 E8.65804
G1 X123.558 Y128.623 E8.67360
G1 X122.284 Y129.626 E8.68919
G1 X121.022 Y130.534 E8.70415
G1 X119.671 Y131.422 E8.71970
G1 X118.509 Y132.120 E8.73275
G1 X117.090 Y132.897 E8.74831
G1 X115.639 Y133.611 E8.76386
G1 X114.158 Y134.261 E8.77943
G1 X112.708 Y134.825 E8.79439
G1 X111.177 Y135.346 E8.80995
G1 X109.626 Y135.800 E8.82550
G1 X108.054 Y136.186 E8.84106
G1 X106.468 Y136.503 E8.85663
G1 X105.129 Y136.715 E8.86967
G1 X103.521 Y136.904 E8.88524
G1 X101.908 Y137.022 E8.90080
G1 X100.291 Y137.070 E8.91636
G1 X98.737 Y137.050 E8.93132
G1 X97.122 Y136.959 E8.94688
G1 X95.512 Y136.799 E8.96244
G1 X93.914 Y136.568 E8.97797
G1 X92.323 Y136.268 E8.99355
G1 X90.746 Y135.898 E9.00913
G1 X89.190 Y135.460 E9.02468
G1 X87.652 Y134.954 E9.04025
G1 X86.142 Y134.384 E9.05578
G1 X84.653 Y133.745 E9.07137
G1 X83.198 Y133.045 E9.08690
G1 X81.772 Y132.281 E9.10247
G1 X80.603 Y131.592 E9.11552
G1 X79.245 Y130.717 E9.13106
G1 X77.926 Y129.782 E9.14662
G1 X76.696 Y128.830 E9.16158
G1 X75.459 Y127.785 E9.17716
G1 X74.272 Y126.690 E9.19269
G1 X73.129 Y125.539 E9.20830
G1 X72.042 Y124.344 E9.22383
G1 X71.170 Y123.304 E9.23689
G1 X70.182 Y122.026 E9.25243
G1 X69.250 Y120.705 E9.26799
G1 X68.375 Y119.342 E9.28357
G1 X67.562 Y117.945 E9.29911
G1 X66.810 Y116.514 E9.31467
G1 X66.121 Y115.049 E9.33024
G1 X65.497 Y113.558 E9.34579
G1 X64.938 Y112.039 E9.36136
G1 X64.447 Y110.500 E9.37690
G1 X64.038 Y109.000 E9.39186
G1 X63.732 Y107.677 E9.40492
G1 X63.432 Y106.086 E9.42050
G1 X63.201 Y104.488 E9.43603
G1 X63.041 Y102.878 E9.45159
G1 X62.953 Y101.325 E9.46656
G1 X62.930 Y99.709 E9.48211
G1 X62.978 Y98.092 E9.49766
G1 X63.096 Y96.479 E9.51323
G1 X63.282 Y94.898 E9.52854
G1 X63.497 Y93.532 E9.54184
G1 X63.814 Y91.946 E9.55740
G1 X64.200 Y90.374 E9.57297
G1 X64.654 Y88.823 E9.58851
G1 X65.175 Y87.292 E9.60408
G1 X65.763 Y85.783 E9.61965
G1 X66.414 Y84.307 E9.63518
G1 X67.103 Y82.910 E9.65016
G1 X67.880 Y81.491 E9.66572
G1 X68.718 Y80.107 E9.68128
G1 X69.615 Y78.762 E9.69684
G1 X70.572 Y77.455 E9.71242
G1 X71.582 Y76.195 E9.72796
G1 X72.647 Y74.978 E9.74351
G1 X73.744 Y73.829 E9.75880
G1 X73.938 Y73.938 F4800.000
G1 F1800
G1 X75.316 Y72.630 E9.77708
G1 X76.578 Y71.542 E9.79310
G1 X78.054 Y70.389 E9.81112
G1 X78.835 Y69.826 E9.82039
G1 X79.632 Y69.282 E9.82966
G1 X81.041 Y68.393 E9.84569
G1 X82.672 Y67.471 E9.86372
G1 X84.161 Y66.720 E9.87977
G1 X85.037 Y66.317 E9.88903
G1 X85.924 Y65.937 E9.89832
G1 X86.818 Y65.581 E9.90758
G1 X87.723 Y65.248 E9.91685
G1 X89.502 Y64.670 E9.93485
G1 X91.113 Y64.230 E9.95091
G1 X92.937 Y63.826 E9.96889
G1 X94.583 Y63.543 E9.98496
G1 X95.537 Y63.414 E9.99421
G1 X96.498 Y63.310 E10.00352
G1 X98.364 Y63.179 E10.02151
G1 X100.055 Y63.143 E10.03778
G1 F1800
G1 X101.636 Y63.179 E10.05299
G1 X103.240 Y63.286 E10.06846
G1 X104.840 Y63.462 E10.08394
G1 X106.430 Y63.708 E10.09942
G1 X108.007 Y64.023 E10.11489
G1 X109.509 Y64.391 E10.12976
G1 X111.054 Y64.840 E10.14524
G1 X112.576 Y65.355 E10.16070
G1 X114.076 Y65.937 E10.17618
G1 X115.550 Y66.584 E10.19166
G1 X116.992 Y67.294 E10.20713
G1 X118.402 Y68.066 E10.22259
G1 X119.778 Y68.899 E10.23807
G1 X121.115 Y69.791 E10.25353
G1 X122.207 Y70.584 E10.26651
G1 X123.467 Y71.579 E10.28195
G1 X124.641 Y72.591 E10.29687
G1 X125.813 Y73.691 E10.31233
G1 X126.935 Y74.842 E10.32779
G1 X128.008 Y76.042 E10.34327
G1 X129.025 Y77.285 E10.35872
G1 X129.988 Y78.572 E10.37419
G1 X130.895 Y79.901 E10.38967
G1 X131.741 Y81.266 E10.40511
G1 X132.529 Y82.672 E10.42062
G1 X133.253 Y84.104 E10.43606
G1 X133.813 Y85.332 E10.44904
G1 X134.419 Y86.818 E10.46448
G1 X134.943 Y88.278 E10.47940
G1 X135.421 Y89.811 E10.49485
G1 X135.832 Y91.367 E10.51033
G1 X136.174 Y92.937 E10.52579
G1 X136.447 Y94.521 E10.54125
G1 X136.623 Y95.857 E10.55422
G1 X136.769 Y97.459 E10.56969
G1 X136.845 Y99.065 E10.58516
G1 X136.851 Y100.673 E10.60062
G1 X136.786 Y102.279 E10.61609
G1 X136.652 Y103.882 E10.63157
G1 X136.447 Y105.479 E10.64705
G1 X136.174 Y107.063 E10.66251
G1 X135.832 Y108.632 E10.67797
G1 X135.421 Y110.189 E10.69345
G1 X134.943 Y111.722 E10.70890
G1 X134.398 Y113.237 E10.72439
G1 X133.788 Y114.724 E10.73985
G1 X133.139 Y116.131 E10.75476
G1 X132.405 Y117.560 E10.77021
G1 X131.607 Y118.959 E10.78571
G1 X130.766 Y120.295 E10.80089
G1 X129.988 Y121.428 E10.81411
G1 X129.025 Y122.715 E10.82958
G1 X128.007 Y123.959 E10.84504
G1 X126.935 Y125.158 E10.86052
G1 X125.813 Y126.309 E10.87598
G1 X124.641 Y127.409 E10.89144
G1 X123.422 Y128.457 E10.90690
G1 X122.156 Y129.454 E10.92240
