; generated by Slic3r 1.2.9 on 2016-03-15 at 19:26:15

; external perimeters extrusion width = 0.40mm
; perimeters extrusion width = 0.68mm
; infill extrusion width = 1.28mm
; solid infill extrusion width = 0.68mm
; top infill extrusion width = 0.68mm

M107
M190 S55 ; set bed temperature
M104 S210 ; set temperature
G28 ; home all axes
G1 Z5 F5000 ; lift nozzle

M109 S210 ; wait for temperature to be reached
G21 ; set units to millimeters
G90 ; use absolute coordinates
M82 ; use absolute distances for extrusion
G92 E0
G1 Z0.120 F4800.000
G1 E-3.00000 F2400.00000
G92 E0
G1 X73.484 Y73.484 F4800.000
G1 E3.00000 F2400.00000
G1 F1800
G1 X74.859 Y72.176 E3.01826
G1 X76.349 Y70.899 E3.03714
G1 X77.485 Y70.012 E3.05100
G1 X79.085 Y68.875 E3.06988
G1 X80.742 Y67.824 E3.08876
G1 X82.338 Y66.920 E3.10640
G1 X84.093 Y66.042 E3.12528
G1 X85.891 Y65.256 E3.14416
G1 X87.729 Y64.565 E3.16305
G1 X89.600 Y63.972 E3.18193
G1 X90.992 Y63.598 E3.19579
G1 X92.909 Y63.177 E3.21468
G1 X94.845 Y62.857 E3.23355
G1 X96.668 Y62.649 E3.25120
G1 X98.626 Y62.526 E3.27008
G1 X100.119 Y62.501 E3.28445
G1 F1800
G1 X101.897 Y62.548 E3.30155
G1 X103.332 Y62.649 E3.31539
G1 X105.155 Y62.857 E3.33304
G1 X106.576 Y63.082 E3.34688
G1 X108.371 Y63.447 E3.36451
G1 X109.768 Y63.795 E3.37836
G1 X111.525 Y64.315 E3.39598
G1 X112.888 Y64.785 E3.40985
G1 X114.109 Y65.256 E3.42244
G1 X115.790 Y65.987 E3.44007
G1 X117.083 Y66.618 E3.45392
G1 X118.693 Y67.492 E3.47154
G1 X119.927 Y68.233 E3.48539
G1 X121.455 Y69.244 E3.50301
G1 X122.621 Y70.092 E3.51688
G1 X124.055 Y71.232 E3.53450
G1 X125.141 Y72.176 E3.54835
G1 X126.470 Y73.438 E3.56598
G1 X127.470 Y74.473 E3.57982
G1 X128.685 Y75.847 E3.59746
G1 X129.589 Y76.963 E3.61129
G1 X130.680 Y78.437 E3.62893
G1 X131.486 Y79.632 E3.64278
G1 X132.442 Y81.193 E3.66040
G1 X133.140 Y82.452 E3.67425
G1 X133.958 Y84.093 E3.69189
G1 X134.544 Y85.408 E3.70573
G1 X135.215 Y87.113 E3.72336
G1 X135.644 Y88.350 E3.73596
G1 X136.065 Y89.727 E3.74981
G1 X136.524 Y91.501 E3.76744
G1 X136.823 Y92.909 E3.78129
G1 X137.125 Y94.716 E3.79891
G1 X137.301 Y96.147 E3.81278
G1 X137.445 Y97.972 E3.83039
G1 X137.495 Y99.411 E3.84424
G1 X137.480 Y101.190 E3.86135
G1 X137.413 Y102.551 E3.87447
G1 X137.287 Y103.985 E3.88832
G1 X137.048 Y105.802 E3.90594
G1 X136.798 Y107.220 E3.91979
G1 X136.402 Y109.008 E3.93741
G1 X136.028 Y110.400 E3.95128
G1 X135.478 Y112.146 E3.96889
G1 X134.985 Y113.500 E3.98274
G1 X134.285 Y115.191 E4.00036
G1 X133.676 Y116.497 E4.01422
G1 X132.830 Y118.122 E4.03185
G1 X132.110 Y119.370 E4.04570
G1 X131.125 Y120.915 E4.06333
G1 X130.300 Y122.094 E4.07718
G1 X129.184 Y123.548 E4.09480
G1 X128.258 Y124.652 E4.10867
G1 X127.021 Y126.002 E4.12628
G1 X126.097 Y126.929 E4.13887
G1 X125.044 Y127.911 E4.15272
G1 X123.651 Y129.101 E4.17035
G1 X122.515 Y129.988 E4.18421
G1 X121.455 Y130.756 E4.19681
G1 X119.927 Y131.767 E4.21443
G1 X118.693 Y132.508 E4.22828
G1 X117.083 Y133.382 E4.24590
G1 X115.790 Y134.013 E4.25974
G1 X114.109 Y134.744 E4.27738
G1 X112.764 Y135.260 E4.29123
G1 X111.525 Y135.684 E4.30383
G1 X109.768 Y136.205 E4.32146
G1 X108.371 Y136.553 E4.33531
G1 X106.576 Y136.918 E4.35293
G1 X105.155 Y137.143 E4.36678
G1 X103.332 Y137.351 E4.38442
G1 X101.897 Y137.452 E4.39827
G1 X100.066 Y137.499 E4.41588
G1 X98.626 Y137.474 E4.42973
G1 X97.319 Y137.403 E4.44233
G1 X95.494 Y137.228 E4.45996
G1 X94.070 Y137.028 E4.47381
G1 X92.267 Y136.694 E4.49144
G1 X90.865 Y136.370 E4.50529
G1 X89.098 Y135.880 E4.52293
G1 X87.729 Y135.435 E4.53677
G1 X86.013 Y134.793 E4.55439
G1 X84.687 Y134.230 E4.56826
G1 X83.034 Y133.442 E4.58587
G1 X81.763 Y132.766 E4.59972
G1 X80.184 Y131.836 E4.61735
G1 X78.977 Y131.052 E4.63119
G1 X77.485 Y129.988 E4.64882
G1 X76.349 Y129.101 E4.66269
G1 X75.348 Y128.258 E4.67528
G1 X73.999 Y127.021 E4.69289
G1 X72.979 Y126.001 E4.70676
G1 X71.742 Y124.652 E4.72437
G1 X70.816 Y123.548 E4.73824
G1 X69.700 Y122.094 E4.75586
G1 X68.875 Y120.915 E4.76970
G1 X68.164 Y119.816 E4.78230
G1 X67.234 Y118.237 E4.79993
G1 X66.558 Y116.966 E4.81378
G1 X65.770 Y115.313 E4.83139
G1 X65.207 Y113.987 E4.84526
G1 X64.565 Y112.271 E4.86288
G1 X64.120 Y110.902 E4.87672
G1 X63.630 Y109.136 E4.89436
G1 X63.306 Y107.733 E4.90821
G1 X62.972 Y105.930 E4.92584
G1 X62.772 Y104.505 E4.93969
G1 X62.597 Y102.681 E4.95731
G1 X62.521 Y101.243 E4.97117
G1 X62.505 Y99.411 E4.98880
G1 X62.555 Y97.972 E5.00265
G1 X62.699 Y96.147 E5.02026
G1 X62.875 Y94.716 E5.03413
G1 X63.177 Y92.909 E5.05175
G1 X63.476 Y91.501 E5.06560
G1 X63.935 Y89.727 E5.08323
G1 X64.356 Y88.350 E5.09708
G1 X64.785 Y87.112 E5.10968
G1 X65.456 Y85.408 E5.12731
G1 X66.042 Y84.093 E5.14115
G1 X66.860 Y82.452 E5.15878
G1 X67.558 Y81.193 E5.17264
G1 X68.515 Y79.631 E5.19025
G1 X69.320 Y78.437 E5.20411
G1 X70.411 Y76.963 E5.22175
G1 X71.315 Y75.847 E5.23558
G1 X72.530 Y74.473 E5.25321
G1 X73.441 Y73.526 E5.26586
G1 X73.635 Y73.635 F4800.000
G1 F1800
G1 X75.004 Y72.334 E5.28402
G1 X76.486 Y71.064 E5.30280
G1 X77.612 Y70.184 E5.31655
G1 X79.203 Y69.054 E5.33532
G1 X80.850 Y68.008 E5.35409
G1 X82.440 Y67.109 E5.37167
G1 X84.185 Y66.235 E5.39044
G1 X85.973 Y65.454 E5.40921
G1 X87.801 Y64.767 E5.42799
G1 X89.661 Y64.177 E5.44676
G1 X91.042 Y63.807 E5.46052
G1 X92.948 Y63.388 E5.47930
G1 X94.873 Y63.069 E5.49806
G1 X96.688 Y62.862 E5.51564
G1 X98.636 Y62.740 E5.53441
G1 X100.117 Y62.715 E5.54867
G1 F1800
G1 X101.887 Y62.763 E5.56570
G1 X103.312 Y62.862 E5.57944
G1 X105.127 Y63.069 E5.59701
G1 X106.537 Y63.292 E5.61074
G1 X108.325 Y63.656 E5.62830
G1 X109.711 Y64.002 E5.64204
G1 X111.461 Y64.520 E5.65959
G1 X112.813 Y64.985 E5.67335
G1 X114.027 Y65.454 E5.68587
G1 X115.701 Y66.182 E5.70343
G1 X116.984 Y66.808 E5.71717
G1 X118.587 Y67.678 E5.73471
G1 X119.812 Y68.414 E5.74846
G1 X121.333 Y69.421 E5.76601
G1 X122.491 Y70.262 E5.77977
G1 X123.918 Y71.398 E5.79732
G1 X124.996 Y72.334 E5.81106
G1 X126.320 Y73.591 E5.82862
G1 X127.312 Y74.618 E5.84235
G1 X128.522 Y75.986 E5.85992
G1 X129.419 Y77.094 E5.87364
G1 X130.506 Y78.562 E5.89121
G1 X131.305 Y79.747 E5.90495
G1 X132.258 Y81.302 E5.92250
G1 X132.950 Y82.551 E5.93624
G1 X133.765 Y84.185 E5.95381
G1 X134.346 Y85.490 E5.96754
G1 X135.015 Y87.188 E5.98510
G1 X135.441 Y88.418 E5.99763
G1 X135.858 Y89.784 E6.01137
G1 X136.315 Y91.551 E6.02893
G1 X136.612 Y92.948 E6.04267
G1 X136.913 Y94.748 E6.06022
G1 X137.088 Y96.167 E6.07397
G1 X137.231 Y97.985 E6.09152
G1 X137.281 Y99.412 E6.10526
G1 X137.265 Y101.238 E6.12282
G1 X137.190 Y102.665 E6.13656
G1 X137.015 Y104.481 E6.15412
G1 X136.816 Y105.895 E6.16786
G1 X136.484 Y107.690 E6.18542
G1 X136.162 Y109.082 E6.19916
G1 X135.674 Y110.841 E6.21672
G1 X135.233 Y112.199 E6.23046
G1 X134.594 Y113.908 E6.24801
G1 X134.035 Y115.224 E6.26176
G1 X133.250 Y116.870 E6.27931
G1 X132.641 Y118.020 E6.29182
G1 X131.927 Y119.258 E6.30557
G1 X130.946 Y120.797 E6.32313
G1 X130.127 Y121.967 E6.33687
G1 X129.016 Y123.414 E6.35442
G1 X128.097 Y124.510 E6.36818
G1 X126.866 Y125.854 E6.38572
G1 X125.947 Y126.776 E6.39824
G1 X124.902 Y127.750 E6.41198
G1 X123.514 Y128.936 E6.42954
G1 X122.388 Y129.816 E6.44329
G1 X121.333 Y130.579 E6.45581
G1 X119.812 Y131.586 E6.47336
G1 X118.587 Y132.322 E6.48711
G1 X116.984 Y133.192 E6.50465
G1 X115.701 Y133.818 E6.51839
G1 X114.027 Y134.546 E6.53595
G1 X112.693 Y135.058 E6.54970
G1 X111.461 Y135.480 E6.56222
G1 X109.711 Y135.998 E6.57978
G1 X108.325 Y136.344 E6.59352
G1 X106.537 Y136.708 E6.61108
G1 X105.127 Y136.931 E6.62481
G1 X103.312 Y137.138 E6.64238
G1 X101.887 Y137.237 E6.65612
G1 X100.064 Y137.285 E6.67367
G1 X98.636 Y137.260 E6.68741
G1 X97.335 Y137.190 E6.69994
G1 X95.519 Y137.015 E6.71749
G1 X94.105 Y136.816 E6.73123
G1 X92.310 Y136.484 E6.74879
G1 X90.918 Y136.162 E6.76253
G1 X89.159 Y135.674 E6.78010
G1 X87.801 Y135.233 E6.79383
G1 X86.092 Y134.594 E6.81138
G1 X84.776 Y134.035 E6.82514
G1 X83.130 Y133.250 E6.84268
G1 X81.869 Y132.580 E6.85642
G1 X80.296 Y131.653 E6.87398
G1 X79.098 Y130.876 E6.88772
G1 X77.612 Y129.816 E6.90527
G1 X76.486 Y128.936 E6.91903
G1 X75.490 Y128.097 E6.93155
G1 X74.146 Y126.866 E6.94909
G1 X73.134 Y125.854 E6.96285
G1 X71.903 Y124.510 E6.98039
G1 X70.983 Y123.414 E6.99415
G1 X69.873 Y121.967 E7.01170
G1 X69.054 Y120.797 E7.02544
G1 X68.347 Y119.704 E7.03796
G1 X67.420 Y118.132 E7.05552
G1 X66.750 Y116.870 E7.06926
G1 X65.965 Y115.224 E7.08680
G1 X65.406 Y113.908 E7.10056
G1 X64.767 Y112.199 E7.11811
G1 X64.326 Y110.842 E7.13184
G1 X63.838 Y109.082 E7.14941
G1 X63.516 Y107.690 E7.16315
G1 X63.184 Y105.895 E7.18071
G1 X62.985 Y104.481 E7.19445
G1 X62.810 Y102.665 E7.21200
G1 X62.735 Y101.238 E7.22575
G1 X62.719 Y99.412 E7.24331
G1 X62.769 Y97.985 E7.25705
G1 X62.912 Y96.167 E7.27459
G1 X63.087 Y94.748 E7.28835
G1 X63.388 Y92.948 E7.30590
G1 X63.685 Y91.551 E7.31964
G1 X64.141 Y89.784 E7.33720
G1 X64.559 Y88.418 E7.35094
G1 X64.985 Y87.187 E7.36347
G1 X65.654 Y85.490 E7.38102
G1 X66.235 Y84.185 E7.39476
G1 X67.050 Y82.551 E7.41232
G1 X67.742 Y81.301 E7.42607
G1 X68.695 Y79.747 E7.44361
G1 X69.494 Y78.562 E7.45736
G1 X70.581 Y77.094 E7.47493
G1 X71.478 Y75.986 E7.48865
G1 X72.688 Y74.618 E7.50621
G1 X73.593 Y73.678 E7.51877
G1 X73.787 Y73.787 F4800.000
G1 F1800
G1 X75.149 Y72.492 E7.53684
G1 X76.622 Y71.230 E7.55551
G1 X77.740 Y70.356 E7.56915
G1 X79.321 Y69.232 E7.58782
G1 X80.959 Y68.193 E7.60648
G1 X82.543 Y67.297 E7.62398
G1 X84.277 Y66.428 E7.64265
G1 X86.055 Y65.652 E7.66131
G1 X87.872 Y64.969 E7.67998
G1 X89.721 Y64.382 E7.69864
G1 X91.092 Y64.015 E7.71229
G1 X92.987 Y63.598 E7.73096
G1 X94.901 Y63.281 E7.74962
G1 X96.709 Y63.075 E7.76713
G1 X98.645 Y62.954 E7.78579
G1 X100.116 Y62.930 E7.79994
G1 F1800
G1 X101.878 Y62.977 E7.81690
G1 X103.291 Y63.075 E7.83053
G1 X105.099 Y63.281 E7.84803
G1 X106.498 Y63.503 E7.86165
G1 X108.279 Y63.865 E7.87914
G1 X109.654 Y64.208 E7.89277
G1 X111.396 Y64.724 E7.91025
G1 X112.738 Y65.186 E7.92390
G1 X113.945 Y65.652 E7.93635
G1 X115.612 Y66.377 E7.95384
G1 X116.885 Y66.998 E7.96747
G1 X118.482 Y67.865 E7.98494
G1 X119.697 Y68.595 E7.99858
G1 X121.212 Y69.597 E8.01606
G1 X122.360 Y70.432 E8.02971
G1 X123.782 Y71.563 E8.04719
G1 X124.851 Y72.492 E8.06082
G1 X126.170 Y73.744 E8.07831
G1 X127.154 Y74.763 E8.09194
G1 X128.359 Y76.125 E8.10943
G1 X129.249 Y77.224 E8.12304
G1 X130.331 Y78.686 E8.14054
G1 X131.124 Y79.862 E8.15418
G1 X132.073 Y81.410 E8.17165
G1 X132.760 Y82.650 E8.18529
G1 X133.572 Y84.277 E8.20278
G1 X134.148 Y85.572 E8.21640
G1 X134.814 Y87.263 E8.23389
G1 X135.238 Y88.486 E8.24635
G1 X135.652 Y89.841 E8.25998
G1 X136.107 Y91.601 E8.27747
G1 X136.402 Y92.987 E8.29110
G1 X136.702 Y94.780 E8.30858
G1 X136.874 Y96.188 E8.32222
G1 X137.017 Y97.998 E8.33969
G1 X137.066 Y99.414 E8.35333
G1 X137.052 Y101.179 E8.37030
G1 X136.985 Y102.525 E8.38327
G1 X136.861 Y103.937 E8.39690
G1 X136.624 Y105.738 E8.41438
G1 X136.378 Y107.134 E8.42802
G1 X135.985 Y108.908 E8.44550
G1 X135.618 Y110.279 E8.45915
G1 X135.072 Y112.010 E8.47661
G1 X134.587 Y113.342 E8.49025
G1 X133.892 Y115.021 E8.50773
G1 X133.292 Y116.306 E8.52137
G1 X132.453 Y117.918 E8.53885
G1 X131.744 Y119.146 E8.55249
G1 X130.768 Y120.679 E8.56998
G1 X129.955 Y121.839 E8.58361
G1 X128.849 Y123.281 E8.60109
G1 X127.937 Y124.368 E8.61474
G1 X126.710 Y125.707 E8.63220
G1 X125.796 Y126.623 E8.64465
G1 X124.760 Y127.590 E8.65829
G1 X123.378 Y128.770 E8.67577
G1 X122.260 Y129.644 E8.68942
G1 X121.212 Y130.403 E8.70187
G1 X119.697 Y131.405 E8.71935
G1 X118.482 Y132.135 E8.73298
G1 X116.885 Y133.002 E8.75046
G1 X115.612 Y133.623 E8.76409
G1 X113.945 Y134.348 E8.78158
G1 X112.621 Y134.856 E8.79521
G1 X111.397 Y135.276 E8.80767
G1 X109.654 Y135.792 E8.82515
G1 X108.279 Y136.135 E8.83879
G1 X106.498 Y136.497 E8.85627
G1 X105.099 Y136.719 E8.86990
G1 X103.291 Y136.925 E8.88740
G1 X101.878 Y137.023 E8.90103
G1 X100.062 Y137.071 E8.91850
G1 X98.645 Y137.046 E8.93213
G1 X97.352 Y136.976 E8.94459
G1 X95.543 Y136.802 E8.96207
G1 X94.140 Y136.605 E8.97570
G1 X92.353 Y136.274 E8.99319
G1 X90.972 Y135.955 E9.00682
G1 X89.219 Y135.469 E9.02432
G1 X87.872 Y135.031 E9.03795
G1 X86.170 Y134.395 E9.05542
G1 X84.864 Y133.840 E9.06907
G1 X83.226 Y133.059 E9.08654
G1 X81.974 Y132.393 E9.10018
G1 X80.408 Y131.471 E9.11766
G1 X79.220 Y130.699 E9.13129
G1 X77.740 Y129.644 E9.14878
G1 X76.622 Y128.770 E9.16242
G1 X75.632 Y127.937 E9.17487
G1 X74.294 Y126.710 E9.19234
G1 X73.290 Y125.707 E9.20599
G1 X72.063 Y124.368 E9.22346
G1 X71.151 Y123.281 E9.23711
G1 X70.045 Y121.839 E9.25459
G1 X69.232 Y120.679 E9.26822
G1 X68.529 Y119.592 E9.28067
G1 X67.607 Y118.026 E9.29816
G1 X66.941 Y116.775 E9.31179
G1 X66.160 Y115.136 E9.32926
G1 X65.605 Y113.830 E9.34291
G1 X64.969 Y112.128 E9.36039
G1 X64.531 Y110.781 E9.37401
G1 X64.045 Y109.028 E9.39151
G1 X63.726 Y107.647 E9.40514
G1 X63.395 Y105.860 E9.42263
G1 X63.198 Y104.457 E9.43626
G1 X63.024 Y102.648 E9.45374
G1 X62.949 Y101.232 E9.46738
G1 X62.934 Y99.414 E9.48487
G1 X62.983 Y97.998 E9.49850
G1 X63.126 Y96.188 E9.51597
G1 X63.298 Y94.780 E9.52962
G1 X63.598 Y92.987 E9.54710
G1 X63.893 Y91.601 E9.56073
G1 X64.348 Y89.841 E9.57822
G1 X64.762 Y88.486 E9.59185
G1 X65.186 Y87.262 E9.60431
G1 X65.852 Y85.572 E9.62179
G1 X66.428 Y84.277 E9.63542
G1 X67.240 Y82.650 E9.65291
G1 X67.927 Y81.410 E9.66655
G1 X68.876 Y79.862 E9.68402
G1 X69.669 Y78.686 E9.69766
G1 X70.751 Y77.224 E9.71516
G1 X71.641 Y76.125 E9.72877
G1 X72.846 Y74.763 E9.74626
G1 X73.744 Y73.829 E9.75872
G1 X73.938 Y73.938 F4800.000
G1 F1800
G1 X75.294 Y72.650 E9.77671
G1 X76.758 Y71.395 E9.79527
G1 X77.867 Y70.529 E9.80881
G1 X79.439 Y69.411 E9.82736
G1 X81.068 Y68.377 E9.84592
G1 X82.645 Y67.485 E9.86335
G1 X84.370 Y66.622 E9.88190
G1 X86.137 Y65.850 E9.90046
G1 X87.944 Y65.171 E9.91902
G1 X89.782 Y64.588 E9.93758
G1 X91.142 Y64.223 E9.95112
G1 X93.026 Y63.809 E9.96968
G1 X94.929 Y63.494 E9.98823
G1 X96.729 Y63.289 E10.00566
G1 X98.654 Y63.168 E10.02422
G1 X100.114 Y63.144 E10.03826
G1 F1800
G1 X101.869 Y63.191 E10.05515
G1 X103.271 Y63.289 E10.06867
G1 X105.071 Y63.494 E10.08610
G1 X106.459 Y63.714 E10.09962
G1 X108.232 Y64.074 E10.11703
G1 X109.597 Y64.415 E10.13056
G1 X111.332 Y64.928 E10.14797
G1 X112.663 Y65.387 E10.16150
G1 X113.863 Y65.850 E10.17388
G1 X115.523 Y66.572 E10.19130
G1 X116.786 Y67.188 E10.20482
G1 X118.376 Y68.051 E10.22222
G1 X119.582 Y68.775 E10.23575
G1 X121.091 Y69.774 E10.25316
G1 X122.230 Y70.602 E10.26670
G1 X123.646 Y71.728 E10.28411
G1 X124.706 Y72.650 E10.29763
G1 X126.020 Y73.896 E10.31505
G1 X126.996 Y74.908 E10.32857
G1 X128.196 Y76.264 E10.34599
G1 X129.079 Y77.355 E10.35949
G1 X130.157 Y78.811 E10.37692
G1 X130.943 Y79.977 E10.39045
G1 X131.889 Y81.519 E10.40785
G1 X132.570 Y82.749 E10.42138
G1 X133.378 Y84.370 E10.43880
G1 X133.950 Y85.654 E10.45232
G1 X134.613 Y87.338 E10.46973
G1 X135.035 Y88.554 E10.48212
G1 X135.446 Y89.899 E10.49564
G1 X135.899 Y91.651 E10.51305
G1 X136.191 Y93.026 E10.52658
G1 X136.490 Y94.811 E10.54399
G1 X136.661 Y96.208 E10.55753
G1 X136.803 Y98.011 E10.57492
G1 X136.852 Y99.416 E10.58845
G1 X136.836 Y101.227 E10.60587
G1 X136.763 Y102.631 E10.61939
G1 X136.589 Y104.433 E10.63681
G1 X136.394 Y105.825 E10.65033
G1 X136.064 Y107.605 E10.66774
G1 X135.747 Y108.975 E10.68127
G1 X135.263 Y110.720 E10.69869
G1 X134.829 Y112.056 E10.71221
G1 X134.195 Y113.751 E10.72962
G1 X133.646 Y115.047 E10.74316
G1 X132.867 Y116.679 E10.76056
G1 X132.265 Y117.816 E10.77293
G1 X131.562 Y119.034 E10.78646
G1 X130.589 Y120.561 E10.80388
G1 X129.783 Y121.712 E10.81740
G1 X128.681 Y123.148 E10.83481
G1 X127.776 Y124.226 E10.84835
G1 X126.555 Y125.559 E10.86574
G1 X125.646 Y126.471 E10.87812
G1 X124.618 Y127.429 E10.89164
G1 X123.242 Y128.605 E10.90906
G1 X122.133 Y129.471 E10.92260
G1 X121.091 Y130.226 E10.93497
G1 X119.582 Y131.225 E10.95238
G1 X118.376 Y131.949 E10.96591
G1 X116.786 Y132.812 E10.98331
G1 X115.523 Y133.428 E10.99683
G1 X113.863 Y134.150 E11.01425
G1 X112.550 Y134.654 E11.02778
G1 X111.332 Y135.071 E11.04016
G1 X109.597 Y135.585 E11.05758
G1 X108.232 Y135.926 E11.07110
G1 X106.459 Y136.286 E11.08851
G1 X105.071 Y136.506 E11.10203
G1 X103.271 Y136.711 E11.11946
G1 X101.869 Y136.809 E11.13298
