; generated by Slic3r 1.2.9 on 2016-03-15 at 19:45:27

; external perimeters extrusion width = 0.50mm
; perimeters extrusion width = 0.72mm
; infill extrusion width = 0.72mm
; solid infill extrusion width = 0.72mm
; top infill extrusion width = 0.72mm

M107
M104 S200 ; set temperature
G28 ; home all axes
G1 Z5 F5000 ; lift nozzle

M109 S200 ; wait for temperature to be reached
G21 ; set units to millimeters
G90 ; use absolute coordinates
M82 ; use absolute distances for extrusion
G92 E0
G1 Z0.350 F7800.000
G1 E-2.00000 F2400.00000
G92 E0
G1 X73.315 Y84.353 F7800.000
G1 E2.00000 F2400.00000
G1 F1800
G1 X75.068 Y82.874 E2.07096
G1 X77.220 Y82.081 E2.14192
G1 X78.400 Y81.975 E2.17858
G1 X121.600 Y81.975 E3.51524
G1 X123.859 Y82.372 E3.58620
G1 F1800
G1 X125.847 Y83.515 E3.65717
G1 X127.326 Y85.268 E3.72813
G1 X128.119 Y87.420 E3.79909
G1 X128.225 Y88.600 E3.83574
G1 X128.225 Y111.400 E4.54120
G1 X127.828 Y113.659 E4.61217
G1 X126.685 Y115.647 E4.68313
G1 X124.932 Y117.126 E4.75409
G1 X122.780 Y117.919 E4.82505
G1 X121.600 Y118.025 E4.86170
G1 X78.400 Y118.025 E6.19837
G1 X76.141 Y117.628 E6.26933
G1 X74.153 Y116.485 E6.34029
G1 X72.674 Y114.732 E6.41125
G1 X71.881 Y112.580 E6.48222
G1 X71.775 Y111.400 E6.51887
G1 X71.775 Y88.600 E7.22433
G1 X72.172 Y86.341 E7.29529
G1 X73.278 Y84.418 E7.36393
G1 E5.36393 F2400.00000
G92 E0
G1 X120.000 Y109.800 F7800.000
G1 E2.00000 F2400.00000
G1 F1800
G1 X80.000 Y109.800 E3.23767
G1 X80.000 Y90.200 E3.84413
G1 X120.000 Y90.200 E5.08180
G1 X120.000 Y109.725 E5.68594
G1 X120.625 Y110.425 F7800.000
G1 F1800
G1 X79.375 Y110.425 E6.96228
G1 X79.375 Y89.575 E7.60741
G1 X120.625 Y89.575 E8.88374
G1 X120.625 Y110.350 E9.52656
G1 X121.250 Y111.050 F7800.000
G1 F1800
G1 X78.750 Y111.050 E10.84156
G1 X78.750 Y88.950 E11.52537
G1 X121.250 Y88.950 E12.84037
G1 X121.250 Y110.975 E13.52185
G1 X120.756 Y110.970 F7800.000
G1 X119.622 Y90.883 F7800.000
G1 F1800
G1 X119.317 Y90.578 E13.53521
G1 X118.432 Y90.578 E13.56259
G1 X119.622 Y91.768 E13.61467
G1 X119.622 Y92.652 E13.64204
G1 X117.548 Y90.578 E13.73283
G1 X116.664 Y90.578 E13.76021
G1 X119.622 Y93.536 E13.88971
G1 X119.622 Y94.420 E13.91709
G1 X115.780 Y90.578 E14.08531
G1 X114.895 Y90.578 E14.11269
G1 X119.622 Y95.305 E14.31963
G1 X119.622 Y96.189 E14.34700
G1 X114.011 Y90.578 E14.59266
G1 X113.127 Y90.578 E14.62003
G1 X119.622 Y97.073 E14.90440
G1 X119.622 Y97.957 E14.93178
G1 X112.243 Y90.578 E15.25486
G1 X111.358 Y90.578 E15.28224
G1 X119.622 Y98.842 E15.64404
G1 X119.622 Y99.726 E15.67142
G1 X110.474 Y90.578 E16.07193
G1 X109.590 Y90.578 E16.09931
G1 X119.622 Y100.610 E16.53854
G1 X119.622 Y101.494 E16.56592
G1 X108.706 Y90.578 E17.04387
G1 X107.821 Y90.578 E17.07124
G1 X119.622 Y102.379 E17.58791
G1 X119.622 Y103.263 E17.61528
G1 X106.937 Y90.578 E18.17066
G1 X106.053 Y90.578 E18.19804
G1 X119.622 Y104.147 E18.79214
G1 X119.622 Y105.032 E18.81951
G1 X105.168 Y90.578 E19.45232
G1 X104.284 Y90.578 E19.47970
G1 X119.622 Y105.916 E20.15123
G1 X119.622 Y106.800 E20.17860
G1 X103.400 Y90.578 E20.88885
G1 X102.516 Y90.578 E20.91622
G1 X119.622 Y107.684 E21.66518
G1 X119.622 Y108.569 E21.69256
G1 X101.631 Y90.578 E22.48023
G1 X100.747 Y90.578 E22.50761
G1 X119.586 Y109.417 E23.33244
G1 X118.706 Y109.422 E23.35968
G1 X99.863 Y90.578 E24.18471
G1 X98.979 Y90.578 E24.21208
G1 X117.822 Y109.422 E25.03711
G1 X116.938 Y109.422 E25.06449
G1 X98.094 Y90.578 E25.88952
G1 X97.210 Y90.578 E25.91689
G1 X116.054 Y109.422 E26.74192
G1 X115.169 Y109.422 E26.76930
G1 X96.326 Y90.578 E27.59432
G1 X95.442 Y90.578 E27.62170
G1 X114.285 Y109.422 E28.44673
G1 X113.401 Y109.422 E28.47410
G1 X94.557 Y90.578 E29.29913
G1 X93.673 Y90.578 E29.32651
G1 X112.517 Y109.422 E30.15154
G1 X111.632 Y109.422 E30.17891
G1 X92.789 Y90.578 E31.00394
G1 X91.905 Y90.578 E31.03132
G1 X110.748 Y109.422 E31.85634
G1 X109.864 Y109.422 E31.88372
G1 X91.020 Y90.578 E32.70875
G1 X90.136 Y90.578 E32.73612
G1 X108.980 Y109.422 E33.56115
G1 X108.095 Y109.422 E33.58853
G1 X89.252 Y90.578 E34.41356
G1 X88.368 Y90.578 E34.44093
G1 X107.211 Y109.422 E35.26596
G1 X106.327 Y109.422 E35.29334
G1 X87.483 Y90.578 E36.11836
G1 X86.599 Y90.578 E36.14574
G1 X105.442 Y109.422 E36.97077
G1 X104.558 Y109.422 E36.99814
G1 X85.715 Y90.578 E37.82317
G1 X84.831 Y90.578 E37.85055
G1 X103.674 Y109.422 E38.67558
G1 X102.790 Y109.422 E38.70295
G1 X83.946 Y90.578 E39.52798
G1 X83.062 Y90.578 E39.55536
G1 X101.905 Y109.422 E40.38038
G1 X101.021 Y109.422 E40.40776
G1 X82.178 Y90.578 E41.23279
G1 X81.294 Y90.578 E41.26016
G1 X100.137 Y109.422 E42.08519
G1 X99.253 Y109.422 E42.11257
G1 X80.414 Y90.583 E42.93740
G1 X80.378 Y91.432 E42.96370
G1 X98.368 Y109.422 E43.75137
G1 X97.484 Y109.422 E43.77875
G1 X80.378 Y92.316 E44.52770
G1 X80.378 Y93.200 E44.55508
G1 X96.600 Y109.422 E45.26532
G1 X95.716 Y109.422 E45.29270
G1 X80.378 Y94.084 E45.96422
G1 X80.378 Y94.969 E45.99160
G1 X94.831 Y109.422 E46.62441
G1 X93.947 Y109.422 E46.65179
G1 X80.378 Y95.853 E47.24588
G1 X80.378 Y96.737 E47.27326
G1 X93.063 Y109.422 E47.82863
G1 X92.179 Y109.422 E47.85601
G1 X80.378 Y97.621 E48.37267
G1 X80.378 Y98.506 E48.40005
G1 X91.294 Y109.422 E48.87800
G1 X90.410 Y109.422 E48.90537
G1 X80.378 Y99.390 E49.34460
G1 X80.378 Y100.274 E49.37198
G1 X89.526 Y109.422 E49.77250
G1 X88.642 Y109.422 E49.79987
G1 X80.378 Y101.158 E50.16167
G1 X80.378 Y102.043 E50.18905
G1 X87.757 Y109.422 E50.51213
G1 X86.873 Y109.422 E50.53951
G1 X80.378 Y102.927 E50.82387
G1 X80.378 Y103.811 E50.85125
G1 X85.989 Y109.422 E51.09690
G1 X85.105 Y109.422 E51.12428
G1 X80.378 Y104.695 E51.33122
G1 X80.378 Y105.580 E51.35859
G1 X84.220 Y109.422 E51.52681
G1 X83.336 Y109.422 E51.55419
G1 X80.378 Y106.464 E51.68369
G1 X80.378 Y107.348 E51.71107
G1 X82.452 Y109.422 E51.80186
G1 X81.568 Y109.422 E51.82924
G1 X80.378 Y108.232 E51.88131
G1 X80.378 Y109.117 E51.90868
G1 X80.683 Y109.422 E51.92204
G1 Z0.650 F7800.000
G1 E49.92204 F2400.00000
G92 E0
G1 X120.150 Y109.950 F7800.000
G1 E2.00000 F2400.00000
G1 F3600
G1 X79.850 Y109.950 E3.11947
G1 X79.850 Y90.050 E3.67227
G1 X120.150 Y90.050 E4.79174
G1 X120.150 Y109.875 E5.34246
G1 X120.805 Y110.605 F7800.000
G1 F3600
G1 X79.195 Y110.605 E6.49829
G1 X79.195 Y89.395 E7.08745
G1 X120.805 Y89.395 E8.24328
G1 X120.805 Y110.530 E8.83036
G1 X121.350 Y111.150 F7800.000
G1 F1800
G1 X78.650 Y111.150 E9.61981
G1 X78.650 Y88.850 E10.03210
G1 X121.350 Y88.850 E10.82155
G1 X121.350 Y111.075 E11.23245
G1 X120.856 Y111.070 F7800.000
G1 X119.435 Y109.553 F7800.000
G1 F1200
G1 X119.753 Y109.235 E11.24506
G1 X119.753 Y108.300 E11.27130
G1 X118.500 Y109.553 E11.32102
G1 X117.565 Y109.553 E11.34726
G1 X119.753 Y107.365 E11.43409
G1 X119.753 Y106.430 E11.46034
G1 X116.630 Y109.553 E11.58428
G1 X115.695 Y109.553 E11.61052
G1 X119.753 Y105.495 E11.77158
G1 X119.753 Y104.560 E11.79782
G1 X114.760 Y109.553 E11.99598
G1 X113.825 Y109.553 E12.02223
G1 X119.753 Y103.625 E12.25750
G1 X119.753 Y102.690 E12.28375
G1 X112.890 Y109.553 E12.55614
G1 X111.954 Y109.553 E12.58238
G1 X119.753 Y101.754 E12.89188
G1 X119.753 Y100.819 E12.91812
G1 X111.019 Y109.553 E13.26473
G1 X110.084 Y109.553 E13.29098
G1 X119.753 Y99.884 E13.67470
G1 X119.753 Y98.949 E13.70094
G1 X109.149 Y109.553 E14.12178
G1 X108.214 Y109.553 E14.14802
G1 X119.753 Y98.014 E14.60597
G1 X119.753 Y97.079 E14.63221
G1 X107.279 Y109.553 E15.12727
G1 X106.344 Y109.553 E15.15351
G1 X119.753 Y96.144 E15.68569
G1 X119.753 Y95.209 E15.71193
G1 X105.409 Y109.553 E16.28121
G1 X104.474 Y109.553 E16.30745
G1 X119.753 Y94.274 E16.91385
G1 X119.753 Y93.338 E16.94009
G1 X103.538 Y109.553 E17.58360
G1 X102.603 Y109.553 E17.60984
G1 X119.753 Y92.403 E18.29046
G1 X119.753 Y91.468 E18.31670
G1 X101.668 Y109.553 E19.03443
G1 X100.733 Y109.553 E19.06067
G1 X119.753 Y90.533 E19.81551
G1 X118.904 Y90.447 E19.83946
G1 X99.798 Y109.553 E20.59772
G1 X98.863 Y109.553 E20.62396
G1 X117.969 Y90.447 E21.38222
G1 X117.034 Y90.447 E21.40847
G1 X97.928 Y109.553 E22.16673
G1 X96.993 Y109.553 E22.19297
G1 X116.099 Y90.447 E22.95123
G1 X115.164 Y90.447 E22.97747
G1 X96.058 Y109.553 E23.73573
G1 X95.123 Y109.553 E23.76198
G1 X114.228 Y90.447 E24.52024
G1 X113.293 Y90.447 E24.54648
G1 X94.187 Y109.553 E25.30474
G1 X93.252 Y109.553 E25.33098
G1 X112.358 Y90.447 E26.08924
G1 X111.423 Y90.447 E26.11549
G1 X92.317 Y109.553 E26.87375
G1 X91.382 Y109.553 E26.89999
G1 X110.488 Y90.447 E27.65825
G1 X109.553 Y90.447 E27.68449
G1 X90.447 Y109.553 E28.44275
G1 X89.512 Y109.553 E28.46899
G1 X108.618 Y90.447 E29.22726
G1 X107.683 Y90.447 E29.25350
G1 X88.577 Y109.553 E30.01176
G1 X87.642 Y109.553 E30.03800
G1 X106.748 Y90.447 E30.79626
G1 X105.813 Y90.447 E30.82250
G1 X86.707 Y109.553 E31.58077
G1 X85.771 Y109.553 E31.60701
G1 X104.877 Y90.447 E32.36527
G1 X103.942 Y90.447 E32.39151
G1 X84.836 Y109.553 E33.14977
G1 X83.901 Y109.553 E33.17601
G1 X103.007 Y90.447 E33.93427
G1 X102.072 Y90.447 E33.96052
G1 X82.966 Y109.553 E34.71878
G1 X82.031 Y109.553 E34.74502
G1 X101.137 Y90.447 E35.50328
G1 X100.202 Y90.447 E35.52952
G1 X81.096 Y109.553 E36.28778
G1 X80.247 Y109.467 E36.31173
G1 X99.267 Y90.447 E37.06657
G1 X98.332 Y90.447 E37.09281
G1 X80.247 Y108.532 E37.81054
G1 X80.247 Y107.597 E37.83678
G1 X97.397 Y90.447 E38.51740
G1 X96.461 Y90.447 E38.54364
G1 X80.247 Y106.661 E39.18715
G1 X80.247 Y105.726 E39.21339
G1 X95.526 Y90.447 E39.81978
G1 X94.591 Y90.447 E39.84602
G1 X80.247 Y104.791 E40.41531
G1 X80.247 Y103.856 E40.44155
G1 X93.656 Y90.447 E40.97372
G1 X92.721 Y90.447 E40.99996
G1 X80.247 Y102.921 E41.49502
G1 X80.247 Y101.986 E41.52126
G1 X91.786 Y90.447 E41.97921
G1 X90.851 Y90.447 E42.00545
G1 X80.247 Y101.051 E42.42628
G1 X80.247 Y100.116 E42.45253
G1 X89.916 Y90.447 E42.83625
G1 X88.981 Y90.447 E42.86249
G1 X80.247 Y99.181 E43.20910
G1 X80.247 Y98.246 E43.23535
G1 X88.046 Y90.447 E43.54485
G1 X87.110 Y90.447 E43.57109
G1 X80.247 Y97.310 E43.84348
G1 X80.247 Y96.375 E43.86972
G1 X86.175 Y90.447 E44.10499
G1 X85.240 Y90.447 E44.13124
G1 X80.247 Y95.440 E44.32940
G1 X80.247 Y94.505 E44.35564
G1 X84.305 Y90.447 E44.51670
G1 X83.370 Y90.447 E44.54294
G1 X80.247 Y93.570 E44.66688
G1 X80.247 Y92.635 E44.69312
G1 X82.435 Y90.447 E44.77995
G1 X81.500 Y90.447 E44.80619
G1 X80.247 Y91.700 E44.85591
G1 X80.247 Y90.765 E44.88215
G1 X80.565 Y90.447 E44.89476
G1 Z0.950 F7800.000
G1 E42.89476 F2400.00000
G92 E0
G1 X120.150 Y109.950 F7800.000
G1 E2.00000 F2400.00000
G1 F3600
G1 X79.850 Y109.950 E3.11947
G1 X79.850 Y90.050 E3.67227
G1 X120.150 Y90.050 E4.79174
G1 X120.150 Y109.875 E5.34246
G1 X120.805 Y110.605 F7800.000
G1 F3600
G1 X79.195 Y110.605 E6.49829
G1 X79.195 Y89.395 E7.08745
G1 X120.805 Y89.395 E8.24328
G1 X120.805 Y110.530 E8.83036
G1 X121.350 Y111.150 F7800.000
G1 F1800
G1 X78.650 Y111.150 E9.61981
G1 X78.650 Y88.850 E10.03210
G1 X121.350 Y88.850 E10.82155
G1 X121.350 Y111.075 E11.23245
G1 X120.856 Y111.070 F7800.000
G1 X119.753 Y90.765 F7800.000
G1 F1200
G1 X119.435 Y90.447 E11.24506
G1 X118.500 Y90.447 E11.27130
G1 X119.753 Y91.700 E11.32102
G1 X119.753 Y92.635 E11.34726
G1 X117.565 Y90.447 E11.43409
G1 X116.630 Y90.447 E11.46034
G1 X119.753 Y93.570 E11.58428
G1 X119.753 Y94.505 E11.61052
G1 X115.695 Y90.447 E11.77158
G1 X114.760 Y90.447 E11.79782
G1 X119.753 Y95.440 E11.99598
G1 X119.753 Y96.375 E12.02223
G1 X113.825 Y90.447 E12.25750
G1 X112.890 Y90.447 E12.28375
G1 X119.753 Y97.310 E12.55614
G1 X119.753 Y98.246 E12.58238
G1 X111.954 Y90.447 E12.89188
G1 X111.019 Y90.447 E12.91812
G1 X119.753 Y99.181 E13.26473
G1 X119.753 Y100.116 E13.29098
G1 X110.084 Y90.447 E13.67470
G1 X109.149 Y90.447 E13.70094
G1 X119.753 Y101.051 E14.12178
G1 X119.753 Y101.986 E14.14802
G1 X108.214 Y90.447 E14.60597
G1 X107.279 Y90.447 E14.63221
G1 X119.753 Y102.921 E15.12727
G1 X119.753 Y103.856 E15.15351
G1 X106.344 Y90.447 E15.68569
G1 X105.409 Y90.447 E15.71193
G1 X119.753 Y104.791 E16.28121
G1 X119.753 Y105.726 E16.30745
G1 X104.474 Y90.447 E16.91385
G1 X103.538 Y90.447 E16.94009
G1 X119.753 Y106.662 E17.58360
G1 X119.753 Y107.597 E17.60984
G1 X102.603 Y90.447 E18.29046
G1 X101.668 Y90.447 E18.31670
G1 X119.753 Y108.532 E19.03443
G1 X119.753 Y109.467 E19.06067
G1 X100.733 Y90.447 E19.81551
G1 X99.798 Y90.447 E19.84176
G1 X118.904 Y109.553 E20.60002
G1 X117.969 Y109.553 E20.62626
G1 X98.863 Y90.447 E21.38452
G1 X97.928 Y90.447 E21.41076
G1 X117.034 Y109.553 E22.16902
G1 X116.099 Y109.553 E22.19527
G1 X96.993 Y90.447 E22.95353
G1 X96.058 Y90.447 E22.97977
G1 X115.164 Y109.553 E23.73803
G1 X114.228 Y109.553 E23.76427
G1 X95.123 Y90.447 E24.52253
G1 X94.187 Y90.447 E24.54878
G1 X113.293 Y109.553 E25.30704
G1 X112.358 Y109.553 E25.33328
G1 X93.252 Y90.447 E26.09154
G1 X92.317 Y90.447 E26.11778
G1 X111.423 Y109.553 E26.87604
G1 X110.488 Y109.553 E26.90228
G1 X91.382 Y90.447 E27.66055
G1 X90.447 Y90.447 E27.68679
G1 X109.553 Y109.553 E28.44505
G1 X108.618 Y109.553 E28.47129
G1 X89.512 Y90.447 E29.22955
G1 X88.577 Y90.447 E29.25579
G1 X107.683 Y109.553 E30.01405
G1 X106.748 Y109.553 E30.04030
G1 X87.642 Y90.447 E30.79856
G1 X86.707 Y90.447 E30.82480
G1 X105.813 Y109.553 E31.58306
G1 X104.877 Y109.553 E31.60930
G1 X85.771 Y90.447 E32.36756
G1 X84.836 Y90.447 E32.39381
G1 X103.942 Y109.553 E33.15207
G1 X103.007 Y109.553 E33.17831
G1 X83.901 Y90.447 E33.93657
G1 X82.966 Y90.447 E33.96281
G1 X102.072 Y109.553 E34.72107
G1 X101.137 Y109.553 E34.74732
G1 X82.031 Y90.447 E35.50558
G1 X81.096 Y90.447 E35.53182
G1 X100.202 Y109.553 E36.29008
G1 X99.267 Y109.553 E36.31632
G1 X80.247 Y90.533 E37.07116
G1 X80.247 Y91.468 E37.09740
G1 X98.332 Y109.553 E37.81513
G1 X97.397 Y109.553 E37.84137
G1 X80.247 Y92.403 E38.52199
G1 X80.247 Y93.339 E38.54823
G1 X96.461 Y109.553 E39.19174
G1 X95.526 Y109.553 E39.21798
G1 X80.247 Y94.274 E39.82437
G1 X80.247 Y95.209 E39.85062
G1 X94.591 Y109.553 E40.41990
G1 X93.656 Y109.553 E40.44614
G1 X80.247 Y96.144 E40.97831
G1 X80.247 Y97.079 E41.00455
G1 X92.721 Y109.553 E41.49961
G1 X91.786 Y109.553 E41.52585
G1 X80.247 Y98.014 E41.98380
G1 X80.247 Y98.949 E42.01004
G1 X90.851 Y109.553 E42.43088
G1 X89.916 Y109.553 E42.45712
G1 X80.247 Y99.884 E42.84084
G1 X80.247 Y100.819 E42.86708
G1 X88.981 Y109.553 E43.21370
G1 X88.046 Y109.553 E43.23994
G1 X80.247 Y101.754 E43.54944
G1 X80.247 Y102.690 E43.57568
G1 X87.110 Y109.553 E43.84807
G1 X86.175 Y109.553 E43.87431
G1 X80.247 Y103.625 E44.10959
G1 X80.247 Y104.560 E44.13583
G1 X85.240 Y109.553 E44.33399
G1 X84.305 Y109.553 E44.36023
G1 X80.247 Y105.495 E44.52129
G1 X80.247 Y106.430 E44.54753
G1 X83.370 Y109.553 E44.67147
G1 X82.435 Y109.553 E44.69771
G1 X80.247 Y107.365 E44.78454
G1 X80.247 Y108.300 E44.81078
G1 X81.500 Y109.553 E44.86050
G1 X80.565 Y109.553 E44.88674
G1 X80.247 Y109.235 E44.89935
M106 S244.8
G1 Z1.250 F7800.000
G1 E42.89935 F2400.00000
G92 E0
G1 X120.150 Y109.950 F7800.000
G1 E2.00000 F2400.00000
G1 F3600
G1 X79.850 Y109.950 E3.11947
G1 X79.850 Y90.050 E3.67227
G1 X120.150 Y90.050 E4.79174
G1 X120.150 Y109.875 E5.34246
G1 X120.805 Y110.605 F7800.000
G1 F3600
G1 X79.195 Y110.605 E6.49829
G1 X79.195 Y89.395 E7.08745
G1 X120.805 Y89.395 E8.24328
G1 X120.805 Y110.530 E8.83036
G1 X121.350 Y111.150 F7800.000
G1 F1800
G1 X78.650 Y111.150 E9.61981
G1 X78.650 Y88.850 E10.03210
G1 X121.350 Y88.850 E10.82155
G1 X121.350 Y111.075 E11.23245
G1 X120.856 Y111.070 F7800.000
G1 X119.594 Y109.316 F7800.000
G1 F4800
G1 X116.843 Y108.579 E11.31155
G1 X116.028 Y109.394 E11.34359
G1 X119.594 Y109.394 E11.44265
G1 X119.594 Y109.316 E11.44483
G1 X119.594 Y102.540 F7800.000
G1 F4800
G1 X119.594 Y96.572 E11.61060
G1 X117.292 Y98.874 E11.70103
G1 X118.075 Y101.794 E11.78501
G1 X115.135 Y104.733 E11.90047
G1 X112.215 Y103.951 E11.98444
G1 X109.276 Y106.890 E12.09990
G1 X109.947 Y109.394 E12.17192
G1 X115.102 Y109.394 E12.31512
G1 X116.381 Y108.116 E12.36533
G1 X115.598 Y105.196 E12.44930
G1 X118.537 Y102.257 E12.56477
G1 X119.594 Y102.540 E12.59516
G1 X119.594 Y91.944 F7800.000
G1 F4800
G1 X119.594 Y91.018 E12.62087
G1 X118.523 Y92.089 E12.66293
G1 X115.603 Y91.307 E12.74690
G1 X112.664 Y94.246 E12.86236
G1 X113.447 Y97.166 E12.94634
G1 X110.507 Y100.105 E13.06180
G1 X107.587 Y99.323 E13.14577
