; generated by Slic3r 1.2.9 on 2016-03-15 at 19:25:50

; external perimeters extrusion width = 0.40mm
; perimeters extrusion width = 0.67mm
; infill extrusion width = 0.67mm
; solid infill extrusion width = 0.67mm
; top infill extrusion width = 0.67mm

M107
M190 S55 ; set bed temperature
M104 S210 ; set temperature
G28 ; home all axes
G1 Z5 F5000 ; lift nozzle

M109 S210 ; wait for temperature to be reached
G21 ; set units to millimeters
G90 ; use absolute coordinates
M82 ; use absolute distances for extrusion
G92 E0
G1 Z0.240 F4800.000
G1 E-3.00000 F2400.00000
G92 E0
G1 X73.938 Y73.938 F4800.000
G1 E3.00000 F2400.00000
G1 F1800
G1 X75.294 Y72.650 E3.07195
G1 X76.758 Y71.395 E3.14617
G1 X77.867 Y70.529 E3.20033
G1 X79.439 Y69.411 E3.27455
G1 X81.068 Y68.377 E3.34877
G1 X82.645 Y67.485 E3.41849
G1 X84.370 Y66.622 E3.49272
G1 X86.137 Y65.850 E3.56694
G1 X87.944 Y65.171 E3.64120
G1 X89.782 Y64.588 E3.71541
G1 X91.142 Y64.223 E3.76958
G1 X93.026 Y63.809 E3.84383
G1 X94.929 Y63.494 E3.91804
G1 X96.729 Y63.289 E3.98776
G1 X98.654 Y63.168 E4.06199
G1 X100.167 Y63.144 E4.12021
G1 F1800
G1 X101.869 Y63.191 E4.18570
G1 X103.271 Y63.289 E4.23978
G1 X105.071 Y63.494 E4.30950
G1 X106.459 Y63.714 E4.36357
G1 X108.232 Y64.074 E4.43322
G1 X109.597 Y64.415 E4.48733
G1 X111.332 Y64.928 E4.55696
G1 X112.663 Y65.387 E4.61111
G1 X113.863 Y65.850 E4.66062
G1 X115.523 Y66.572 E4.73028
G1 X116.786 Y67.188 E4.78437
G1 X118.376 Y68.051 E4.85399
G1 X119.582 Y68.775 E4.90809
G1 X121.091 Y69.774 E4.97773
G1 X122.230 Y70.602 E5.03191
G1 X123.646 Y71.728 E5.10154
G1 X124.706 Y72.650 E5.15562
G1 X126.020 Y73.896 E5.22528
G1 X126.996 Y74.908 E5.27937
G1 X128.196 Y76.264 E5.34905
G1 X129.079 Y77.355 E5.40308
G1 X130.157 Y78.811 E5.47276
G1 X130.943 Y79.977 E5.52689
G1 X131.889 Y81.519 E5.59650
G1 X132.570 Y82.749 E5.65061
G1 X133.378 Y84.370 E5.72030
G1 X133.950 Y85.654 E5.77437
G1 X134.613 Y87.337 E5.84402
G1 X135.034 Y88.554 E5.89356
G1 X135.446 Y89.899 E5.94766
G1 X135.899 Y91.651 E6.01731
G1 X136.191 Y93.026 E6.07141
G1 X136.490 Y94.811 E6.14105
G1 X136.661 Y96.208 E6.19520
G1 X136.803 Y98.011 E6.26479
G1 X136.852 Y99.416 E6.31890
G1 X136.839 Y101.119 E6.38443
G1 X136.771 Y102.512 E6.43808
G1 X136.649 Y103.912 E6.49219
G1 X136.412 Y105.707 E6.56183
G1 X136.168 Y107.091 E6.61593
G1 X135.777 Y108.858 E6.68556
G1 X135.412 Y110.218 E6.73972
G1 X134.868 Y111.942 E6.80931
G1 X134.387 Y113.264 E6.86343
G1 X133.695 Y114.935 E6.93304
G1 X133.101 Y116.210 E6.98718
G1 X132.265 Y117.816 E7.05681
G1 X131.562 Y119.034 E7.11094
G1 X130.589 Y120.561 E7.18061
G1 X129.783 Y121.712 E7.23468
G1 X128.681 Y123.148 E7.30432
G1 X127.776 Y124.226 E7.35850
G1 X126.555 Y125.559 E7.42806
G1 X125.646 Y126.471 E7.47759
G1 X124.618 Y127.429 E7.53168
G1 X123.242 Y128.605 E7.60134
G1 X122.133 Y129.471 E7.65549
G1 X121.091 Y130.226 E7.70500
G1 X119.582 Y131.225 E7.77463
G1 X118.376 Y131.949 E7.82874
G1 X116.786 Y132.812 E7.89836
G1 X115.523 Y133.428 E7.95244
G1 X113.863 Y134.150 E8.02211
G1 X112.550 Y134.654 E8.07623
G1 X111.332 Y135.071 E8.12576
G1 X109.597 Y135.585 E8.19540
G1 X108.232 Y135.926 E8.24951
G1 X106.459 Y136.286 E8.31915
G1 X105.071 Y136.506 E8.37322
G1 X103.271 Y136.711 E8.44294
G1 X101.869 Y136.809 E8.49703
G1 X100.060 Y136.857 E8.56664
G1 X98.654 Y136.832 E8.62074
G1 X97.369 Y136.763 E8.67028
G1 X95.567 Y136.589 E8.73993
G1 X94.175 Y136.394 E8.79401
G1 X92.395 Y136.064 E8.86368
G1 X91.025 Y135.747 E8.91778
G1 X89.280 Y135.263 E8.98747
G1 X87.944 Y134.829 E9.04154
G1 X86.249 Y134.195 E9.11117
G1 X84.953 Y133.646 E9.16533
G1 X83.321 Y132.867 E9.23492
G1 X82.079 Y132.207 E9.28903
G1 X80.520 Y131.288 E9.35868
G1 X79.341 Y130.522 E9.41277
G1 X77.867 Y129.471 E9.48242
G1 X76.758 Y128.605 E9.53658
G1 X75.774 Y127.776 E9.58609
G1 X74.441 Y126.555 E9.65566
G1 X73.445 Y125.559 E9.70985
G1 X72.224 Y124.226 E9.77942
G1 X71.319 Y123.148 E9.83359
G1 X70.217 Y121.712 E9.90323
G1 X69.411 Y120.561 E9.95731
G1 X68.712 Y119.480 E10.00683
G1 X67.793 Y117.921 E10.07648
G1 X67.133 Y116.679 E10.13060
G1 X66.354 Y115.047 E10.20019
G1 X65.805 Y113.751 E10.25434
G1 X65.171 Y112.056 E10.32397
G1 X64.737 Y110.720 E10.37804
G1 X64.253 Y108.975 E10.44774
G1 X63.936 Y107.605 E10.50184
G1 X63.606 Y105.824 E10.57150
G1 X63.411 Y104.433 E10.62559
G1 X63.237 Y102.631 E10.69524
G1 X63.164 Y101.226 E10.74936
G1 X63.148 Y99.416 E10.81902
G1 X63.197 Y98.011 E10.87313
G1 X63.339 Y96.208 E10.94271
G1 X63.510 Y94.811 E10.99687
G1 X63.809 Y93.026 E11.06650
G1 X64.101 Y91.651 E11.12060
G1 X64.554 Y89.899 E11.19026
G1 X64.966 Y88.554 E11.24436
G1 X65.387 Y87.337 E11.29390
G1 X66.050 Y85.653 E11.36355
G1 X66.622 Y84.370 E11.41762
G1 X67.430 Y82.749 E11.48730
G1 X68.111 Y81.519 E11.54142
G1 X69.057 Y79.977 E11.61102
G1 X69.843 Y78.811 E11.66515
G1 X70.921 Y77.355 E11.73484
G1 X71.804 Y76.264 E11.78886
G1 X72.650 Y75.294 E11.83840
G1 X73.896 Y73.981 E11.90804
G1 X74.241 Y74.241 F4800.000
G1 F1800
G1 X75.583 Y72.966 E11.97927
G1 X77.031 Y71.726 E12.05263
G1 X78.122 Y70.873 E12.10592
G1 X79.676 Y69.768 E12.17928
G1 X81.285 Y68.746 E12.25264
G1 X82.849 Y67.862 E12.32178
G1 X84.554 Y67.008 E12.39515
G1 X86.301 Y66.246 E12.46851
G1 X88.087 Y65.575 E12.54190
G1 X89.904 Y64.999 E12.61526
G1 X91.242 Y64.640 E12.66856
G1 X93.104 Y64.230 E12.74194
G1 X94.985 Y63.919 E12.81529
G1 X96.770 Y63.715 E12.88443
G1 X98.673 Y63.596 E12.95780
G1 X100.164 Y63.573 E13.01516
G1 F1800
G1 X101.850 Y63.619 E13.08008
G1 X103.230 Y63.715 E13.13330
G1 X105.015 Y63.919 E13.20244
G1 X106.381 Y64.135 E13.25564
G1 X108.140 Y64.493 E13.32471
G1 X109.482 Y64.827 E13.37796
G1 X111.203 Y65.337 E13.44702
G1 X112.512 Y65.788 E13.50031
G1 X113.699 Y66.246 E13.54924
G1 X115.345 Y66.962 E13.61833
G1 X116.589 Y67.568 E13.67155
G1 X118.165 Y68.424 E13.74059
G1 X119.351 Y69.137 E13.79384
G1 X120.848 Y70.127 E13.86290
G1 X121.969 Y70.942 E13.91621
G1 X123.373 Y72.059 E13.98526
G1 X124.417 Y72.966 E14.03848
G1 X125.719 Y74.202 E14.10757
G1 X126.680 Y75.197 E14.16080
G1 X127.870 Y76.542 E14.22990
G1 X128.740 Y77.616 E14.28306
G1 X129.808 Y79.059 E14.35218
G1 X130.582 Y80.207 E14.40544
G1 X131.519 Y81.737 E14.47447
G1 X132.190 Y82.947 E14.52772
G1 X132.992 Y84.554 E14.59683
G1 X133.554 Y85.818 E14.65004
G1 X134.212 Y87.488 E14.71911
G1 X134.628 Y88.690 E14.76808
G1 X135.033 Y90.013 E14.82132
G1 X135.482 Y91.751 E14.89039
G1 X135.770 Y93.104 E14.94363
G1 X136.066 Y94.875 E15.01269
G1 X136.235 Y96.249 E15.06598
G1 X136.375 Y98.037 E15.13499
G1 X136.424 Y99.420 E15.18824
G1 X136.411 Y101.108 E15.25320
G1 X136.343 Y102.486 E15.30627
G1 X136.223 Y103.864 E15.35951
G1 X135.988 Y105.643 E15.42858
G1 X135.748 Y107.006 E15.48182
G1 X135.360 Y108.758 E15.55087
G1 X135.001 Y110.096 E15.60417
G1 X134.462 Y111.806 E15.67319
G1 X133.989 Y113.107 E15.72644
G1 X133.302 Y114.764 E15.79547
G1 X132.717 Y116.019 E15.84875
G1 X131.888 Y117.611 E15.91781
G1 X131.196 Y118.810 E15.97107
G1 X130.232 Y120.324 E16.04016
G1 X129.438 Y121.457 E16.09338
G1 X128.346 Y122.881 E16.16244
G1 X127.455 Y123.942 E16.21575
G1 X126.244 Y125.264 E16.28475
G1 X125.346 Y126.165 E16.33369
G1 X124.334 Y127.108 E16.38692
G1 X122.969 Y128.274 E16.45600
G1 X121.878 Y129.127 E16.50929
G1 X120.848 Y129.873 E16.55822
G1 X119.351 Y130.863 E16.62728
G1 X118.165 Y131.576 E16.68052
G1 X116.589 Y132.432 E16.74957
G1 X115.345 Y133.038 E16.80279
G1 X113.699 Y133.754 E16.87188
G1 X112.407 Y134.250 E16.92514
G1 X111.203 Y134.663 E16.97410
G1 X109.482 Y135.173 E17.04316
G1 X108.140 Y135.507 E17.09640
G1 X106.381 Y135.865 E17.16547
G1 X105.015 Y136.081 E17.21868
G1 X103.230 Y136.285 E17.28782
G1 X101.850 Y136.381 E17.34104
G1 X100.056 Y136.428 E17.41008
G1 X98.673 Y136.404 E17.46332
G1 X97.403 Y136.336 E17.51228
G1 X95.616 Y136.164 E17.58136
G1 X94.246 Y135.971 E17.63458
G1 X92.481 Y135.644 E17.70366
G1 X91.133 Y135.333 E17.75690
G1 X89.402 Y134.853 E17.82602
G1 X88.087 Y134.425 E17.87923
G1 X86.406 Y133.797 E17.94828
G1 X85.131 Y133.256 E18.00157
G1 X83.512 Y132.483 E18.07059
G1 X82.290 Y131.834 E18.12384
G1 X80.744 Y130.923 E18.19292
G1 X79.584 Y130.169 E18.24614
G1 X78.122 Y129.127 E18.31522
G1 X77.031 Y128.274 E18.36851
G1 X76.058 Y127.455 E18.41745
G1 X74.736 Y126.244 E18.48645
G1 X73.756 Y125.264 E18.53976
G1 X72.545 Y123.942 E18.60877
G1 X71.654 Y122.881 E18.66207
G1 X70.562 Y121.457 E18.73114
G1 X69.768 Y120.324 E18.78435
G1 X69.077 Y119.256 E18.83329
G1 X68.166 Y117.710 E18.90237
G1 X67.517 Y116.488 E18.95562
G1 X66.744 Y114.869 E19.02464
G1 X66.203 Y113.594 E19.07793
G1 X65.575 Y111.913 E19.14699
G1 X65.147 Y110.598 E19.20019
G1 X64.667 Y108.867 E19.26931
G1 X64.356 Y107.519 E19.32255
G1 X64.029 Y105.754 E19.39164
G1 X63.836 Y104.384 E19.44486
G1 X63.664 Y102.597 E19.51394
G1 X63.592 Y101.215 E19.56719
G1 X63.576 Y99.420 E19.63627
G1 X63.625 Y98.037 E19.68952
G1 X63.765 Y96.249 E19.75853
G1 X63.934 Y94.875 E19.81182
G1 X64.230 Y93.104 E19.88088
G1 X64.518 Y91.751 E19.93412
G1 X64.967 Y90.013 E20.00320
G1 X65.372 Y88.690 E20.05643
G1 X65.788 Y87.488 E20.10540
G1 X66.446 Y85.817 E20.17447
G1 X67.008 Y84.554 E20.22769
G1 X67.568 Y83.411 E20.27664
G1 X68.424 Y81.835 E20.34568
G1 X69.137 Y80.649 E20.39893
G1 X70.127 Y79.152 E20.46799
G1 X70.942 Y78.031 E20.52130
G1 X72.059 Y76.627 E20.59035
G1 X72.966 Y75.583 E20.64357
G1 X74.199 Y74.284 E20.71249
G1 E17.71249 F2400.00000
G92 E0
G1 X127.125 Y109.585 F4800.000
G1 E3.00000 F2400.00000
G1 F1800
G1 X126.463 Y111.232 E3.06832
G1 X126.055 Y112.150 E3.10696
G1 X125.615 Y113.052 E3.14557
G1 X125.143 Y113.940 E3.18430
G1 X124.382 Y115.232 E3.24199
G1 X123.834 Y116.076 E3.28072
G1 X123.258 Y116.898 E3.31933
G1 X122.654 Y117.699 E3.35794
G1 X122.021 Y118.481 E3.39667
G1 X121.027 Y119.604 E3.45436
G1 X120.328 Y120.328 E3.49309
G1 X119.607 Y121.025 E3.53170
G1 X118.861 Y121.697 E3.57031
G1 X118.092 Y122.342 E3.60893
G1 X117.301 Y122.960 E3.64754
G1 X116.490 Y123.549 E3.68615
G1 X115.657 Y124.111 E3.72478
G1 X114.780 Y124.658 E3.76456
G1 X113.499 Y125.382 E3.82119
G1 X112.603 Y125.839 E3.85991
G1 X111.693 Y126.263 E3.89852
G1 X110.769 Y126.655 E3.93714
G1 X109.833 Y127.015 E3.97575
G1 X108.884 Y127.342 E4.01437
G1 X107.895 Y127.643 E4.05416
G1 X106.470 Y128.011 E4.11078
G1 X105.485 Y128.220 E4.14950
G1 X104.497 Y128.395 E4.18812
G1 X103.504 Y128.534 E4.22673
G1 X102.506 Y128.639 E4.26534
G1 X101.504 Y128.709 E4.30398
G1 X99.729 Y128.768 E4.37230
G1 X100.137 Y105.393 E5.27189
G1 X101.288 Y105.173 E5.31695
G1 X101.913 Y104.975 E5.34219
G1 X102.417 Y104.751 E5.36343
G1 X102.981 Y104.419 E5.38859
G1 X103.497 Y104.023 E5.41363
G1 X103.961 Y103.567 E5.43868
G1 X104.368 Y103.055 E5.46383
G1 X104.671 Y102.571 E5.48580
G1 X104.999 Y101.966 E5.51228
G1 X127.069 Y109.565 E6.41046
G1 X126.560 Y109.843 F4800.000
G1 F1800
G1 X126.069 Y111.065 E6.46113
G1 X125.667 Y111.969 E6.49918
G1 X125.233 Y112.857 E6.53722
G1 X124.769 Y113.731 E6.57529
G1 X124.017 Y115.006 E6.63227
G1 X123.478 Y115.836 E6.67034
G1 X122.911 Y116.646 E6.70838
G1 X122.316 Y117.436 E6.74642
G1 X121.694 Y118.205 E6.78450
G1 X120.713 Y119.314 E6.84147
G1 X120.025 Y120.025 E6.87955
G1 X119.314 Y120.712 E6.91759
G1 X118.580 Y121.373 E6.95562
G1 X117.822 Y122.009 E6.99366
G1 X117.043 Y122.617 E7.03170
G1 X116.244 Y123.198 E7.06974
G1 X115.424 Y123.751 E7.10778
G1 X114.561 Y124.290 E7.14691
G1 X113.296 Y125.005 E7.20283
G1 X112.415 Y125.454 E7.24090
G1 X111.519 Y125.872 E7.27894
G1 X110.609 Y126.258 E7.31698
G1 X109.686 Y126.612 E7.35502
G1 X108.751 Y126.934 E7.39306
G1 X107.778 Y127.231 E7.43219
G1 X106.372 Y127.594 E7.48810
G1 X105.404 Y127.800 E7.52618
G1 X104.430 Y127.971 E7.56422
G1 X103.451 Y128.109 E7.60226
G1 X102.468 Y128.212 E7.64029
G1 X101.482 Y128.281 E7.67834
G1 X100.166 Y128.325 E7.72902
G1 X100.560 Y105.748 E8.59788
G1 X101.393 Y105.589 E8.63051
G1 X102.065 Y105.377 E8.65764
G1 X102.614 Y105.132 E8.68076
G1 X103.221 Y104.775 E8.70786
G1 X103.779 Y104.347 E8.73492
G1 X104.280 Y103.854 E8.76198
G1 X104.719 Y103.303 E8.78908
G1 X105.041 Y102.787 E8.81249
G1 X105.202 Y102.489 E8.82551
G1 X126.503 Y109.824 E9.69239
G1 X126.934 Y109.984 F4800.000
G1 X127.276 Y109.147 F4800.000
G1 F1800
G1 X105.172 Y101.536 E10.59198
G1 X105.317 Y100.374 E10.63704
G1 X105.323 Y99.721 E10.66217
G1 X105.249 Y99.074 E10.68721
G1 X105.097 Y98.442 E10.71225
G1 X104.869 Y97.832 E10.73729
G1 X104.569 Y97.255 E10.76234
G1 X104.199 Y96.717 E10.78746
G1 X103.429 Y95.835 E10.83252
G1 X117.498 Y77.164 E11.73211
G1 X118.860 Y78.303 E11.80043
G1 X119.607 Y78.975 E11.83907
G1 X120.328 Y79.672 E11.87768
G1 X121.027 Y80.396 E11.91641
G1 X122.021 Y81.519 E11.97410
G1 X122.654 Y82.301 E12.01283
G1 X123.258 Y83.102 E12.05144
G1 X123.834 Y83.924 E12.09005
G1 X124.380 Y84.766 E12.12867
G1 X124.897 Y85.626 E12.16728
G1 X125.384 Y86.504 E12.20590
G1 X125.852 Y87.425 E12.24569
G1 X126.462 Y88.764 E12.30231
G1 X126.839 Y89.697 E12.34104
G1 X127.182 Y90.640 E12.37965
G1 X127.492 Y91.595 E12.41826
G1 X127.770 Y92.562 E12.45699
G1 X128.120 Y94.020 E12.51468
G1 X128.312 Y95.008 E12.55341
G1 X128.469 Y95.999 E12.59202
G1 X128.591 Y96.995 E12.63063
G1 X128.679 Y97.995 E12.66924
G1 X128.731 Y98.997 E12.70786
G1 X128.749 Y100.003 E12.74658
G1 X128.709 Y101.502 E12.80428
G1 X128.639 Y102.506 E12.84300
G1 X128.534 Y103.504 E12.88161
G1 X128.395 Y104.497 E12.92023
G1 X128.220 Y105.485 E12.95884
G1 X128.012 Y106.467 E12.99745
G1 X127.769 Y107.441 E13.03609
G1 X127.293 Y109.089 E13.10210
G1 E10.10210 F2400.00000
G92 E0
G1 X99.240 Y105.725 F4800.000
G1 E3.00000 F2400.00000
G1 F1800
G1 X98.846 Y128.302 E3.86886
G1 X97.532 Y128.212 E3.91954
G1 X96.549 Y128.109 E3.95758
G1 X95.570 Y127.971 E3.99562
G1 X94.596 Y127.800 E4.03366
G1 X93.628 Y127.594 E4.07174
G1 X92.195 Y127.223 E4.12871
G1 X91.249 Y126.934 E4.16679
G1 X90.314 Y126.612 E4.20483
G1 X89.391 Y126.258 E4.24287
G1 X88.455 Y125.860 E4.28200
G1 X87.144 Y125.234 E4.33791
G1 X86.270 Y124.769 E4.37599
G1 X85.414 Y124.275 E4.41403
G1 X84.576 Y123.751 E4.45207
G1 X83.756 Y123.198 E4.49010
G1 X82.956 Y122.617 E4.52818
G1 X81.797 Y121.695 E4.58515
G1 X81.050 Y121.046 E4.62323
G1 X80.327 Y120.372 E4.66127
G1 X79.628 Y119.673 E4.69931
G1 X78.954 Y118.950 E4.73734
G1 X78.306 Y118.204 E4.77538
G1 X77.684 Y117.436 E4.81342
G1 X77.089 Y116.646 E4.85146
G1 X76.522 Y115.836 E4.88950
G1 X75.983 Y115.006 E4.92757
G1 X75.231 Y113.731 E4.98455
G1 X74.767 Y112.857 E5.02262
G1 X74.333 Y111.969 E5.06066
G1 X73.931 Y111.066 E5.09870
G1 X73.561 Y110.149 E5.13674
G1 X73.113 Y108.910 E5.18742
G1 X94.706 Y102.309 E6.05628
G1 X95.115 Y103.051 E6.08892
G1 X95.524 Y103.625 E6.11600
G1 X95.999 Y104.143 E6.14306
G1 X96.534 Y104.600 E6.17012
G1 X97.120 Y104.988 E6.19718
G1 X97.750 Y105.302 E6.22424
G1 X98.413 Y105.537 E6.25133
G1 X99.181 Y105.712 E6.28166
G1 X99.638 Y105.767 F4800.000
G1 X99.431 Y104.890 F4800.000
G1 F1800
G1 X98.652 Y104.712 E6.31238
G1 X98.085 Y104.511 E6.33553
G1 X97.550 Y104.244 E6.35856
G1 X97.051 Y103.914 E6.38159
G1 X96.596 Y103.525 E6.40461
G1 X96.191 Y103.084 E6.42764
G1 X95.842 Y102.594 E6.45079
G1 X95.218 Y101.462 E6.50054
G1 X95.102 Y100.174 E6.55029
G1 X95.118 Y99.573 E6.57345
G1 X95.206 Y98.981 E6.59647
G1 X95.366 Y98.404 E6.61950
G1 X95.595 Y97.852 E6.64252
G1 X95.890 Y97.331 E6.66555
G1 X96.248 Y96.847 E6.68871
G1 X97.132 Y95.904 E6.73845
G1 X98.321 Y95.396 E6.78820
G1 X98.898 Y95.225 E6.81136
G1 X99.488 Y95.126 E6.83438
G1 X100.086 Y95.100 E6.85741
G1 X100.682 Y95.147 E6.88044
G1 F1800
G1 X101.268 Y95.266 E6.90346
G1 X101.839 Y95.457 E6.92662
G1 X103.009 Y96.006 E6.97637
G1 X103.860 Y96.980 E7.02611
G1 X104.201 Y97.476 E7.04927
G1 X104.477 Y98.007 E7.07230
G1 X104.687 Y98.567 E7.09532
G1 X104.827 Y99.149 E7.11835
G1 X104.894 Y99.743 E7.14137
G1 X104.889 Y100.345 E7.16453
G1 X104.738 Y101.548 E7.21118
G1 X104.300 Y102.355 E7.24651
G1 X104.018 Y102.807 E7.26703
G1 X103.642 Y103.279 E7.29024
G1 X103.215 Y103.699 E7.31327
G1 X102.741 Y104.063 E7.33629
G1 X102.221 Y104.369 E7.35950
G1 X101.761 Y104.574 E7.37888
G1 X101.182 Y104.756 E7.40222
G1 X99.913 Y105.000 E7.45197
G1 X99.489 Y104.903 E7.46868
G1 X105.640 Y101.244 F4800.000
G1 F1800
G1 X105.746 Y100.403 E7.50132
G1 X105.752 Y99.699 E7.52841
