; generated by Slic3r 1.2.9 on 2016-03-15 at 19:27:51

; external perimeters extrusion width = 0.40mm
; perimeters extrusion width = 0.67mm
; infill extrusion width = 0.67mm
; solid infill extrusion width = 0.67mm
; top infill extrusion width = 0.67mm

M107
M190 S55 ; set bed temperature
M104 S210 ; set temperature
G28 ; home all axes
G1 Z5 F5000 ; lift nozzle

M109 S210 ; wait for temperature to be reached
G21 ; set units to millimeters
G90 ; use absolute coordinates
M82 ; use absolute distances for extrusion
G92 E0
G1 Z0.240 F4800.000
G1 E-3.00000 F2400.00000
G92 E0
G1 X73.938 Y73.938 F4800.000
G1 E3.00000 F2400.00000
G1 F1800
G1 X75.316 Y72.630 E3.07313
G1 X76.578 Y71.542 E3.13721
G1 X78.054 Y70.389 E3.20928
G1 X78.835 Y69.826 E3.24636
G1 X79.632 Y69.282 E3.28346
G1 X81.041 Y68.393 E3.34758
G1 X82.672 Y67.471 E3.41967
G1 X84.161 Y66.720 E3.48387
G1 X85.037 Y66.317 E3.52095
G1 X85.924 Y65.937 E3.55808
G1 X86.818 Y65.581 E3.59513
G1 X87.723 Y65.248 E3.63222
G1 X89.502 Y64.670 E3.70421
G1 X91.113 Y64.230 E3.76847
G1 X92.937 Y63.826 E3.84036
G1 X94.583 Y63.543 E3.90463
G1 X95.537 Y63.414 E3.94166
G1 X96.499 Y63.310 E3.97888
G1 X98.364 Y63.179 E4.05084
G1 X100.082 Y63.143 E4.11697
G1 F1800
G1 X101.636 Y63.179 E4.17677
G1 X103.241 Y63.286 E4.23865
G1 X104.840 Y63.462 E4.30058
G1 X106.430 Y63.708 E4.36248
G1 X107.947 Y64.010 E4.42200
G1 X109.509 Y64.391 E4.48387
G1 X111.054 Y64.840 E4.54577
G1 X112.576 Y65.355 E4.60761
G1 X114.076 Y65.937 E4.66953
G1 X115.550 Y66.584 E4.73145
G1 X116.992 Y67.294 E4.79331
G1 X118.402 Y68.066 E4.85518
G1 X119.778 Y68.899 E4.91707
G1 X121.115 Y69.791 E4.97893
G1 X122.207 Y70.584 E5.03083
G1 X123.467 Y71.579 E5.09261
G1 X124.641 Y72.591 E5.15227
G1 X125.813 Y73.691 E5.21412
G1 X126.935 Y74.842 E5.27596
G1 X128.007 Y76.041 E5.33788
G1 X129.025 Y77.285 E5.39971
G1 X129.988 Y78.572 E5.46158
G1 X130.895 Y79.902 E5.52349
G1 X131.741 Y81.266 E5.58527
G1 X132.529 Y82.672 E5.64729
G1 X133.253 Y84.104 E5.70905
G1 X133.813 Y85.332 E5.76098
G1 X134.419 Y86.818 E5.82274
G1 X134.943 Y88.278 E5.88242
G1 X135.421 Y89.811 E5.94421
G1 X135.832 Y91.368 E6.00616
G1 X136.174 Y92.937 E6.06798
G1 X136.447 Y94.521 E6.12982
G1 X136.623 Y95.857 E6.18168
G1 X136.769 Y97.460 E6.24359
G1 X136.845 Y99.065 E6.30545
G1 X136.851 Y100.673 E6.36731
G1 X136.786 Y102.279 E6.42917
G1 X136.652 Y103.882 E6.49108
G1 X136.447 Y105.479 E6.55303
G1 X136.174 Y107.063 E6.61486
G1 X135.832 Y108.632 E6.67668
G1 X135.421 Y110.189 E6.73862
G1 X134.943 Y111.722 E6.80042
G1 X134.398 Y113.237 E6.86235
G1 X133.788 Y114.724 E6.92420
G1 X133.139 Y116.131 E6.98385
G1 X132.405 Y117.559 E7.04562
G1 X131.607 Y118.959 E7.10764
G1 X130.751 Y120.318 E7.16942
G1 X129.988 Y121.428 E7.22125
G1 X129.025 Y122.715 E7.28313
G1 X128.007 Y123.959 E7.34495
G1 X126.935 Y125.158 E7.40687
G1 X125.813 Y126.308 E7.46870
G1 X124.641 Y127.409 E7.53055
G1 X123.422 Y128.458 E7.59244
G1 X122.156 Y129.454 E7.65443
G1 X120.900 Y130.358 E7.71397
G1 X119.557 Y131.240 E7.77583
G1 X118.175 Y132.064 E7.83772
G1 X116.759 Y132.826 E7.89959
G1 X115.312 Y133.526 E7.96146
G1 X114.076 Y134.063 E8.01330
G1 X112.634 Y134.624 E8.07286
G1 X111.111 Y135.142 E8.13474
G1 X109.569 Y135.593 E8.19657
G1 X108.007 Y135.977 E8.25846
G1 X106.430 Y136.292 E8.32035
G1 X105.047 Y136.510 E8.37423
G1 X103.501 Y136.690 E8.43410
G1 X101.897 Y136.808 E8.49599
G1 X100.291 Y136.856 E8.55785
G1 X98.743 Y136.835 E8.61739
G1 X97.138 Y136.746 E8.67926
G1 X95.537 Y136.586 E8.74117
G1 X93.948 Y136.357 E8.80293
G1 X92.367 Y136.058 E8.86488
G1 X90.799 Y135.690 E8.92683
G1 X89.251 Y135.255 E8.98870
G1 X87.723 Y134.752 E9.05061
G1 X86.222 Y134.185 E9.11238
G1 X84.741 Y133.550 E9.17436
G1 X83.295 Y132.854 E9.23612
G1 X81.877 Y132.094 E9.29802
G1 X80.716 Y131.409 E9.34989
G1 X79.366 Y130.540 E9.41169
G1 X78.054 Y129.611 E9.47355
G1 X76.830 Y128.663 E9.53311
G1 X75.600 Y127.624 E9.59506
G1 X74.420 Y126.535 E9.65685
G1 X73.284 Y125.391 E9.71889
G1 X72.203 Y124.203 E9.78068
G1 X71.337 Y123.170 E9.83256
G1 X70.355 Y121.900 E9.89436
G1 X69.428 Y120.586 E9.95622
G1 X68.558 Y119.231 E10.01818
G1 X67.750 Y117.842 E10.08001
G1 X67.002 Y116.419 E10.14187
G1 X66.317 Y114.963 E10.20379
G1 X65.697 Y113.481 E10.26563
G1 X65.141 Y111.970 E10.32757
G1 X64.653 Y110.440 E10.38936
G1 X64.245 Y108.947 E10.44891
G1 X63.942 Y107.633 E10.50079
G1 X63.643 Y106.052 E10.56274
G1 X63.414 Y104.463 E10.62450
G1 X63.254 Y102.862 E10.68641
G1 X63.167 Y101.317 E10.74597
G1 X63.144 Y99.709 E10.80782
G1 X63.192 Y98.102 E10.86968
G1 X63.310 Y96.499 E10.93157
G1 X63.490 Y94.953 E10.99143
G1 X63.708 Y93.570 E11.04532
G1 X64.023 Y91.993 E11.10721
G1 X64.407 Y90.431 E11.16910
G1 X64.858 Y88.889 E11.23092
G1 X65.376 Y87.366 E11.29281
G1 X65.961 Y85.866 E11.35476
G1 X66.608 Y84.398 E11.41650
G1 X67.322 Y82.954 E11.47850
G1 X68.096 Y81.546 E11.54032
G1 X68.931 Y80.172 E11.60218
G1 X69.791 Y78.885 E11.66177
G1 X70.743 Y77.585 E11.72375
G1 X71.747 Y76.332 E11.78553
G1 X72.806 Y75.122 E11.84739
G1 X73.896 Y73.981 E11.90814
G1 X74.241 Y74.241 F4800.000
G1 F1800
G1 X75.604 Y72.947 E11.98047
G1 X76.849 Y71.874 E12.04370
G1 X78.310 Y70.733 E12.11504
G1 X79.870 Y69.639 E12.18835
G1 X81.260 Y68.761 E12.25162
G1 X82.874 Y67.848 E12.32298
G1 X84.344 Y67.107 E12.38632
G1 X86.086 Y66.334 E12.45965
G1 X87.864 Y65.652 E12.53294
G1 X89.626 Y65.080 E12.60420
G1 X91.215 Y64.647 E12.66759
G1 X93.021 Y64.246 E12.73877
G1 X94.645 Y63.967 E12.80218
G1 X96.538 Y63.736 E12.87555
G1 X98.385 Y63.607 E12.94679
G1 X100.081 Y63.572 E13.01207
G1 F1800
G1 X101.615 Y63.607 E13.07115
G1 X103.202 Y63.713 E13.13231
G1 X104.783 Y63.887 E13.19352
G1 X106.354 Y64.130 E13.25470
G1 X107.912 Y64.441 E13.31586
G1 X109.456 Y64.820 E13.37703
G1 X110.981 Y65.266 E13.43814
G1 X112.431 Y65.758 E13.49710
G1 X113.914 Y66.334 E13.55829
G1 X115.370 Y66.973 E13.61949
G1 X116.796 Y67.675 E13.68064
G1 X118.190 Y68.438 E13.74178
G1 X119.549 Y69.262 E13.80296
G1 X120.871 Y70.143 E13.86410
G1 X121.947 Y70.925 E13.91527
G1 X123.193 Y71.909 E13.97634
G1 X124.356 Y72.911 E14.03542
G1 X125.514 Y73.998 E14.09655
G1 X126.623 Y75.135 E14.15768
G1 X127.683 Y76.321 E14.21887
G1 X128.689 Y77.550 E14.27999
G1 X129.640 Y78.823 E14.34113
G1 X130.536 Y80.136 E14.40232
G1 X131.373 Y81.485 E14.46339
G1 X132.152 Y82.874 E14.52468
G1 X132.867 Y84.291 E14.58573
G1 X133.419 Y85.501 E14.63693
G1 X134.018 Y86.970 E14.69798
G1 X134.537 Y88.416 E14.75708
G1 X135.009 Y89.931 E14.81815
G1 X135.416 Y91.470 E14.87938
G1 X135.754 Y93.021 E14.94048
G1 X136.024 Y94.586 E15.00160
G1 X136.197 Y95.904 E15.05275
G1 X136.342 Y97.488 E15.11393
G1 X136.417 Y99.075 E15.17508
G1 X136.422 Y100.663 E15.23621
G1 X136.359 Y102.251 E15.29736
G1 X136.226 Y103.836 E15.35854
G1 X136.024 Y105.414 E15.41977
G1 X135.754 Y106.979 E15.48089
G1 X135.416 Y108.531 E15.54199
G1 X135.009 Y110.069 E15.60321
G1 X134.537 Y111.584 E15.66429
G1 X133.999 Y113.081 E15.72551
G1 X133.396 Y114.551 E15.78663
G1 X132.753 Y115.945 E15.84571
G1 X132.028 Y117.356 E15.90676
G1 X131.239 Y118.740 E15.96805
G1 X130.393 Y120.083 E16.02912
G1 X129.640 Y121.177 E16.08023
G1 X128.689 Y122.450 E16.14139
G1 X127.683 Y123.679 E16.20250
G1 X126.623 Y124.865 E16.26369
G1 X125.514 Y126.001 E16.32481
G1 X124.356 Y127.089 E16.38594
G1 X123.151 Y128.126 E16.44710
G1 X121.900 Y129.111 E16.50837
G1 X120.656 Y130.006 E16.56734
G1 X119.328 Y130.878 E16.62848
G1 X117.962 Y131.692 E16.68965
G1 X116.563 Y132.445 E16.75080
G1 X115.132 Y133.137 E16.81195
G1 X113.914 Y133.666 E16.86307
G1 X112.485 Y134.222 E16.92205
G1 X110.981 Y134.734 E16.98322
G1 X109.456 Y135.180 E17.04433
G1 X107.913 Y135.559 E17.10550
G1 X106.354 Y135.870 E17.16667
G1 X104.989 Y136.085 E17.21983
G1 X103.462 Y136.264 E17.27898
G1 X101.877 Y136.380 E17.34015
G1 X100.289 Y136.427 E17.40128
G1 X98.757 Y136.407 E17.46025
G1 X97.170 Y136.318 E17.52141
G1 X95.588 Y136.160 E17.58259
G1 X94.017 Y135.934 E17.64364
G1 X92.454 Y135.638 E17.70487
G1 X90.905 Y135.275 E17.76609
G1 X89.375 Y134.844 E17.82724
G1 X87.864 Y134.348 E17.88844
G1 X86.380 Y133.787 E17.94949
G1 X84.917 Y133.159 E18.01074
G1 X83.488 Y132.471 E18.07179
G1 X82.086 Y131.720 E18.13298
G1 X80.941 Y131.045 E18.18412
G1 X79.607 Y130.185 E18.24520
G1 X78.310 Y129.267 E18.30634
G1 X77.098 Y128.329 E18.36533
G1 X75.883 Y127.302 E18.42656
G1 X74.716 Y126.225 E18.48763
G1 X73.594 Y125.095 E18.54895
G1 X72.526 Y123.920 E18.61002
G1 X71.671 Y122.902 E18.66118
G1 X70.700 Y121.646 E18.72226
G1 X69.784 Y120.348 E18.78340
G1 X68.924 Y119.009 E18.84464
G1 X68.125 Y117.636 E18.90576
G1 X67.387 Y116.229 E18.96690
G1 X66.709 Y114.791 E19.02809
G1 X66.096 Y113.325 E19.08921
G1 X65.547 Y111.832 E19.15043
G1 X65.064 Y110.320 E19.21151
G1 X64.661 Y108.841 E19.27049
G1 X64.362 Y107.546 E19.32164
G1 X64.066 Y105.983 E19.38287
G1 X63.840 Y104.412 E19.44392
G1 X63.682 Y102.830 E19.50511
G1 X63.593 Y101.243 E19.56626
G1 X63.573 Y99.711 E19.62522
G1 X63.620 Y98.123 E19.68637
G1 X63.736 Y96.538 E19.74753
G1 X63.915 Y95.011 E19.80667
G1 X64.130 Y93.646 E19.85984
G1 X64.441 Y92.088 E19.92101
G1 X64.820 Y90.544 E19.98218
G1 X65.266 Y89.019 E20.04329
G1 X65.778 Y87.515 E20.10446
G1 X66.356 Y86.032 E20.16568
G1 X66.996 Y84.581 E20.22671
G1 X67.675 Y83.204 E20.28578
G1 X68.438 Y81.810 E20.34693
G1 X69.262 Y80.451 E20.40810
G1 X70.143 Y79.129 E20.46924
G1 X71.084 Y77.844 E20.53049
G1 X72.076 Y76.606 E20.59156
G1 X73.123 Y75.410 E20.65271
G1 X74.199 Y74.284 E20.71266
G1 E17.71266 F2400.00000
G92 E0
G1 X99.729 Y128.768 F4800.000
G1 E3.00000 F2400.00000
G1 F1800
G1 X100.137 Y105.390 E3.89972
G1 X101.244 Y105.183 E3.94303
G1 X101.779 Y105.025 E3.96452
G1 X102.295 Y104.811 E3.98599
G1 X102.785 Y104.545 E4.00746
G1 X103.245 Y104.229 E4.02893
G1 X103.669 Y103.867 E4.05040
G1 X104.053 Y103.462 E4.07187
G1 X104.391 Y103.022 E4.09323
G1 X104.729 Y102.460 E4.11844
G1 X104.976 Y101.911 E4.14161
G1 X105.172 Y101.289 E4.16669
G1 X105.291 Y100.648 E4.19179
G1 X105.330 Y100.047 E4.21495
G1 X105.296 Y99.397 E4.24003
G1 X105.183 Y98.755 E4.26509
G1 X104.828 Y97.588 E4.31202
G1 X125.274 Y86.255 E5.21155
G1 X126.056 Y87.851 E5.27994
G1 X126.560 Y88.998 E5.32816
G1 X127.015 Y90.167 E5.37643
G1 X127.418 Y91.355 E5.42469
G1 X127.769 Y92.558 E5.47291
G1 X128.015 Y93.548 E5.51216
G1 X128.267 Y94.761 E5.55984
G1 X128.469 Y95.999 E5.60810
G1 X128.616 Y97.245 E5.65637
G1 X128.709 Y98.495 E5.70464
G1 X128.748 Y99.749 E5.75290
G1 X128.731 Y101.003 E5.80116
G1 X128.660 Y102.256 E5.84943
G1 X128.534 Y103.504 E5.89770
G1 X128.355 Y104.743 E5.94590
G1 X128.171 Y105.732 E5.98458
G1 X127.954 Y106.713 E6.02324
G1 X127.635 Y107.924 E6.07145
G1 X127.263 Y109.122 E6.11972
G1 X126.839 Y110.303 E6.16798
G1 X126.364 Y111.463 E6.21625
G1 X125.839 Y112.603 E6.26451
G1 X125.265 Y113.718 E6.31278
G1 X124.642 Y114.807 E6.36105
G1 X123.973 Y115.867 E6.40931
G1 X123.258 Y116.898 E6.45757
G1 X122.499 Y117.896 E6.50584
G1 X121.697 Y118.861 E6.55411
G1 X120.854 Y119.789 E6.60237
G1 X119.971 Y120.680 E6.65064
G1 X119.051 Y121.531 E6.69885
G1 X118.285 Y122.184 E6.73757
G1 X117.301 Y122.960 E6.78578
G1 X116.283 Y123.693 E6.83404
G1 X115.236 Y124.379 E6.88226
G1 X114.373 Y124.898 E6.92098
G1 X113.275 Y125.500 E6.96919
G1 X112.150 Y126.055 E7.01746
G1 X111.002 Y126.560 E7.06572
G1 X109.833 Y127.015 E7.11398
G1 X108.646 Y127.418 E7.16220
G1 X107.668 Y127.707 E7.20145
G1 X106.467 Y128.012 E7.24913
G1 X105.239 Y128.267 E7.29739
G1 X104.001 Y128.469 E7.34566
G1 X102.755 Y128.616 E7.39392
G1 X101.505 Y128.709 E7.44215
G1 X99.789 Y128.766 E7.50823
G1 X100.166 Y128.325 F4800.000
G1 F1800
G1 X100.560 Y105.747 E8.37715
G1 X101.344 Y105.601 E8.40786
G1 X101.923 Y105.429 E8.43107
G1 X102.480 Y105.199 E8.45427
G1 X103.009 Y104.911 E8.47747
G1 X103.506 Y104.569 E8.50067
G1 X103.965 Y104.178 E8.52386
G1 X104.380 Y103.741 E8.54706
G1 X104.746 Y103.263 E8.57022
G1 X105.109 Y102.659 E8.59734
G1 X105.377 Y102.064 E8.62245
G1 X105.588 Y101.393 E8.64951
G1 X105.717 Y100.701 E8.67660
G1 X105.759 Y100.050 E8.70170
G1 X105.723 Y99.348 E8.72876
G1 X105.600 Y98.655 E8.75582
G1 X105.339 Y97.795 E8.79042
G1 X125.087 Y86.848 E9.65927
G1 X125.667 Y88.032 E9.70997
G1 X126.164 Y89.162 E9.75750
G1 X126.612 Y90.314 E9.80505
G1 X127.009 Y91.484 E9.85260
G1 X127.355 Y92.670 E9.90012
G1 X127.597 Y93.643 E9.93873
G1 X127.846 Y94.839 E9.98573
G1 X128.044 Y96.059 E10.03327
G1 X128.190 Y97.286 E10.08082
G1 X128.281 Y98.518 E10.12836
G1 X128.319 Y99.753 E10.17591
G1 X128.303 Y100.988 E10.22345
G1 X128.233 Y102.222 E10.27100
G1 X128.109 Y103.451 E10.31855
G1 X127.932 Y104.674 E10.36607
G1 X127.752 Y105.646 E10.40413
G1 X127.537 Y106.612 E10.44219
G1 X127.223 Y107.806 E10.48971
G1 X126.857 Y108.986 E10.53726
G1 X126.439 Y110.149 E10.58480
G1 X125.971 Y111.293 E10.63235
G1 X125.454 Y112.415 E10.67990
G1 X124.888 Y113.513 E10.72744
G1 X124.275 Y114.586 E10.77499
G1 X123.616 Y115.631 E10.82253
G1 X122.911 Y116.646 E10.87008
G1 X122.163 Y117.630 E10.91762
G1 X121.373 Y118.580 E10.96517
G1 X120.543 Y119.494 E11.01271
G1 X119.673 Y120.372 E11.06026
G1 X118.766 Y121.210 E11.10779
G1 X118.013 Y121.853 E11.14586
G1 X117.043 Y122.617 E11.19339
G1 X116.041 Y123.339 E11.24093
G1 X115.008 Y124.017 E11.28846
G1 X114.160 Y124.526 E11.32654
G1 X113.077 Y125.120 E11.37406
G1 X111.969 Y125.667 E11.42161
G1 X110.838 Y126.164 E11.46915
G1 X109.686 Y126.612 E11.51670
G1 X108.516 Y127.009 E11.56423
G1 X107.554 Y127.294 E11.60284
G1 X106.371 Y127.594 E11.64983
G1 X105.161 Y127.846 E11.69738
G1 X103.941 Y128.044 E11.74492
G1 X102.714 Y128.190 E11.79247
G1 X101.482 Y128.281 E11.84000
G1 X100.226 Y128.323 E11.88839
G1 X99.766 Y128.327 F4800.000
G1 X99.905 Y104.998 F4800.000
G1 F1800
G1 X98.650 Y104.712 E11.93794
G1 X98.124 Y104.528 E11.95936
G1 X97.624 Y104.287 E11.98074
G1 X97.154 Y103.990 E12.00213
G1 X96.719 Y103.641 E12.02360
G1 X96.359 Y103.281 E12.04316
G1 X96.010 Y102.846 E12.06464
G1 X95.712 Y102.374 E12.08612
G1 X95.489 Y101.917 E12.10567
G1 X95.301 Y101.392 E12.12715
G1 X95.173 Y100.851 E12.14853
G1 X95.108 Y100.299 E12.16992
G1 X95.105 Y99.743 E12.19130
G1 X95.166 Y99.191 E12.21268
G1 X95.289 Y98.648 E12.23410
G1 X95.714 Y97.425 E12.28395
G1 X96.595 Y96.475 E12.33379
G1 X97.016 Y96.112 E12.35521
G1 X97.476 Y95.799 E12.37659
G1 X97.967 Y95.540 E12.39798
G1 X98.485 Y95.339 E12.41936
G1 X99.025 Y95.197 E12.44084
G1 X99.528 Y95.121 E12.46039
G1 X100.088 Y95.099 E12.48196
G1 X100.595 Y95.135 E12.50152
G1 F1800
G1 X101.144 Y95.234 E12.52300
G1 X101.676 Y95.394 E12.54438
G1 X102.187 Y95.614 E12.56577
G1 X102.669 Y95.889 E12.58715
G1 X103.118 Y96.218 E12.60854
G1 X103.526 Y96.596 E12.62995
G1 X104.378 Y97.581 E12.68008
G1 X104.765 Y98.855 E12.73131
G1 X104.869 Y99.445 E12.75436
G1 X104.901 Y100.045 E12.77746
G1 X104.865 Y100.595 E12.79867
G1 X104.755 Y101.186 E12.82180
G1 X104.575 Y101.758 E12.84490
G1 X104.348 Y102.261 E12.86612
G1 X104.037 Y102.780 E12.88942
G1 X103.727 Y103.183 E12.90898
G1 X103.374 Y103.555 E12.92872
G1 X102.984 Y103.889 E12.94846
G1 X102.561 Y104.179 E12.96820
G1 X102.110 Y104.424 E12.98795
G1 X101.636 Y104.620 E13.00769
G1 X101.143 Y104.766 E13.02746
G1 X99.964 Y104.987 E13.07362
G1 X99.240 Y105.725 F4800.000
G1 F1800
G1 X98.846 Y128.301 E13.94246
G1 X97.778 Y128.233 E13.98365
G1 X96.795 Y128.138 E14.02166
G1 X96.044 Y128.042 E14.05076
G1 X95.082 Y127.890 E14.08824
G1 X94.112 Y127.701 E14.12626
G1 X93.388 Y127.537 E14.15483
G1 X92.432 Y127.290 E14.19285
G1 X91.484 Y127.009 E14.23089
G1 X90.547 Y126.696 E14.26890
G1 X89.850 Y126.439 E14.29747
G1 X88.934 Y126.069 E14.33549
G1 X88.031 Y125.667 E14.37353
G1 X87.143 Y125.234 E14.41154
G1 X85.840 Y124.526 E14.46864
G1 X84.993 Y124.017 E14.50665
G1 X84.164 Y123.479 E14.54467
G1 X83.543 Y123.047 E14.57377
G1 X82.760 Y122.468 E14.61126
G1 X81.986 Y121.852 E14.64930
G1 X81.235 Y121.211 E14.68731
G1 X80.150 Y120.199 E14.74441
G1 X79.457 Y119.494 E14.78243
G1 X78.790 Y118.766 E14.82044
G1 X78.305 Y118.203 E14.84901
G1 X77.684 Y117.436 E14.88701
G1 X77.234 Y116.845 E14.91558
G1 X76.661 Y116.041 E14.95358
G1 X76.241 Y115.412 E14.98268
G1 X75.725 Y114.586 E15.02016
G1 X75.231 Y113.730 E15.05820
G1 X74.767 Y112.857 E15.09622
G1 X74.439 Y112.192 E15.12477
