; generated by Slic3r 1.2.9 on 2016-03-15 at 19:24:16

; external perimeters extrusion width = 0.40mm
; perimeters extrusion width = 0.68mm
; infill extrusion width = 1.28mm
; solid infill extrusion width = 0.68mm
; top infill extrusion width = 0.68mm

M107
M190 S55 ; set bed temperature
M104 S210 ; set temperature
G28 ; home all axes
G1 Z5 F5000 ; lift nozzle

M109 S210 ; wait for temperature to be reached
G21 ; set units to millimeters
G90 ; use absolute coordinates
M82 ; use absolute distances for extrusion
G92 E0
G1 Z0.120 F4800.000
G1 E-3.00000 F2400.00000
G92 E0
G1 X73.814 Y82.133 F4800.000
G1 E3.00000 F2400.00000
G1 F1800
G1 X76.066 Y81.023 E3.02415
G1 X78.400 Y80.672 E3.04686
G1 X121.600 Y80.672 E3.46244
G1 X124.079 Y81.069 E3.48659
G1 F1800
G1 X126.309 Y82.222 E3.51074
G1 X128.067 Y84.014 E3.53489
G1 X129.177 Y86.266 E3.55904
G1 X129.528 Y88.600 E3.58175
G1 X129.528 Y111.400 E3.80109
G1 X129.131 Y113.879 E3.82524
G1 X127.978 Y116.109 E3.84939
G1 X126.186 Y117.867 E3.87354
G1 X123.934 Y118.977 E3.89769
G1 X121.600 Y119.328 E3.92040
G1 X78.400 Y119.328 E4.33598
G1 X75.921 Y118.931 E4.36013
G1 X73.691 Y117.778 E4.38428
G1 X71.933 Y115.986 E4.40843
G1 X70.823 Y113.734 E4.43258
G1 X70.472 Y111.400 E4.45529
G1 X70.472 Y88.600 E4.67463
G1 X70.869 Y86.121 E4.69878
G1 X72.022 Y83.891 E4.72293
G1 X73.771 Y82.175 E4.74650
G1 X73.971 Y82.297 F4800.000
G1 F1800
G1 X74.021 Y82.249 E4.74717
G1 X76.259 Y81.189 E4.77099
G1 X78.400 Y80.886 E4.79179
G1 X121.600 Y80.886 E5.20737
G1 X124.044 Y81.283 E5.23119
G1 F1800
G1 X126.236 Y82.435 E5.25501
G1 X127.951 Y84.221 E5.27883
G1 X129.011 Y86.459 E5.30265
G1 X129.314 Y88.600 E5.32346
G1 X129.314 Y111.400 E5.54279
G1 X128.917 Y113.844 E5.56661
G1 X127.765 Y116.036 E5.59043
G1 X125.979 Y117.751 E5.61425
G1 X123.741 Y118.811 E5.63807
G1 X121.600 Y119.114 E5.65887
G1 X78.400 Y119.114 E6.07446
G1 X75.956 Y118.717 E6.09828
G1 X73.764 Y117.565 E6.12210
G1 X72.049 Y115.779 E6.14592
G1 X70.989 Y113.541 E6.16974
G1 X70.686 Y111.400 E6.19054
G1 X70.686 Y88.600 E6.40988
G1 X71.083 Y86.156 E6.43370
G1 X72.235 Y83.964 E6.45752
G1 X73.928 Y82.339 E6.48010
G1 X74.127 Y82.463 F4800.000
G1 F1800
G1 X74.228 Y82.368 E6.48143
G1 X76.451 Y81.358 E6.50492
G1 X78.400 Y81.100 E6.52383
G1 X121.600 Y81.100 E6.93942
G1 X124.009 Y81.498 E6.96290
G1 F1800
G1 X126.162 Y82.647 E6.98638
G1 X127.832 Y84.428 E7.00987
G1 X128.842 Y86.651 E7.03335
G1 X129.100 Y88.600 E7.05227
G1 X129.100 Y111.400 E7.27160
G1 X128.702 Y113.809 E7.29509
G1 X127.552 Y115.962 E7.31857
G1 X125.772 Y117.632 E7.34206
G1 X123.549 Y118.642 E7.36554
G1 X121.600 Y118.900 E7.38446
G1 X78.400 Y118.900 E7.80004
G1 X75.991 Y118.502 E7.82353
G1 X73.838 Y117.353 E7.84701
G1 X72.168 Y115.572 E7.87050
G1 X71.158 Y113.349 E7.89398
G1 X70.900 Y111.400 E7.91290
G1 X70.900 Y88.600 E8.13223
G1 X71.298 Y86.191 E8.15572
G1 X72.447 Y84.038 E8.17920
G1 X74.083 Y82.504 E8.20077
G1 X74.280 Y82.630 F4800.000
G1 F1800
G1 X74.435 Y82.488 E8.20279
G1 X76.641 Y81.530 E8.22594
G1 X78.400 Y81.315 E8.24298
G1 X121.600 Y81.315 E8.65856
G1 X123.973 Y81.712 E8.68171
G1 F1800
G1 X126.087 Y82.860 E8.70485
G1 X127.712 Y84.635 E8.72800
G1 X128.670 Y86.841 E8.75114
G1 X128.885 Y88.600 E8.76819
G1 X128.885 Y111.400 E8.98752
G1 X128.488 Y113.773 E9.01067
G1 X127.340 Y115.887 E9.03381
G1 X125.565 Y117.512 E9.05696
G1 X123.359 Y118.470 E9.08010
G1 X121.600 Y118.685 E9.09714
G1 X78.400 Y118.685 E9.51273
G1 X76.027 Y118.288 E9.53587
G1 X73.913 Y117.140 E9.55902
G1 X72.288 Y115.365 E9.58216
G1 X71.330 Y113.159 E9.60531
G1 X71.115 Y111.400 E9.62235
G1 X71.115 Y88.600 E9.84169
G1 X71.512 Y86.227 E9.86483
G1 X72.660 Y84.113 E9.88798
G1 X74.236 Y82.670 E9.90853
G1 X74.431 Y82.798 F4800.000
G1 F1800
G1 X74.641 Y82.611 E9.91124
G1 X76.831 Y81.705 E9.93404
G1 X78.400 Y81.529 E9.94923
G1 X121.600 Y81.529 E10.36481
G1 X123.936 Y81.926 E10.38761
G1 F1800
G1 X126.011 Y83.073 E10.41041
G1 X127.589 Y84.841 E10.43321
G1 X128.495 Y87.031 E10.45601
G1 X128.671 Y88.600 E10.47120
G1 X128.671 Y111.400 E10.69053
G1 X128.274 Y113.737 E10.71333
G1 X127.127 Y115.811 E10.73613
G1 X125.359 Y117.389 E10.75893
G1 X123.169 Y118.295 E10.78173
G1 X121.600 Y118.471 E10.79692
G1 X78.400 Y118.471 E11.21251
G1 X76.063 Y118.074 E11.23531
G1 X73.989 Y116.927 E11.25811
G1 X72.411 Y115.159 E11.28091
G1 X71.505 Y112.969 E11.30371
G1 X71.329 Y111.400 E11.31890
G1 X71.329 Y88.600 E11.53823
G1 X71.726 Y86.263 E11.56103
G1 X72.873 Y84.189 E11.58383
G1 X74.386 Y82.838 E11.60334
G1 X74.579 Y82.969 F4800.000
G1 F1800
G1 X74.846 Y82.736 E11.60676
G1 X77.019 Y81.884 E11.62921
G1 X78.400 Y81.743 E11.64256
G1 X121.600 Y81.743 E12.05815
G1 X123.900 Y82.140 E12.08060
G1 F1800
G1 X125.933 Y83.285 E12.10305
G1 X127.464 Y85.046 E12.12549
G1 X128.316 Y87.219 E12.14794
G1 X128.457 Y88.600 E12.16130
G1 X128.457 Y111.400 E12.38064
G1 X128.060 Y113.700 E12.40309
G1 X126.915 Y115.733 E12.42553
G1 X125.154 Y117.264 E12.44798
G1 X122.981 Y118.116 E12.47043
G1 X121.600 Y118.257 E12.48379
G1 X78.400 Y118.257 E12.89937
G1 X76.100 Y117.860 E12.92182
G1 X74.067 Y116.715 E12.94427
G1 X72.536 Y114.954 E12.96672
G1 X71.684 Y112.781 E12.98917
G1 X71.543 Y111.400 E13.00253
G1 X71.543 Y88.600 E13.22186
G1 X71.940 Y86.300 E13.24431
G1 X73.085 Y84.267 E13.26676
G1 X74.533 Y83.008 E13.28522
G1 X74.724 Y83.140 F4800.000
G1 F1800
G1 X75.051 Y82.863 E13.28935
G1 X77.205 Y82.066 E13.31144
G1 X78.400 Y81.957 E13.32299
G1 X121.600 Y81.957 E13.73857
G1 X123.862 Y82.354 E13.76066
G1 F1800
G1 X125.854 Y83.498 E13.78275
G1 X127.337 Y85.251 E13.80485
G1 X128.134 Y87.405 E13.82694
G1 X128.243 Y88.600 E13.83849
G1 X128.243 Y111.400 E14.05782
G1 X127.846 Y113.662 E14.07991
G1 X126.702 Y115.654 E14.10201
G1 X124.949 Y117.137 E14.12410
G1 X122.795 Y117.934 E14.14619
G1 X121.600 Y118.043 E14.15774
G1 X78.400 Y118.043 E14.57332
G1 X76.138 Y117.646 E14.59541
G1 X74.146 Y116.502 E14.61751
G1 X72.663 Y114.749 E14.63960
G1 X71.866 Y112.595 E14.66169
G1 X71.757 Y111.400 E14.67324
G1 X71.757 Y88.600 E14.89257
G1 X72.154 Y86.338 E14.91467
G1 X73.298 Y84.346 E14.93676
G1 X74.678 Y83.179 E14.95415
G1 X74.866 Y83.313 F4800.000
G1 F1800
G1 X75.256 Y82.993 E14.95900
G1 X78.400 Y82.172 E14.99027
G1 X121.600 Y82.172 E15.40585
G1 X123.824 Y82.568 E15.42758
G1 F1800
G1 X125.773 Y83.710 E15.44931
G1 X127.207 Y85.456 E15.47104
G1 X128.028 Y88.600 E15.50231
G1 X128.028 Y111.400 E15.72164
G1 X127.632 Y113.624 E15.74337
G1 X126.490 Y115.573 E15.76510
G1 X124.744 Y117.007 E15.78683
G1 X121.600 Y117.828 E15.81810
G1 X78.400 Y117.828 E16.23368
G1 X76.176 Y117.432 E16.25541
G1 X74.227 Y116.290 E16.27715
G1 X72.793 Y114.544 E16.29888
G1 X71.971 Y111.400 E16.33014
G1 X71.971 Y88.600 E16.54948
G1 X72.368 Y86.376 E16.57121
G1 X73.510 Y84.427 E16.59294
G1 X74.819 Y83.351 E16.60924
G1 X75.005 Y83.488 F4800.000
G1 F1800
G1 X75.459 Y83.126 E16.61483
G1 X78.400 Y82.386 E16.64400
G1 X121.600 Y82.386 E17.05959
G1 X123.785 Y82.783 E17.08095
G1 F1800
G1 X125.691 Y83.922 E17.10231
G1 X127.074 Y85.659 E17.12367
G1 X127.814 Y88.600 E17.15285
G1 X127.814 Y111.400 E17.37218
G1 X127.417 Y113.585 E17.39354
G1 X126.278 Y115.491 E17.41491
G1 X124.541 Y116.874 E17.43627
G1 X121.600 Y117.614 E17.46544
G1 X78.400 Y117.614 E17.88102
G1 X76.215 Y117.217 E17.90239
G1 X74.309 Y116.078 E17.92375
G1 X72.926 Y114.341 E17.94511
G1 X72.186 Y111.400 E17.97428
G1 X72.186 Y88.600 E18.19362
G1 X72.583 Y86.415 E18.21498
G1 X73.722 Y84.509 E18.23635
G1 X74.958 Y83.525 E18.25154
G1 E15.25154 F2400.00000
G92 E0
G1 X120.837 Y110.637 F4800.000
G1 E3.00000 F2400.00000
G1 F1800
G1 X79.163 Y110.637 E3.40091
G1 X79.163 Y89.363 E3.60557
G1 X120.837 Y89.363 E4.00648
G1 X120.837 Y110.577 E4.21056
G1 X121.051 Y110.852 F4800.000
G1 F1800
G1 X78.948 Y110.852 E4.61559
G1 X78.948 Y89.148 E4.82437
G1 X121.051 Y89.148 E5.22940
G1 X121.051 Y110.792 E5.43761
G1 X121.266 Y111.066 F4800.000
G1 F1800
G1 X78.734 Y111.066 E5.84676
G1 X78.734 Y88.934 E6.05966
G1 X121.266 Y88.934 E6.46882
G1 X121.266 Y111.006 E6.68114
G1 X121.480 Y111.280 F4800.000
G1 F1800
G1 X78.520 Y111.280 E7.09442
G1 X78.520 Y88.720 E7.31144
G1 X121.480 Y88.720 E7.72472
G1 X121.480 Y111.220 E7.94117
G1 X121.085 Y111.216 F4800.000
G1 X120.719 Y110.455 F4800.000
G1 F1800
G1 X79.281 Y110.455 E8.34227
G1 X79.281 Y110.240 E8.34436
G1 X120.719 Y110.240 E8.74546
G1 X120.719 Y110.024 E8.74755
G1 X79.281 Y110.024 E9.14865
G1 X79.281 Y109.809 E9.15074
G1 X120.719 Y109.809 E9.55184
G1 X120.719 Y109.593 E9.55393
G1 X79.281 Y109.593 E9.95503
G1 X79.281 Y109.377 E9.95712
G1 X120.719 Y109.377 E10.35822
G1 X120.719 Y109.162 E10.36031
G1 X79.281 Y109.162 E10.76142
G1 X79.281 Y108.946 E10.76350
G1 X120.719 Y108.946 E11.16461
G1 X120.719 Y108.731 E11.16669
G1 X79.281 Y108.731 E11.56780
G1 X79.281 Y108.515 E11.56988
G1 X120.719 Y108.515 E11.97099
G1 X120.719 Y108.300 E11.97307
G1 X79.281 Y108.300 E12.37418
G1 X79.281 Y108.084 E12.37626
G1 X120.719 Y108.084 E12.77737
G1 X120.719 Y107.868 E12.77945
G1 X79.281 Y107.868 E13.18056
G1 X79.281 Y107.653 E13.18264
G1 X120.719 Y107.653 E13.58375
G1 X120.719 Y107.437 E13.58583
G1 X79.281 Y107.437 E13.98694
G1 X79.281 Y107.222 E13.98903
G1 X120.719 Y107.222 E14.39013
G1 X120.719 Y107.006 E14.39222
G1 X79.281 Y107.006 E14.79332
G1 X79.281 Y106.791 E14.79541
G1 X120.719 Y106.791 E15.19651
G1 X120.719 Y106.575 E15.19860
G1 X79.281 Y106.575 E15.59970
G1 X79.281 Y106.359 E15.60179
G1 X120.719 Y106.359 E16.00289
G1 X120.719 Y106.144 E16.00498
G1 X79.281 Y106.144 E16.40608
G1 X79.281 Y105.928 E16.40817
G1 X120.719 Y105.928 E16.80927
G1 X120.719 Y105.713 E16.81136
G1 X79.281 Y105.713 E17.21246
G1 X79.281 Y105.497 E17.21455
G1 X120.719 Y105.497 E17.61565
G1 X120.719 Y105.282 E17.61774
G1 X79.281 Y105.282 E18.01884
G1 X79.281 Y105.066 E18.02093
G1 X120.719 Y105.066 E18.42203
G1 X120.719 Y104.850 E18.42412
G1 X79.281 Y104.850 E18.82522
G1 X79.281 Y104.635 E18.82731
G1 X120.719 Y104.635 E19.22841
G1 X120.719 Y104.419 E19.23050
G1 X79.281 Y104.419 E19.63160
G1 X79.281 Y104.204 E19.63369
G1 X120.719 Y104.204 E20.03480
G1 X120.719 Y103.988 E20.03688
G1 X79.281 Y103.988 E20.43799
G1 X79.281 Y103.773 E20.44007
G1 X120.719 Y103.773 E20.84118
G1 X120.719 Y103.557 E20.84326
G1 X79.281 Y103.557 E21.24437
G1 X79.281 Y103.341 E21.24645
G1 X120.719 Y103.341 E21.64756
G1 X120.719 Y103.126 E21.64964
G1 X79.281 Y103.126 E22.05075
G1 X79.281 Y102.910 E22.05283
G1 X120.719 Y102.910 E22.45394
G1 X120.719 Y102.695 E22.45602
G1 X79.281 Y102.695 E22.85713
G1 X79.281 Y102.479 E22.85921
G1 X120.719 Y102.479 E23.26032
G1 X120.719 Y102.264 E23.26241
G1 X79.281 Y102.264 E23.66351
G1 X79.281 Y102.048 E23.66560
G1 X120.719 Y102.048 E24.06670
G1 X120.719 Y101.832 E24.06879
G1 X79.281 Y101.832 E24.46989
G1 X79.281 Y101.617 E24.47198
G1 X120.719 Y101.617 E24.87308
G1 X120.719 Y101.401 E24.87517
G1 X79.281 Y101.401 E25.27627
G1 X79.281 Y101.186 E25.27836
G1 X120.719 Y101.186 E25.67946
G1 X120.719 Y100.970 E25.68155
G1 X79.281 Y100.970 E26.08265
G1 X79.281 Y100.755 E26.08474
G1 X120.719 Y100.755 E26.48584
G1 X120.719 Y100.539 E26.48793
G1 X79.281 Y100.539 E26.88903
G1 X79.281 Y100.323 E26.89112
G1 X120.719 Y100.323 E27.29222
G1 X120.719 Y100.108 E27.29431
G1 X79.281 Y100.108 E27.69541
G1 X79.281 Y99.892 E27.69750
G1 X120.719 Y99.892 E28.09860
G1 X120.719 Y99.677 E28.10069
G1 X79.281 Y99.677 E28.50179
G1 X79.281 Y99.461 E28.50388
G1 X120.719 Y99.461 E28.90498
G1 X120.719 Y99.246 E28.90707
G1 X79.281 Y99.246 E29.30818
G1 X79.281 Y99.030 E29.31026
G1 X120.719 Y99.030 E29.71137
G1 X120.719 Y98.814 E29.71345
G1 X79.281 Y98.814 E30.11456
G1 X79.281 Y98.599 E30.11664
G1 X120.719 Y98.599 E30.51775
G1 X120.719 Y98.383 E30.51983
G1 X79.281 Y98.383 E30.92094
G1 X79.281 Y98.168 E30.92302
G1 X120.719 Y98.168 E31.32413
G1 X120.719 Y97.952 E31.32621
G1 X79.281 Y97.952 E31.72732
G1 X79.281 Y97.737 E31.72940
G1 X120.719 Y97.737 E32.13051
G1 X120.719 Y97.521 E32.13259
G1 X79.281 Y97.521 E32.53370
G1 X79.281 Y97.305 E32.53579
G1 X120.719 Y97.305 E32.93689
G1 X120.719 Y97.090 E32.93898
G1 X79.281 Y97.090 E33.34008
G1 X79.281 Y96.874 E33.34217
G1 X120.719 Y96.874 E33.74327
G1 X120.719 Y96.659 E33.74536
G1 X79.281 Y96.659 E34.14646
G1 X79.281 Y96.443 E34.14855
G1 X120.719 Y96.443 E34.54965
G1 X120.719 Y96.228 E34.55174
G1 X79.281 Y96.228 E34.95284
G1 X79.281 Y96.012 E34.95493
G1 X120.719 Y96.012 E35.35603
G1 X120.719 Y95.796 E35.35812
G1 X79.281 Y95.796 E35.75922
G1 X79.281 Y95.581 E35.76131
G1 X120.719 Y95.581 E36.16241
G1 X120.719 Y95.365 E36.16450
G1 X79.281 Y95.365 E36.56560
G1 X79.281 Y95.150 E36.56769
G1 X120.719 Y95.150 E36.96879
G1 X120.719 Y94.934 E36.97088
G1 X79.281 Y94.934 E37.37198
G1 X79.281 Y94.719 E37.37407
G1 X120.719 Y94.719 E37.77517
G1 X120.719 Y94.503 E37.77726
G1 X79.281 Y94.503 E38.17836
G1 X79.281 Y94.287 E38.18045
G1 X120.719 Y94.287 E38.58155
G1 X120.719 Y94.072 E38.58364
G1 X79.281 Y94.072 E38.98475
G1 X79.281 Y93.856 E38.98683
G1 X120.719 Y93.856 E39.38794
G1 X120.719 Y93.641 E39.39002
G1 X79.281 Y93.641 E39.79113
G1 X79.281 Y93.425 E39.79321
G1 X120.719 Y93.425 E40.19432
G1 X120.719 Y93.210 E40.19640
G1 X79.281 Y93.210 E40.59751
G1 X79.281 Y92.994 E40.59959
G1 X120.719 Y92.994 E41.00070
G1 X120.719 Y92.778 E41.00278
G1 X79.281 Y92.778 E41.40389
G1 X79.281 Y92.563 E41.40597
G1 X120.719 Y92.563 E41.80708
G1 X120.719 Y92.347 E41.80917
G1 X79.281 Y92.347 E42.21027
G1 X79.281 Y92.132 E42.21236
G1 X120.719 Y92.132 E42.61346
G1 X120.719 Y91.916 E42.61555
G1 X79.281 Y91.916 E43.01665
G1 X79.281 Y91.701 E43.01874
G1 X120.719 Y91.701 E43.41984
G1 X120.719 Y91.485 E43.42193
G1 X79.281 Y91.485 E43.82303
G1 X79.281 Y91.269 E43.82512
G1 X120.719 Y91.269 E44.22622
G1 X120.719 Y91.054 E44.22831
G1 X79.281 Y91.054 E44.62941
G1 X79.281 Y90.838 E44.63150
G1 X120.719 Y90.838 E45.03260
G1 X120.719 Y90.623 E45.03469
G1 X79.281 Y90.623 E45.43579
G1 X79.281 Y90.407 E45.43788
G1 X120.719 Y90.407 E45.83898
G1 X120.719 Y90.192 E45.84107
G1 X79.281 Y90.192 E46.24217
G1 X79.281 Y89.976 E46.24426
G1 X120.719 Y89.976 E46.64536
G1 X120.719 Y89.760 E46.64745
G1 X79.281 Y89.760 E47.04855
G1 X79.281 Y89.545 E47.05064
G1 X120.719 Y89.545 E47.45174
M104 S205 ; set temperature
M140 S50 ; wait for bed temperature to be reached
G1 Z0.220 F4800.000
G1 E44.45174 F2400.00000
G92 E0
G1 X119.564 Y109.364 F4800.000
G1 E3.00000 F2400.00000
G1 F1800
G1 X80.436 Y109.364 E3.96417
G1 X80.436 Y90.636 E4.42567
G1 X119.564 Y90.636 E5.38984
G1 X119.564 Y109.304 E5.84986
G1 X120.223 Y110.023 F4800.000
G1 F1800
G1 X79.777 Y110.023 E6.84648
G1 X79.777 Y89.977 E7.34043
G1 X120.223 Y89.977 E8.33706
G1 X120.223 Y109.963 E8.82953
G1 X120.881 Y110.681 F4800.000
G1 F1800
G1 X79.119 Y110.681 E9.85861
G1 X79.119 Y89.319 E10.38502
G1 X120.881 Y89.319 E11.41410
G1 X120.881 Y110.621 E11.93902
G1 X121.400 Y111.200 F4800.000
G1 F900
G1 X78.600 Y111.200 E12.54525
G1 X78.600 Y88.800 E12.86252
G1 X121.400 Y88.800 E13.46874
G1 X121.400 Y111.140 E13.78517
G1 X121.005 Y111.136 F4800.000
G1 X119.005 Y109.002 F4800.000
G1 F1200
G1 X119.005 Y90.998 E14.23440
G1 X118.338 Y90.998 E14.25104
G1 X118.338 Y109.002 E14.70027
G1 X117.671 Y109.002 E14.71691
G1 X117.671 Y90.998 E15.16614
G1 X117.004 Y90.998 E15.18278
G1 X117.004 Y109.002 E15.63201
G1 X116.337 Y109.002 E15.64865
G1 X116.337 Y90.998 E16.09788
G1 X115.670 Y90.998 E16.11452
G1 X115.670 Y109.002 E16.56375
G1 X115.004 Y109.002 E16.58039
G1 X115.004 Y90.998 E17.02962
G1 X114.337 Y90.998 E17.04626
G1 X114.337 Y109.002 E17.49550
G1 X113.670 Y109.002 E17.51213
G1 X113.670 Y90.998 E17.96137
G1 X113.003 Y90.998 E17.97800
G1 X113.003 Y109.002 E18.42724
G1 X112.336 Y109.002 E18.44387
G1 X112.336 Y90.998 E18.89311
G1 X111.670 Y90.998 E18.90975
G1 X111.670 Y109.002 E19.35898
G1 X111.003 Y109.002 E19.37562
G1 X111.003 Y90.998 E19.82485
G1 X110.336 Y90.998 E19.84149
G1 X110.336 Y109.002 E20.29072
G1 X109.669 Y109.002 E20.30736
G1 X109.669 Y90.998 E20.75659
G1 X109.002 Y90.998 E20.77323
G1 X109.002 Y109.002 E21.22246
G1 X108.335 Y109.002 E21.23910
G1 X108.335 Y90.998 E21.68833
G1 X107.669 Y90.998 E21.70497
G1 X107.669 Y109.002 E22.15420
G1 X107.002 Y109.002 E22.17084
G1 X107.002 Y90.998 E22.62007
G1 X106.335 Y90.998 E22.63671
