; generated by Slic3r 1.2.9 on 2016-03-08 at 18:02:15

; external perimeters extrusion width = 0.40mm
; perimeters extrusion width = 0.67mm
; infill extrusion width = 0.67mm
; solid infill extrusion width = 0.67mm
; top infill extrusion width = 0.67mm

M107
M190 S55 ; set bed temperature
M104 S210 ; set temperature
G28 ; home all axes
G1 Z5 F5000 ; lift nozzle

M109 S210 ; wait for temperature to be reached
G21 ; set units to millimeters
G90 ; use absolute coordinates
M82 ; use absolute distances for extrusion
G92 E0
G1 Z0.200 F4800.000
G1 E-3.00000 F2400.00000
G92 E0
G1 X49.048 Y79.792 F4800.000
G1 E3.00000 F2400.00000
G1 F1800
G1 X123.523 Y34.012 E4.68185
G1 X125.716 Y33.131 E4.72730
G1 X127.204 Y32.972 E4.75610
G1 X170.404 Y32.972 E5.58722
G1 X172.733 Y33.369 E5.63267
G1 F1800
G1 X174.799 Y34.515 E5.67813
G1 X176.369 Y36.282 E5.72359
G1 X177.264 Y38.468 E5.76904
G1 X177.433 Y40.000 E5.79868
G1 X177.433 Y160.000 E8.10732
G1 X177.035 Y162.329 E8.15278
G1 X175.889 Y164.395 E8.19823
G1 X174.122 Y165.964 E8.24369
G1 X171.936 Y166.859 E8.28915
G1 X170.404 Y167.028 E8.31879
G1 X127.204 Y167.028 E9.14990
G1 X124.875 Y166.631 E9.19536
G1 X123.523 Y165.988 E9.22416
G1 X25.915 Y105.988 E11.42842
G1 X24.139 Y104.429 E11.47388
G1 X22.979 Y102.371 E11.51933
G1 X22.568 Y100.044 E11.56479
G1 X22.950 Y97.713 E11.61025
G1 X24.084 Y95.640 E11.65570
G1 X25.915 Y94.012 E11.70283
G1 X48.997 Y79.824 E12.22409
G1 X49.183 Y80.011 F4800.000
G1 F1800
G1 X123.658 Y34.231 E13.90594
G1 X125.812 Y33.373 E13.95055
G1 X127.204 Y33.229 E13.97747
G1 X170.404 Y33.229 E14.80859
G1 X172.689 Y33.626 E14.85320
G1 F1800
G1 X174.706 Y34.770 E14.89781
G1 X176.218 Y36.528 E14.94242
G1 X177.048 Y38.693 E14.98703
G1 X177.176 Y40.000 E15.01229
G1 X177.176 Y160.000 E17.32093
G1 X176.778 Y162.285 E17.36554
G1 X175.634 Y164.301 E17.41015
G1 X173.876 Y165.813 E17.45476
G1 X171.711 Y166.644 E17.49937
G1 X170.404 Y166.771 E17.52463
G1 X127.204 Y166.771 E18.35574
G1 X124.919 Y166.374 E18.40036
G1 X123.658 Y165.769 E18.42727
G1 X26.050 Y105.769 E20.63154
G1 X24.311 Y104.234 E20.67615
G1 X23.193 Y102.203 E20.72076
G1 X22.825 Y99.913 E20.76537
G1 X23.251 Y97.634 E20.80998
G1 X24.422 Y95.632 E20.85459
G1 X26.050 Y94.231 E20.89591
G1 X49.132 Y80.043 E21.41717
G1 X49.318 Y80.230 F4800.000
G1 F1800
G1 X123.793 Y34.450 E23.09902
G1 X125.908 Y33.616 E23.14277
G1 X127.204 Y33.486 E23.16783
G1 X170.404 Y33.486 E23.99894
G1 X172.643 Y33.883 E24.04269
G1 F1800
G1 X174.610 Y35.025 E24.08644
G1 X176.063 Y36.774 E24.13019
G1 X176.918 Y40.000 E24.19440
G1 X176.918 Y160.000 E26.50303
G1 X176.522 Y162.239 E26.54678
G1 X175.379 Y164.205 E26.59053
G1 X173.630 Y165.659 E26.63428
G1 X170.404 Y166.514 E26.69849
G1 X127.204 Y166.514 E27.52961
G1 X124.965 Y166.117 E27.57336
G1 X123.793 Y165.550 E27.59841
G1 X26.184 Y105.550 E29.80268
G1 X24.485 Y104.039 E29.84642
G1 X23.408 Y102.036 E29.89017
G1 X23.085 Y99.785 E29.93392
G1 X23.556 Y97.560 E29.97767
G1 X24.763 Y95.633 E30.02142
G1 X26.184 Y94.450 E30.05700
G1 X49.267 Y80.262 E30.57826
G1 X49.452 Y80.449 F4800.000
G1 F1800
G1 X123.927 Y34.669 E32.26011
G1 X126.003 Y33.859 E32.30298
G1 X127.204 Y33.743 E32.32619
G1 X170.404 Y33.743 E33.15730
G1 X172.597 Y34.140 E33.20017
G1 F1800
G1 X174.512 Y35.280 E33.24304
G1 X175.905 Y37.019 E33.28591
G1 X176.661 Y40.000 E33.34509
G1 X176.661 Y160.000 E35.65372
G1 X176.265 Y162.193 E35.69659
G1 X175.124 Y164.107 E35.73947
G1 X173.386 Y165.501 E35.78234
G1 X170.404 Y166.257 E35.84151
G1 X127.204 Y166.257 E36.67262
G1 X125.011 Y165.860 E36.71550
G1 X123.927 Y165.331 E36.73871
G1 X26.319 Y105.331 E38.94297
G1 X24.659 Y103.844 E38.98584
G1 X23.625 Y101.870 E39.02871
G1 X23.348 Y99.659 E39.07158
G1 X23.864 Y97.491 E39.11445
G1 X25.106 Y95.642 E39.15732
G1 X26.319 Y94.669 E39.18722
G1 X49.401 Y80.481 E39.70848
G1 E36.70848 F2400.00000
G92 E0
G1 X152.554 Y117.100 F4800.000
G1 E3.00000 F2400.00000
G1 F1800
G1 X152.554 Y125.783 E3.16705
G1 X170.254 Y156.440 E3.84810
G1 X170.254 Y159.850 E3.91370
G1 X127.354 Y159.850 E4.73904
G1 X127.354 Y156.328 E4.80680
G1 X41.396 Y106.700 E6.71634
G1 X41.422 Y106.655 E6.71735
G1 X29.896 Y100.000 E6.97341
G1 X41.422 Y93.345 E7.22947
G1 X41.396 Y93.300 E7.23048
G1 X127.354 Y43.672 E9.14002
G1 X127.354 Y40.150 E9.20778
G1 X170.254 Y40.150 E10.03312
G1 X170.254 Y43.560 E10.09872
G1 X152.554 Y74.217 E10.77977
G1 X152.554 Y82.900 E10.94682
G1 X153.791 Y82.900 E10.97063
G1 X153.791 Y81.900 E10.98986
G1 X158.500 Y81.900 E11.08045
G1 X158.500 Y84.002 E11.12089
G1 X158.618 Y84.389 E11.12868
G1 X158.654 Y84.757 E11.13579
G1 X158.654 Y115.243 E11.72229
G1 X158.618 Y115.611 E11.72941
G1 X158.500 Y115.998 E11.73719
G1 X158.500 Y118.100 E11.77763
G1 X153.791 Y118.100 E11.86822
G1 X153.791 Y117.100 E11.88746
G1 X152.614 Y117.100 E11.91011
G1 X152.164 Y117.010 F4800.000
G1 X152.297 Y116.843 F4800.000
G1 F1800
G1 X152.297 Y125.852 E12.08343
G1 X169.997 Y156.509 E12.76448
G1 X169.997 Y159.593 E12.82381
G1 X127.611 Y159.593 E13.63926
G1 X127.611 Y156.180 E13.70493
G1 X41.747 Y106.606 E15.61237
G1 X41.774 Y106.561 E15.61338
G1 X30.410 Y100.000 E15.86583
G1 X41.774 Y93.439 E16.11827
G1 X41.747 Y93.394 E16.11928
G1 X127.611 Y43.820 E18.02673
G1 X127.611 Y40.407 E18.09239
G1 X169.997 Y40.407 E18.90785
G1 X169.997 Y43.491 E18.96717
G1 X152.297 Y74.148 E19.64822
G1 X152.297 Y83.157 E19.82154
G1 X154.048 Y83.157 E19.85524
G1 X154.048 Y82.157 E19.87448
G1 X158.243 Y82.157 E19.95517
G1 X158.243 Y84.040 E19.99140
G1 X158.364 Y84.440 E19.99944
G1 X158.397 Y84.770 E20.00582
G1 X158.397 Y115.230 E20.59183
G1 X158.364 Y115.560 E20.59821
G1 X158.243 Y115.960 E20.60625
G1 X158.243 Y117.843 E20.64248
G1 X154.048 Y117.843 E20.72317
G1 X154.048 Y116.843 E20.74241
G1 X152.357 Y116.843 E20.77495
G1 E17.77495 F2400.00000
G92 E0
G1 X148.804 Y68.841 F4800.000
G1 E3.00000 F2400.00000
G1 F1800
G1 X134.144 Y43.450 E3.56407
G1 X163.464 Y43.450 E4.12814
G1 X148.834 Y68.790 E4.69106
G1 X148.604 Y69.188 F4800.000
G1 E1.69106 F2400.00000
G92 E0
G1 X44.778 Y99.555 F4800.000
G1 E3.00000 F2400.00000
G1 F1800
G1 X44.836 Y99.887 E3.00650
G1 X44.824 Y100.225 E3.01300
G1 X44.743 Y100.553 E3.01950
G1 X44.595 Y100.856 E3.02599
G1 X44.387 Y101.122 E3.03249
G1 X44.128 Y101.340 E3.03899
G1 X43.830 Y101.498 E3.04549
G1 X43.514 Y101.589 E3.05180
G1 X43.274 Y101.614 E3.05646
G1 X42.944 Y101.591 E3.06282
G1 X42.626 Y101.500 E3.06918
G1 X42.411 Y101.395 E3.07379
G1 X42.143 Y101.201 E3.08015
G1 X41.922 Y100.955 E3.08651
G1 X41.795 Y100.752 E3.09112
G1 X41.671 Y100.445 E3.09748
G1 X41.612 Y100.113 E3.10398
G1 X41.624 Y99.775 E3.11048
G1 X41.706 Y99.447 E3.11698
G1 X41.854 Y99.144 E3.12348
G1 X42.062 Y98.878 E3.12998
G1 X42.321 Y98.660 E3.13648
G1 X42.619 Y98.502 E3.14297
G1 X42.934 Y98.411 E3.14929
G1 F1800
G1 X43.175 Y98.386 E3.15394
G1 X43.505 Y98.409 E3.16030
G1 X43.823 Y98.500 E3.16667
G1 X44.038 Y98.605 E3.17128
G1 X44.305 Y98.799 E3.17764
G1 X44.527 Y99.045 E3.18400
G1 X44.654 Y99.248 E3.18861
G1 X44.755 Y99.499 E3.19381
G1 E0.19381 F2400.00000
G92 E0
G1 X141.112 Y87.136 F4800.000
G1 E3.00000 F2400.00000
G1 F1800
G1 X141.112 Y86.764 E3.00717
G1 X141.185 Y86.398 E3.01434
G1 X141.328 Y86.054 E3.02150
G1 X141.535 Y85.744 E3.02867
G1 X141.798 Y85.481 E3.03584
G1 X142.108 Y85.274 E3.04301
G1 X142.452 Y85.131 E3.05018
G1 F1800
G1 X142.818 Y85.058 E3.05735
G1 X143.228 Y85.060 E3.06524
G1 X143.557 Y85.132 E3.07172
G1 X143.900 Y85.274 E3.07886
G1 X144.210 Y85.481 E3.08603
G1 X144.473 Y85.744 E3.09320
G1 X144.680 Y86.054 E3.10037
G1 X144.823 Y86.398 E3.10753
G1 X144.895 Y86.764 E3.11470
G1 X144.895 Y87.136 E3.12187
G1 X144.823 Y87.502 E3.12904
G1 X144.680 Y87.846 E3.13621
G1 X144.473 Y88.156 E3.14338
G1 X144.210 Y88.419 E3.15054
G1 X143.900 Y88.626 E3.15771
G1 X143.556 Y88.769 E3.16488
G1 X143.190 Y88.842 E3.17205
G1 X142.818 Y88.842 E3.17922
G1 X142.452 Y88.769 E3.18639
G1 X142.108 Y88.626 E3.19356
G1 X141.798 Y88.419 E3.20072
G1 X141.535 Y88.156 E3.20789
G1 X141.328 Y87.846 E3.21506
G1 X141.185 Y87.502 E3.22223
G1 X141.124 Y87.195 E3.22824
G1 X141.112 Y87.136 F4800.000
G1 E0.22824 F2400.00000
G92 E0
G1 X60.299 Y99.664 F4800.000
G1 E3.00000 F2400.00000
G1 F1800
G1 X60.334 Y100.000 E3.00650
G1 X60.299 Y100.336 E3.01300
G1 X60.194 Y100.657 E3.01950
G1 X60.029 Y100.944 E3.02586
G1 X59.875 Y101.127 E3.03047
G1 X59.622 Y101.339 E3.03682
G1 X59.332 Y101.494 E3.04314
G1 X59.102 Y101.569 E3.04779
G1 X58.775 Y101.615 E3.05416
G1 X58.438 Y101.591 E3.06066
G1 X58.120 Y101.500 E3.06702
G1 X57.905 Y101.395 E3.07163
G1 X57.637 Y101.201 E3.07799
G1 X57.411 Y100.950 E3.08448
G1 X57.242 Y100.657 E3.09098
G1 X57.138 Y100.336 E3.09748
G1 X57.102 Y100.000 E3.10398
G1 X57.138 Y99.664 E3.11048
G1 X57.242 Y99.343 E3.11698
G1 X57.407 Y99.056 E3.12334
G1 X57.561 Y98.873 E3.12795
G1 X57.815 Y98.660 E3.13431
G1 X58.113 Y98.502 E3.14081
G1 X58.431 Y98.411 E3.14717
G1 F1800
G1 X58.669 Y98.386 E3.15178
G1 X58.999 Y98.409 E3.15814
G1 X59.317 Y98.500 E3.16450
G1 X59.532 Y98.605 E3.16911
G1 X59.800 Y98.799 E3.17547
G1 X60.026 Y99.050 E3.18197
G1 X60.194 Y99.343 E3.18847
G1 X60.280 Y99.607 E3.19381
G1 X62.821 Y96.250 F4800.000
G1 F1800
G1 X62.821 Y89.590 E3.32193
G1 X131.153 Y50.139 E4.83990
G1 X145.054 Y74.217 E5.37479
G1 X145.054 Y82.900 E5.54184
G1 X140.811 Y82.900 E5.62346
G1 X140.443 Y82.936 E5.63058
G1 X140.096 Y83.041 E5.63755
G1 X139.773 Y83.214 E5.64460
G1 X139.633 Y83.318 E5.64795
G1 X139.372 Y83.579 E5.65507
G1 X139.266 Y83.722 E5.65848
G1 X139.172 Y83.880 E5.66203
G1 X139.034 Y84.213 E5.66895
G1 X138.963 Y84.572 E5.67600
G1 X138.954 Y84.754 E5.67949
G1 X138.954 Y96.250 E5.90067
G1 X62.881 Y96.250 E7.36420
G1 X62.422 Y96.270 F4800.000
G1 X62.564 Y103.493 F4800.000
G1 F1800
G1 X139.211 Y103.493 E8.83878
G1 X139.211 Y115.239 E9.06477
G1 X139.220 Y115.402 E9.06790
G1 X139.281 Y115.712 E9.07398
G1 X139.405 Y116.009 E9.08017
G1 X139.480 Y116.135 E9.08299
G1 X139.567 Y116.252 E9.08580
G1 X139.790 Y116.476 E9.09188
G1 X140.063 Y116.659 E9.09820
G1 X140.186 Y116.717 E9.10081
G1 X140.494 Y116.810 E9.10700
G1 X140.824 Y116.843 E9.11339
G1 X145.311 Y116.843 E9.19971
G1 X145.311 Y125.852 E9.37303
G1 X131.247 Y150.212 E9.91419
G1 X62.564 Y110.558 E11.43996
G1 X62.564 Y103.553 E11.57473
G1 X44.568 Y100.189 F4800.000
G1 F1800
G1 X44.500 Y100.464 E11.58019
G1 X44.375 Y100.719 E11.58565
G1 X44.201 Y100.943 E11.59111
G1 X43.983 Y101.125 E11.59657
G1 X43.733 Y101.258 E11.60203
G1 X43.465 Y101.335 E11.60739
G1 X43.269 Y101.356 E11.61118
G1 X42.989 Y101.337 E11.61659
G1 X42.718 Y101.259 E11.62200
G1 X42.543 Y101.174 E11.62574
G1 X42.316 Y101.009 E11.63115
G1 X42.128 Y100.800 E11.63656
G1 X42.025 Y100.635 E11.64030
G1 X41.920 Y100.374 E11.64571
G1 X41.870 Y100.095 E11.65117
G1 X41.880 Y99.811 E11.65663
G1 X41.949 Y99.536 E11.66209
G1 X42.073 Y99.281 E11.66754
G1 X42.248 Y99.057 E11.67300
G1 X42.465 Y98.875 E11.67846
G1 X42.716 Y98.742 E11.68392
G1 X42.984 Y98.665 E11.68929
G1 F1800
G1 X43.179 Y98.644 E11.69307
G1 X43.460 Y98.663 E11.69848
G1 X43.730 Y98.741 E11.70389
G1 X43.905 Y98.826 E11.70763
G1 X44.133 Y98.991 E11.71304
G1 X44.321 Y99.200 E11.71845
G1 X44.424 Y99.365 E11.72219
G1 X44.529 Y99.626 E11.72760
G1 X44.578 Y99.905 E11.73306
G1 X44.571 Y100.129 E11.73737
G1 X44.568 Y100.189 F4800.000
G1 E8.73737 F2400.00000
G92 E0
G1 X71.833 Y100.000 F4800.000
G1 E3.00000 F2400.00000
G1 F1800
G1 X71.877 Y99.582 E3.00808
G1 X72.007 Y99.183 E3.01616
G1 X72.217 Y98.819 E3.02424
G1 X72.498 Y98.507 E3.03233
G1 X72.838 Y98.260 E3.04041
G1 X73.221 Y98.089 E3.04849
G1 X73.632 Y98.002 E3.05657
G1 F1800
G1 X74.052 Y98.002 E3.06465
G1 X74.463 Y98.089 E3.07273
G1 X74.847 Y98.260 E3.08081
G1 X75.187 Y98.507 E3.08890
G1 X75.468 Y98.819 E3.09698
G1 X75.678 Y99.183 E3.10506
G1 X75.808 Y99.582 E3.11314
G1 X75.852 Y100.000 E3.12122
G1 X75.808 Y100.418 E3.12930
G1 X75.678 Y100.817 E3.13738
G1 X75.468 Y101.181 E3.14547
G1 X75.187 Y101.493 E3.15355
G1 X74.847 Y101.740 E3.16163
G1 X74.463 Y101.911 E3.16971
G1 X74.052 Y101.998 E3.17779
G1 X73.632 Y101.998 E3.18587
G1 X73.221 Y101.911 E3.19395
G1 X72.838 Y101.740 E3.20204
G1 X72.498 Y101.493 E3.21012
G1 X72.217 Y101.181 E3.21820
G1 X72.007 Y100.817 E3.22628
G1 X71.877 Y100.418 E3.23436
G1 X71.839 Y100.060 E3.24129
G1 X60.076 Y100.000 F4800.000
G1 F1800
G1 X60.046 Y100.282 E3.24675
G1 X59.958 Y100.552 E3.25221
G1 X59.818 Y100.796 E3.25761
G1 X59.693 Y100.945 E3.26136
G1 X59.477 Y101.125 E3.26677
G1 X59.231 Y101.256 E3.27213
G1 X59.044 Y101.317 E3.27592
G1 X58.766 Y101.356 E3.28133
G1 X58.483 Y101.337 E3.28678
G1 X58.212 Y101.259 E3.29219
G1 X58.038 Y101.174 E3.29594
G1 X57.810 Y101.009 E3.30134
G1 X57.620 Y100.798 E3.30680
G1 X57.478 Y100.552 E3.31226
G1 X57.391 Y100.282 E3.31772
G1 X57.361 Y100.000 E3.32318
G1 X57.391 Y99.718 E3.32864
G1 X57.478 Y99.448 E3.33410
G1 X57.619 Y99.204 E3.33951
G1 X57.744 Y99.055 E3.34325
G1 X57.959 Y98.875 E3.34866
G1 X58.210 Y98.742 E3.35412
G1 X58.480 Y98.664 E3.35953
G1 F1800
G1 X58.674 Y98.644 E3.36327
G1 X58.954 Y98.663 E3.36868
G1 X59.224 Y98.741 E3.37409
G1 X59.399 Y98.826 E3.37783
G1 X59.627 Y98.991 E3.38324
G1 X59.816 Y99.202 E3.38870
G1 X59.958 Y99.448 E3.39416
G1 X60.046 Y99.718 E3.39962
G1 X60.069 Y99.940 E3.40392
G1 X60.076 Y100.000 F4800.000
G1 E0.40392 F2400.00000
G92 E0
G1 X133.699 Y43.193 F4800.000
G1 E3.00000 F2400.00000
G1 F1800
G1 X163.909 Y43.193 E3.58121
G1 X148.804 Y69.356 E4.16241
G1 X133.729 Y43.245 E4.74246
G1 E1.74246 F2400.00000
G92 E0
G1 X75.014 Y98.699 F4800.000
G1 E3.00000 F2400.00000
G1 F1800
G1 X75.259 Y98.971 E3.00704
G1 X75.442 Y99.288 E3.01408
G1 X75.555 Y99.636 E3.02113
G1 X75.593 Y100.000 E3.02817
G1 X75.555 Y100.364 E3.03521
G1 X75.442 Y100.712 E3.04225
G1 X75.259 Y101.029 E3.04929
G1 X75.014 Y101.301 E3.05633
G1 X74.718 Y101.516 E3.06338
G1 X74.383 Y101.665 E3.07042
G1 X74.025 Y101.741 E3.07746
G1 X73.659 Y101.741 E3.08450
G1 X73.301 Y101.665 E3.09154
G1 X72.967 Y101.516 E3.09858
G1 X72.671 Y101.301 E3.10563
G1 X72.426 Y101.029 E3.11267
G1 X72.243 Y100.712 E3.11971
G1 X72.130 Y100.364 E3.12675
G1 X72.091 Y100.000 E3.13379
G1 X72.130 Y99.636 E3.14083
G1 X72.243 Y99.288 E3.14788
G1 X72.426 Y98.971 E3.15492
G1 X72.671 Y98.699 E3.16196
G1 X72.967 Y98.484 E3.16900
G1 X73.301 Y98.335 E3.17604
G1 X73.659 Y98.259 E3.18309
G1 F1800
G1 X74.025 Y98.259 E3.19013
G1 X74.383 Y98.335 E3.19717
G1 X74.718 Y98.484 E3.20421
G1 X74.965 Y98.664 E3.21010
G1 X75.014 Y98.699 F4800.000
G1 E0.21010 F2400.00000
G92 E0
G1 X62.564 Y96.507 F4800.000
G1 E3.00000 F2400.00000
G1 F1800
G1 X62.564 Y89.442 E3.13592
G1 X131.247 Y49.788 E4.66170
G1 X145.311 Y74.148 E5.20286
G1 X145.311 Y83.157 E5.37617
G1 X140.824 Y83.157 E5.46250
G1 X140.494 Y83.190 E5.46889
G1 X140.195 Y83.280 E5.47489
G1 X139.911 Y83.432 E5.48108
G1 X139.802 Y83.513 E5.48370
G1 X139.567 Y83.748 E5.49009
G1 X139.480 Y83.865 E5.49289
G1 X139.402 Y83.996 E5.49583
G1 X139.282 Y84.288 E5.50190
G1 X139.219 Y84.604 E5.50810
G1 X139.211 Y84.760 E5.51111
G1 X139.211 Y96.507 E5.73711
G1 X62.624 Y96.507 E7.21053
G1 X127.289 Y100.000 F4800.000
G1 F1800
G1 X127.328 Y99.636 E7.21757
G1 X127.441 Y99.288 E7.22462
G1 X127.624 Y98.971 E7.23166
G1 X127.869 Y98.699 E7.23870
G1 X128.165 Y98.484 E7.24574
G1 X128.499 Y98.335 E7.25278
G1 X128.857 Y98.259 E7.25983
G1 F1800
G1 X129.223 Y98.259 E7.26687
G1 X129.581 Y98.335 E7.27391
G1 X129.916 Y98.484 E7.28095
G1 X130.212 Y98.699 E7.28799
G1 X130.457 Y98.971 E7.29503
G1 X130.640 Y99.288 E7.30208
G1 X130.753 Y99.636 E7.30912
G1 X130.791 Y100.000 E7.31616
G1 X130.753 Y100.364 E7.32320
G1 X130.640 Y100.712 E7.33024
G1 X130.457 Y101.029 E7.33728
G1 X130.212 Y101.301 E7.34433
G1 X129.916 Y101.516 E7.35137
G1 X129.581 Y101.665 E7.35841
G1 X129.223 Y101.741 E7.36545
G1 X128.857 Y101.741 E7.37249
G1 X128.499 Y101.665 E7.37953
G1 X128.165 Y101.516 E7.38658
G1 X127.869 Y101.301 E7.39362
G1 X127.624 Y101.029 E7.40066
G1 X127.441 Y100.712 E7.40770
G1 X127.328 Y100.364 E7.41474
G1 X127.296 Y100.060 E7.42063
G1 X127.289 Y100.000 F4800.000
G1 X127.034 Y100.027 F4800.000
G1 F1800
G1 X127.075 Y99.582 E7.42922
G1 X127.205 Y99.183 E7.43730
G1 X127.415 Y98.819 E7.44539
G1 X127.696 Y98.507 E7.45347
G1 X128.036 Y98.260 E7.46155
